(G-code generated by FlatCAM Evo vUnstable - Version Date: 2022/4/31)

(Name: maynuo_banana_adapter-B_Cu.gbr_ncc_cnc)
(Type: G-code from Geometry)
(Units: MM)

(Created on Wednesday, 26 April 2023 at 19:45)

(This preprocessor is the default preprocessor.)
(It is made to work with MACH3 compatible motion controllers.)

(TOOL DIAMETER: 1.0 mm)
(Feedrate_XY: 120.0 mm/min)
(Feedrate_Z: 60.0 mm/min)
(Feedrate rapids 1500.0 mm/min)

(Z_Cut: -0.1 mm)
(DepthPerCut: 0.05 mm <=>2 passes)
(Z_Move: 2.0 mm)
(Z Start: None mm)
(Z End: 15.0 mm)
(X,Y End: 0.0000, 0.0000 mm)
(Steps per circle: 16)
(Preprocessor Geometry: default)

(X range:  -75.7431 ...   -0.2069  mm)
(Y range:  -38.9727 ...   -0.2273  mm)

(Spindle Speed: 13000.0 RPM)
G21
G90
G94

G01 F120.00
G00 Z2.0000

M03 S13000.0
G4 P1.0
G01 F120.00
G00 X-21.2215 Y-0.6296
G01 F60.00
G01 Z-0.0500
G01 F120.00
G01 X-21.5896 Y-0.5793
G01 X-22.2700 Y-0.5218
G01 X-22.9725 Y-0.5016
G01 X-37.3589 Y-0.5016
G01 X-37.4435 Y-0.5102
G01 X-37.5581 Y-0.5397
G01 X-37.6224 Y-0.5643
G01 X-37.6907 Y-0.6026
G01 X-37.7495 Y-0.6487
G01 X-37.8339 Y-0.7340
G01 X-37.8807 Y-0.7968
G01 X-37.9170 Y-0.8661
G01 X-37.9615 Y-1.0136
G01 X-37.9740 Y-1.1245
G01 X-37.9739 Y-38.0785
G01 X-37.9653 Y-38.1680
G01 X-37.9378 Y-38.2758
G01 X-37.8807 Y-38.4032
G01 X-37.8268 Y-38.4740
G01 X-37.7415 Y-38.5584
G01 X-37.6787 Y-38.6052
G01 X-37.6094 Y-38.6415
G01 X-37.4619 Y-38.6860
G01 X-37.3510 Y-38.6985
G01 X-7.9773 Y-38.6985
G01 X-7.4289 Y-38.6783
G01 X-6.8881 Y-38.6185
G01 X-6.3256 Y-38.5139
G01 X-5.7949 Y-38.3732
G01 X-5.2651 Y-38.1901
G01 X-4.9847 Y-38.0716
G01 X-4.7330 Y-37.9594
G01 X-4.2386 Y-37.6989
G01 X-3.7738 Y-37.4083
G01 X-3.3357 Y-37.0877
G01 X-2.9105 Y-36.7259
G01 X-2.6931 Y-36.5169
G01 X-2.4981 Y-36.3172
G01 X-2.1327 Y-35.8954
G01 X-1.8082 Y-35.4601
G01 X-1.5134 Y-34.9976
G01 X-1.3592 Y-34.7225
G01 X-1.1175 Y-34.2257
G01 X-0.9178 Y-33.7254
G01 X-0.8295 Y-33.4607
G01 X-0.7433 Y-33.1717
G01 X-0.6208 Y-32.6508
G01 X-0.5303 Y-32.0763
G01 X-0.4865 Y-31.5438
G01 X-0.4812 Y-31.2690
G01 X-0.4820 Y-30.9650
G01 X-0.5175 Y-30.4322
G01 X-0.5993 Y-29.8553
G01 X-0.7140 Y-29.3317
G01 X-0.7870 Y-29.0807
G01 X-0.8794 Y-28.7771
G01 X-1.0695 Y-28.2783
G01 X-1.3101 Y-27.7641
G01 X-11.8634 Y-7.2778
G01 X-12.2025 Y-6.6631
G01 X-12.5734 Y-6.0719
G01 X-12.9791 Y-5.4990
G01 X-13.4165 Y-4.9497
G01 X-13.8837 Y-4.4261
G01 X-14.3798 Y-3.9293
G01 X-14.9027 Y-3.4614
G01 X-15.4513 Y-3.0234
G01 X-16.0235 Y-2.6169
G01 X-16.6176 Y-2.2431
G01 X-16.9281 Y-2.0653
G01 X-17.2319 Y-1.9033
G01 X-17.5513 Y-1.7429
G01 X-17.8640 Y-1.5985
G01 X-18.1921 Y-1.4557
G01 X-18.5119 Y-1.3298
G01 X-18.8475 Y-1.2051
G01 X-19.1729 Y-1.0982
G01 X-19.5164 Y-0.9916
G01 X-19.8483 Y-0.9033
G01 X-20.1960 Y-0.8160
G01 X-20.5319 Y-0.7471
G01 X-20.8844 Y-0.6788
G01 X-21.2215 Y-0.6296
G00 X-21.2215 Y-0.6296
G01 F60.00
G01 Z-0.1000
G01 F120.00
G01 X-20.8844 Y-0.6788
G01 X-20.5319 Y-0.7471
G01 X-20.1960 Y-0.8160
G01 X-19.8483 Y-0.9033
G01 X-19.5164 Y-0.9916
G01 X-19.1729 Y-1.0982
G01 X-18.8475 Y-1.2051
G01 X-18.5119 Y-1.3298
G01 X-18.1921 Y-1.4557
G01 X-17.8640 Y-1.5985
G01 X-17.5513 Y-1.7429
G01 X-17.2319 Y-1.9033
G01 X-16.9281 Y-2.0653
G01 X-16.6176 Y-2.2431
G01 X-16.0235 Y-2.6169
G01 X-15.4513 Y-3.0234
G01 X-14.9027 Y-3.4614
G01 X-14.3798 Y-3.9293
G01 X-13.8837 Y-4.4261
G01 X-13.4165 Y-4.9497
G01 X-12.9791 Y-5.4990
G01 X-12.5734 Y-6.0719
G01 X-12.2025 Y-6.6631
G01 X-11.8634 Y-7.2778
G01 X-1.3101 Y-27.7641
G01 X-1.0695 Y-28.2783
G01 X-0.8794 Y-28.7771
G01 X-0.7870 Y-29.0807
G01 X-0.7140 Y-29.3317
G01 X-0.5993 Y-29.8553
G01 X-0.5175 Y-30.4322
G01 X-0.4820 Y-30.9650
G01 X-0.4812 Y-31.2690
G01 X-0.4865 Y-31.5438
G01 X-0.5303 Y-32.0763
G01 X-0.6208 Y-32.6508
G01 X-0.7433 Y-33.1717
G01 X-0.8295 Y-33.4607
G01 X-0.9178 Y-33.7254
G01 X-1.1175 Y-34.2257
G01 X-1.3592 Y-34.7225
G01 X-1.5134 Y-34.9976
G01 X-1.8082 Y-35.4601
G01 X-2.1327 Y-35.8954
G01 X-2.4981 Y-36.3172
G01 X-2.6931 Y-36.5169
G01 X-2.9105 Y-36.7259
G01 X-3.3357 Y-37.0877
G01 X-3.7738 Y-37.4083
G01 X-4.2386 Y-37.6989
G01 X-4.7330 Y-37.9594
G01 X-4.9847 Y-38.0716
G01 X-5.2651 Y-38.1901
G01 X-5.7949 Y-38.3732
G01 X-6.3256 Y-38.5139
G01 X-6.8881 Y-38.6185
G01 X-7.4289 Y-38.6783
G01 X-7.9773 Y-38.6985
G01 X-37.3510 Y-38.6985
G01 X-37.4619 Y-38.6860
G01 X-37.6094 Y-38.6415
G01 X-37.6787 Y-38.6052
G01 X-37.7415 Y-38.5584
G01 X-37.8268 Y-38.4740
G01 X-37.8807 Y-38.4032
G01 X-37.9378 Y-38.2758
G01 X-37.9653 Y-38.1680
G01 X-37.9739 Y-38.0785
G01 X-37.9740 Y-1.1245
G01 X-37.9615 Y-1.0136
G01 X-37.9170 Y-0.8661
G01 X-37.8807 Y-0.7968
G01 X-37.8339 Y-0.7340
G01 X-37.7495 Y-0.6487
G01 X-37.6907 Y-0.6026
G01 X-37.6224 Y-0.5643
G01 X-37.5581 Y-0.5397
G01 X-37.4435 Y-0.5102
G01 X-37.3589 Y-0.5016
G01 X-22.9725 Y-0.5016
G01 X-22.2700 Y-0.5218
G01 X-21.5896 Y-0.5793
G01 X-21.2215 Y-0.6296
G00 Z2.0000
G00 X-21.2605 Y-0.8990
G01 F60.00
G01 Z-0.0500
G01 F120.00
G01 X-21.6174 Y-0.8501
G01 X-22.2896 Y-0.7933
G01 X-22.9752 Y-0.7737
G01 X-37.3510 Y-0.7737
G01 X-37.4774 Y-0.7997
G01 X-37.5365 Y-0.8269
G01 X-37.6269 Y-0.9107
G01 X-37.6656 Y-0.9703
G01 X-37.6953 Y-1.0706
G01 X-37.7018 Y-1.1245
G01 X-37.7018 Y-38.0755
G01 X-37.6758 Y-38.2019
G01 X-37.6486 Y-38.2610
G01 X-37.5648 Y-38.3514
G01 X-37.5052 Y-38.3901
G01 X-37.4049 Y-38.4198
G01 X-37.3510 Y-38.4263
G01 X-7.9773 Y-38.4263
G01 X-7.4489 Y-38.4069
G01 X-6.9221 Y-38.3485
G01 X-6.3857 Y-38.2485
G01 X-5.8693 Y-38.1115
G01 X-5.3610 Y-37.9354
G01 X-5.0926 Y-37.8217
G01 X-4.8548 Y-37.7160
G01 X-4.3780 Y-37.4651
G01 X-3.9263 Y-37.1829
G01 X-3.5012 Y-36.8717
G01 X-3.0917 Y-36.5229
G01 X-2.8848 Y-36.3237
G01 X-2.7004 Y-36.1351
G01 X-2.3478 Y-35.7286
G01 X-2.0323 Y-35.3056
G01 X-1.7458 Y-34.8559
G01 X-1.6017 Y-34.5988
G01 X-1.3672 Y-34.1174
G01 X-1.1723 Y-33.6290
G01 X-1.0891 Y-33.3787
G01 X-1.0068 Y-33.1035
G01 X-0.8870 Y-32.5942
G01 X-0.8010 Y-32.0484
G01 X-0.7581 Y-31.5270
G01 X-0.7533 Y-31.2667
G01 X-0.7539 Y-30.9760
G01 X-0.7887 Y-30.4553
G01 X-0.8666 Y-29.9068
G01 X-0.9783 Y-29.3966
G01 X-1.0477 Y-29.1588
G01 X-1.1360 Y-28.8679
G01 X-1.3223 Y-28.3792
G01 X-1.5520 Y-27.8887
G01 X-12.1053 Y-7.4025
G01 X-12.4358 Y-6.8032
G01 X-12.7999 Y-6.2227
G01 X-13.1968 Y-5.6623
G01 X-13.6246 Y-5.1250
G01 X-14.0818 Y-4.6128
G01 X-14.5670 Y-4.1268
G01 X-15.0786 Y-3.6691
G01 X-15.6152 Y-3.2406
G01 X-16.1749 Y-2.8430
G01 X-16.7561 Y-2.4774
G01 X-17.0597 Y-2.3035
G01 X-17.3569 Y-2.1450
G01 X-17.6695 Y-1.9880
G01 X-17.9753 Y-1.8469
G01 X-18.2962 Y-1.7072
G01 X-18.6092 Y-1.5840
G01 X-18.9374 Y-1.4620
G01 X-19.2556 Y-1.3575
G01 X-19.5916 Y-1.2532
G01 X-19.9165 Y-1.1668
G01 X-20.2565 Y-1.0814
G01 X-20.5852 Y-1.0139
G01 X-20.9299 Y-0.9471
G01 X-21.2605 Y-0.8990
G00 X-21.2605 Y-0.8990
G01 F60.00
G01 Z-0.1000
G01 F120.00
G01 X-20.9299 Y-0.9471
G01 X-20.5852 Y-1.0139
G01 X-20.2565 Y-1.0814
G01 X-19.9165 Y-1.1668
G01 X-19.5916 Y-1.2532
G01 X-19.2556 Y-1.3575
G01 X-18.9374 Y-1.4620
G01 X-18.6092 Y-1.5840
G01 X-18.2962 Y-1.7072
G01 X-17.9753 Y-1.8469
G01 X-17.6695 Y-1.9880
G01 X-17.3569 Y-2.1450
G01 X-17.0597 Y-2.3035
G01 X-16.7561 Y-2.4774
G01 X-16.1749 Y-2.8430
G01 X-15.6152 Y-3.2406
G01 X-15.0786 Y-3.6691
G01 X-14.5670 Y-4.1268
G01 X-14.0818 Y-4.6128
G01 X-13.6246 Y-5.1250
G01 X-13.1968 Y-5.6623
G01 X-12.7999 Y-6.2227
G01 X-12.4358 Y-6.8032
G01 X-12.1053 Y-7.4025
G01 X-1.5520 Y-27.8887
G01 X-1.3223 Y-28.3792
G01 X-1.1360 Y-28.8679
G01 X-1.0477 Y-29.1588
G01 X-0.9783 Y-29.3966
G01 X-0.8666 Y-29.9068
G01 X-0.7887 Y-30.4553
G01 X-0.7539 Y-30.9760
G01 X-0.7533 Y-31.2667
G01 X-0.7581 Y-31.5270
G01 X-0.8010 Y-32.0484
G01 X-0.8870 Y-32.5942
G01 X-1.0068 Y-33.1035
G01 X-1.0891 Y-33.3787
G01 X-1.1723 Y-33.6290
G01 X-1.3672 Y-34.1174
G01 X-1.6017 Y-34.5988
G01 X-1.7458 Y-34.8559
G01 X-2.0323 Y-35.3056
G01 X-2.3478 Y-35.7286
G01 X-2.7004 Y-36.1351
G01 X-2.8848 Y-36.3237
G01 X-3.0917 Y-36.5229
G01 X-3.5012 Y-36.8717
G01 X-3.9263 Y-37.1829
G01 X-4.3780 Y-37.4651
G01 X-4.8548 Y-37.7160
G01 X-5.0926 Y-37.8217
G01 X-5.3610 Y-37.9354
G01 X-5.8693 Y-38.1115
G01 X-6.3857 Y-38.2485
G01 X-6.9221 Y-38.3485
G01 X-7.4489 Y-38.4069
G01 X-7.9773 Y-38.4263
G01 X-37.3510 Y-38.4263
G01 X-37.4049 Y-38.4198
G01 X-37.5052 Y-38.3901
G01 X-37.5648 Y-38.3514
G01 X-37.6486 Y-38.2610
G01 X-37.6758 Y-38.2019
G01 X-37.7018 Y-38.0755
G01 X-37.7018 Y-1.1245
G01 X-37.6953 Y-1.0706
G01 X-37.6656 Y-0.9703
G01 X-37.6269 Y-0.9107
G01 X-37.5365 Y-0.8269
G01 X-37.4774 Y-0.7997
G01 X-37.3510 Y-0.7737
G01 X-22.9752 Y-0.7737
G01 X-22.2896 Y-0.7933
G01 X-21.6174 Y-0.8501
G01 X-21.2605 Y-0.8990
G00 Z2.0000
G00 X-8.7376 Y-27.3831
G01 F60.00
G01 Z-0.0500
G01 F120.00
G01 X-8.7719 Y-27.3488
G01 X-8.6718 Y-27.2941
G01 X-8.4476 Y-27.2105
G01 X-8.2137 Y-27.1596
G01 X-7.9750 Y-27.1425
G01 X-7.7363 Y-27.1596
G01 X-7.5024 Y-27.2105
G01 X-7.2781 Y-27.2941
G01 X-7.1781 Y-27.3488
G01 X-7.2124 Y-27.3831
G01 X-7.3628 Y-27.3130
G01 X-7.5028 Y-27.2632
G01 X-7.6468 Y-27.2269
G01 X-7.8155 Y-27.2010
G01 X-7.9750 Y-27.1932
G01 X-8.1345 Y-27.2010
G01 X-8.3032 Y-27.2269
G01 X-8.4472 Y-27.2632
G01 X-8.5872 Y-27.3130
G01 X-8.7376 Y-27.3831
G00 X-8.7376 Y-27.3831
G01 F60.00
G01 Z-0.1000
G01 F120.00
G01 X-8.5872 Y-27.3130
G01 X-8.4472 Y-27.2632
G01 X-8.3032 Y-27.2269
G01 X-8.1345 Y-27.2010
G01 X-7.9750 Y-27.1932
G01 X-7.8155 Y-27.2010
G01 X-7.6468 Y-27.2269
G01 X-7.5028 Y-27.2632
G01 X-7.3628 Y-27.3130
G01 X-7.2124 Y-27.3831
G01 X-7.1781 Y-27.3488
G01 X-7.2781 Y-27.2941
G01 X-7.5024 Y-27.2105
G01 X-7.7363 Y-27.1596
G01 X-7.9750 Y-27.1425
G01 X-8.2137 Y-27.1596
G01 X-8.4476 Y-27.2105
G01 X-8.6718 Y-27.2941
G01 X-8.7719 Y-27.3488
G01 X-8.7376 Y-27.3831
G00 Z2.0000
G00 X-6.5381 Y-28.0574
G01 F60.00
G01 Z-0.0500
G01 F120.00
G01 X-6.5038 Y-28.0231
G01 X-6.4491 Y-28.1231
G01 X-6.3655 Y-28.3474
G01 X-6.3146 Y-28.5813
G01 X-6.2975 Y-28.8200
G01 X-6.3146 Y-29.0587
G01 X-6.3365 Y-29.1679
G01 X-6.3344 Y-29.2688
G01 X-6.3090 Y-29.3553
G01 X-6.2375 Y-29.4625
G01 X-6.1303 Y-29.5340
G01 X-6.0438 Y-29.5594
G01 X-5.9429 Y-29.5615
G01 X-5.8337 Y-29.5396
G01 X-5.5950 Y-29.5225
G01 X-5.3563 Y-29.5396
G01 X-5.1224 Y-29.5905
G01 X-4.8981 Y-29.6741
G01 X-4.7981 Y-29.7288
G01 X-4.8324 Y-29.7631
G01 X-4.9828 Y-29.6930
G01 X-5.1228 Y-29.6432
G01 X-5.2668 Y-29.6069
G01 X-5.4355 Y-29.5810
G01 X-5.5950 Y-29.5732
G01 X-5.7545 Y-29.5810
G01 X-5.9232 Y-29.6069
G01 X-6.0672 Y-29.6432
G01 X-6.2072 Y-29.6930
G01 X-6.3576 Y-29.7631
G01 X-6.5381 Y-29.5826
G01 X-6.4680 Y-29.4322
G01 X-6.4182 Y-29.2922
G01 X-6.3819 Y-29.1482
G01 X-6.3560 Y-28.9795
G01 X-6.3482 Y-28.8200
G01 X-6.3560 Y-28.6605
G01 X-6.3819 Y-28.4918
G01 X-6.4182 Y-28.3478
G01 X-6.4680 Y-28.2078
G01 X-6.5381 Y-28.0574
G00 X-6.5381 Y-28.0574
G01 F60.00
G01 Z-0.1000
G01 F120.00
G01 X-6.4680 Y-28.2078
G01 X-6.4182 Y-28.3478
G01 X-6.3819 Y-28.4918
G01 X-6.3560 Y-28.6605
G01 X-6.3482 Y-28.8200
G01 X-6.3560 Y-28.9795
G01 X-6.3819 Y-29.1482
G01 X-6.4182 Y-29.2922
G01 X-6.4680 Y-29.4322
G01 X-6.5381 Y-29.5826
G01 X-6.3576 Y-29.7631
G01 X-6.2072 Y-29.6930
G01 X-6.0672 Y-29.6432
G01 X-5.9232 Y-29.6069
G01 X-5.7545 Y-29.5810
G01 X-5.5950 Y-29.5732
G01 X-5.4355 Y-29.5810
G01 X-5.2668 Y-29.6069
G01 X-5.1228 Y-29.6432
G01 X-4.9828 Y-29.6930
G01 X-4.8324 Y-29.7631
G01 X-4.7981 Y-29.7288
G01 X-4.8981 Y-29.6741
G01 X-5.1224 Y-29.5905
G01 X-5.3563 Y-29.5396
G01 X-5.5950 Y-29.5225
G01 X-5.8337 Y-29.5396
G01 X-5.9429 Y-29.5615
G01 X-6.0438 Y-29.5594
G01 X-6.1303 Y-29.5340
G01 X-6.2375 Y-29.4625
G01 X-6.3090 Y-29.3553
G01 X-6.3344 Y-29.2688
G01 X-6.3365 Y-29.1679
G01 X-6.3146 Y-29.0587
G01 X-6.2975 Y-28.8200
G01 X-6.3146 Y-28.5813
G01 X-6.3655 Y-28.3474
G01 X-6.4491 Y-28.1231
G01 X-6.5038 Y-28.0231
G01 X-6.5381 Y-28.0574
G00 Z2.0000
G00 X-8.9181 Y-30.4374
G01 F60.00
G01 Z-0.0500
G01 F120.00
G01 X-8.7376 Y-30.2569
G01 X-8.5872 Y-30.3270
G01 X-8.4472 Y-30.3768
G01 X-8.3032 Y-30.4131
G01 X-8.1345 Y-30.4390
G01 X-7.9750 Y-30.4468
G01 X-7.8155 Y-30.4390
G01 X-7.6468 Y-30.4131
G01 X-7.5028 Y-30.3768
G01 X-7.3628 Y-30.3270
G01 X-7.2124 Y-30.2569
G01 X-7.0319 Y-30.4374
G01 X-7.1020 Y-30.5878
G01 X-7.1518 Y-30.7278
G01 X-7.1881 Y-30.8718
G01 X-7.2140 Y-31.0405
G01 X-7.2218 Y-31.2000
G01 X-7.2140 Y-31.3595
G01 X-7.1881 Y-31.5282
G01 X-7.1518 Y-31.6722
G01 X-7.1020 Y-31.8122
G01 X-7.0319 Y-31.9626
G01 X-7.2124 Y-32.1431
G01 X-7.3628 Y-32.0730
G01 X-7.5028 Y-32.0232
G01 X-7.6468 Y-31.9869
G01 X-7.8155 Y-31.9610
G01 X-7.9750 Y-31.9532
G01 X-8.1345 Y-31.9610
G01 X-8.3032 Y-31.9869
G01 X-8.4472 Y-32.0232
G01 X-8.5872 Y-32.0730
G01 X-8.7376 Y-32.1431
G01 X-8.9181 Y-31.9626
G01 X-8.8480 Y-31.8122
G01 X-8.7982 Y-31.6722
G01 X-8.7619 Y-31.5282
G01 X-8.7360 Y-31.3595
G01 X-8.7282 Y-31.2000
G01 X-8.7360 Y-31.0405
G01 X-8.7619 Y-30.8718
G01 X-8.7982 Y-30.7278
G01 X-8.8480 Y-30.5878
G01 X-8.9181 Y-30.4374
G00 X-8.9181 Y-30.4374
G01 F60.00
G01 Z-0.1000
G01 F120.00
G01 X-8.8480 Y-30.5878
G01 X-8.7982 Y-30.7278
G01 X-8.7619 Y-30.8718
G01 X-8.7360 Y-31.0405
G01 X-8.7282 Y-31.2000
G01 X-8.7360 Y-31.3595
G01 X-8.7619 Y-31.5282
G01 X-8.7982 Y-31.6722
G01 X-8.8480 Y-31.8122
G01 X-8.9181 Y-31.9626
G01 X-8.7376 Y-32.1431
G01 X-8.5872 Y-32.0730
G01 X-8.4472 Y-32.0232
G01 X-8.3032 Y-31.9869
G01 X-8.1345 Y-31.9610
G01 X-7.9750 Y-31.9532
G01 X-7.8155 Y-31.9610
G01 X-7.6468 Y-31.9869
G01 X-7.5028 Y-32.0232
G01 X-7.3628 Y-32.0730
G01 X-7.2124 Y-32.1431
G01 X-7.0319 Y-31.9626
G01 X-7.1020 Y-31.8122
G01 X-7.1518 Y-31.6722
G01 X-7.1881 Y-31.5282
G01 X-7.2140 Y-31.3595
G01 X-7.2218 Y-31.2000
G01 X-7.2140 Y-31.0405
G01 X-7.1881 Y-30.8718
G01 X-7.1518 Y-30.7278
G01 X-7.1020 Y-30.5878
G01 X-7.0319 Y-30.4374
G01 X-7.2124 Y-30.2569
G01 X-7.3628 Y-30.3270
G01 X-7.5028 Y-30.3768
G01 X-7.6468 Y-30.4131
G01 X-7.8155 Y-30.4390
G01 X-7.9750 Y-30.4468
G01 X-8.1345 Y-30.4390
G01 X-8.3032 Y-30.4131
G01 X-8.4472 Y-30.3768
G01 X-8.5872 Y-30.3270
G01 X-8.7376 Y-30.2569
G01 X-8.9181 Y-30.4374
G00 Z2.0000
G00 X-8.1951 Y-31.4201
G01 F60.00
G01 Z-0.0500
G01 F120.00
G01 X-8.1840 Y-31.1933
G01 X-8.1951 Y-30.9799
G01 X-7.9817 Y-30.9910
G01 X-7.7549 Y-30.9799
G01 X-7.7660 Y-31.1933
G01 X-7.7549 Y-31.4201
G01 X-7.9683 Y-31.4090
G01 X-8.1951 Y-31.4201
G01 X-8.5434 Y-31.7684
G01 X-8.4883 Y-31.5463
G01 X-8.4646 Y-31.3795
G01 X-8.4561 Y-31.1933
G01 X-8.4646 Y-31.0205
G01 X-8.4883 Y-30.8537
G01 X-8.5434 Y-30.6316
G01 X-8.3213 Y-30.6867
G01 X-8.1545 Y-30.7104
G01 X-7.9683 Y-30.7189
G01 X-7.7955 Y-30.7104
G01 X-7.6287 Y-30.6867
G01 X-7.4066 Y-30.6316
G01 X-7.4617 Y-30.8537
G01 X-7.4854 Y-31.0205
G01 X-7.4939 Y-31.1933
G01 X-7.4854 Y-31.3795
G01 X-7.4617 Y-31.5463
G01 X-7.4066 Y-31.7684
G01 X-7.6287 Y-31.7133
G01 X-7.7955 Y-31.6896
G01 X-7.9817 Y-31.6811
G01 X-8.1545 Y-31.6896
G01 X-8.3213 Y-31.7133
G01 X-8.5434 Y-31.7684
G00 X-8.5434 Y-31.7684
G01 F60.00
G01 Z-0.1000
G01 F120.00
G01 X-8.3213 Y-31.7133
G01 X-8.1545 Y-31.6896
G01 X-7.9817 Y-31.6811
G01 X-7.7955 Y-31.6896
G01 X-7.6287 Y-31.7133
G01 X-7.4066 Y-31.7684
G01 X-7.4617 Y-31.5463
G01 X-7.4854 Y-31.3795
G01 X-7.4939 Y-31.1933
G01 X-7.4854 Y-31.0205
G01 X-7.4617 Y-30.8537
G01 X-7.4066 Y-30.6316
G01 X-7.6287 Y-30.6867
G01 X-7.7955 Y-30.7104
G01 X-7.9683 Y-30.7189
G01 X-8.1545 Y-30.7104
G01 X-8.3213 Y-30.6867
G01 X-8.5434 Y-30.6316
G01 X-8.4883 Y-30.8537
G01 X-8.4646 Y-31.0205
G01 X-8.4561 Y-31.1933
G01 X-8.4646 Y-31.3795
G01 X-8.4883 Y-31.5463
G01 X-8.5434 Y-31.7684
G01 X-8.1951 Y-31.4201
G01 X-7.9683 Y-31.4090
G01 X-7.7549 Y-31.4201
G01 X-7.7660 Y-31.1933
G01 X-7.7549 Y-30.9799
G01 X-7.9817 Y-30.9910
G01 X-8.1951 Y-30.9799
G01 X-8.1840 Y-31.1933
G01 X-8.1951 Y-31.4201
G00 Z2.0000
G00 X-6.5381 Y-32.8174
G01 F60.00
G01 Z-0.0500
G01 F120.00
G01 X-6.3576 Y-32.6369
G01 X-6.2072 Y-32.7070
G01 X-6.0672 Y-32.7568
G01 X-5.9232 Y-32.7931
G01 X-5.7545 Y-32.8190
G01 X-5.5950 Y-32.8268
G01 X-5.4355 Y-32.8190
G01 X-5.2668 Y-32.7931
G01 X-5.1228 Y-32.7568
G01 X-4.9828 Y-32.7070
G01 X-4.8324 Y-32.6369
G01 X-4.7981 Y-32.6712
G01 X-4.8981 Y-32.7259
G01 X-5.1224 Y-32.8095
G01 X-5.3563 Y-32.8604
G01 X-5.5950 Y-32.8775
G01 X-5.8337 Y-32.8604
G01 X-5.9429 Y-32.8385
G01 X-6.0438 Y-32.8406
G01 X-6.1302 Y-32.8660
G01 X-6.2375 Y-32.9375
G01 X-6.3090 Y-33.0447
G01 X-6.3344 Y-33.1312
G01 X-6.3365 Y-33.2321
G01 X-6.3146 Y-33.3413
G01 X-6.2975 Y-33.5800
G01 X-6.3146 Y-33.8187
G01 X-6.3655 Y-34.0526
G01 X-6.4491 Y-34.2768
G01 X-6.5038 Y-34.3769
G01 X-6.5381 Y-34.3426
G01 X-6.4680 Y-34.1922
G01 X-6.4182 Y-34.0522
G01 X-6.3819 Y-33.9082
G01 X-6.3560 Y-33.7395
G01 X-6.3482 Y-33.5800
G01 X-6.3560 Y-33.4205
G01 X-6.3819 Y-33.2518
G01 X-6.4182 Y-33.1078
G01 X-6.4680 Y-32.9678
G01 X-6.5381 Y-32.8174
G00 X-6.5381 Y-32.8174
G01 F60.00
G01 Z-0.1000
G01 F120.00
G01 X-6.4680 Y-32.9678
G01 X-6.4182 Y-33.1078
G01 X-6.3819 Y-33.2518
G01 X-6.3560 Y-33.4205
G01 X-6.3482 Y-33.5800
G01 X-6.3560 Y-33.7395
G01 X-6.3819 Y-33.9082
G01 X-6.4182 Y-34.0522
G01 X-6.4680 Y-34.1922
G01 X-6.5381 Y-34.3426
G01 X-6.5038 Y-34.3769
G01 X-6.4491 Y-34.2768
G01 X-6.3655 Y-34.0526
G01 X-6.3146 Y-33.8187
G01 X-6.2975 Y-33.5800
G01 X-6.3146 Y-33.3413
G01 X-6.3365 Y-33.2321
G01 X-6.3344 Y-33.1312
G01 X-6.3090 Y-33.0447
G01 X-6.2375 Y-32.9375
G01 X-6.1302 Y-32.8660
G01 X-6.0438 Y-32.8406
G01 X-5.9429 Y-32.8385
G01 X-5.8337 Y-32.8604
G01 X-5.5950 Y-32.8775
G01 X-5.3563 Y-32.8604
G01 X-5.1224 Y-32.8095
G01 X-4.8981 Y-32.7259
G01 X-4.7981 Y-32.6712
G01 X-4.8324 Y-32.6369
G01 X-4.9828 Y-32.7070
G01 X-5.1228 Y-32.7568
G01 X-5.2668 Y-32.7931
G01 X-5.4355 Y-32.8190
G01 X-5.5950 Y-32.8268
G01 X-5.7545 Y-32.8190
G01 X-5.9232 Y-32.7931
G01 X-6.0672 Y-32.7568
G01 X-6.2072 Y-32.7070
G01 X-6.3576 Y-32.6369
G01 X-6.5381 Y-32.8174
G00 Z2.0000
G00 X-8.7719 Y-35.0512
G01 F60.00
G01 Z-0.0500
G01 F120.00
G01 X-8.7376 Y-35.0169
G01 X-8.5872 Y-35.0870
G01 X-8.4472 Y-35.1368
G01 X-8.3032 Y-35.1731
G01 X-8.1345 Y-35.1990
G01 X-7.9750 Y-35.2068
G01 X-7.8155 Y-35.1990
G01 X-7.6468 Y-35.1731
G01 X-7.5028 Y-35.1368
G01 X-7.3628 Y-35.0870
G01 X-7.2124 Y-35.0169
G01 X-7.1781 Y-35.0512
G01 X-7.2781 Y-35.1059
G01 X-7.5024 Y-35.1895
G01 X-7.7363 Y-35.2404
G01 X-7.9750 Y-35.2575
G01 X-8.2137 Y-35.2404
G01 X-8.4476 Y-35.1895
G01 X-8.6719 Y-35.1059
G01 X-8.7719 Y-35.0512
G00 X-8.7719 Y-35.0512
G01 F60.00
G01 Z-0.1000
G01 F120.00
G01 X-8.6719 Y-35.1059
G01 X-8.4476 Y-35.1895
G01 X-8.2137 Y-35.2404
G01 X-7.9750 Y-35.2575
G01 X-7.7363 Y-35.2404
G01 X-7.5024 Y-35.1895
G01 X-7.2781 Y-35.1059
G01 X-7.1781 Y-35.0512
G01 X-7.2124 Y-35.0169
G01 X-7.3628 Y-35.0870
G01 X-7.5028 Y-35.1368
G01 X-7.6468 Y-35.1731
G01 X-7.8155 Y-35.1990
G01 X-7.9750 Y-35.2068
G01 X-8.1345 Y-35.1990
G01 X-8.3032 Y-35.1731
G01 X-8.4472 Y-35.1368
G01 X-8.5872 Y-35.0870
G01 X-8.7376 Y-35.0169
G01 X-8.7719 Y-35.0512
G00 Z2.0000
G00 X-11.1519 Y-32.6712
G01 F60.00
G01 Z-0.0500
G01 F120.00
G01 X-11.1176 Y-32.6369
G01 X-10.9672 Y-32.7070
G01 X-10.8272 Y-32.7568
G01 X-10.6832 Y-32.7931
G01 X-10.5145 Y-32.8190
G01 X-10.3550 Y-32.8268
G01 X-10.1955 Y-32.8190
G01 X-10.0268 Y-32.7931
G01 X-9.8828 Y-32.7568
G01 X-9.7428 Y-32.7070
G01 X-9.5924 Y-32.6369
G01 X-9.4119 Y-32.8174
G01 X-9.4820 Y-32.9678
G01 X-9.5318 Y-33.1078
G01 X-9.5681 Y-33.2518
G01 X-9.5940 Y-33.4205
G01 X-9.6018 Y-33.5800
G01 X-9.5940 Y-33.7395
G01 X-9.5681 Y-33.9082
G01 X-9.5318 Y-34.0522
G01 X-9.4820 Y-34.1922
G01 X-9.4119 Y-34.3426
G01 X-9.4462 Y-34.3769
G01 X-9.5009 Y-34.2769
G01 X-9.5845 Y-34.0526
G01 X-9.6354 Y-33.8187
G01 X-9.6525 Y-33.5800
G01 X-9.6354 Y-33.3413
G01 X-9.6135 Y-33.2321
G01 X-9.6156 Y-33.1312
G01 X-9.6410 Y-33.0447
G01 X-9.7125 Y-32.9375
G01 X-9.8197 Y-32.8660
G01 X-9.9062 Y-32.8406
G01 X-10.0071 Y-32.8385
G01 X-10.1163 Y-32.8604
G01 X-10.3550 Y-32.8775
G01 X-10.5937 Y-32.8604
G01 X-10.8276 Y-32.8095
G01 X-11.0519 Y-32.7259
G01 X-11.1519 Y-32.6712
G00 X-11.1519 Y-32.6712
G01 F60.00
G01 Z-0.1000
G01 F120.00
G01 X-11.0519 Y-32.7259
G01 X-10.8276 Y-32.8095
G01 X-10.5937 Y-32.8604
G01 X-10.3550 Y-32.8775
G01 X-10.1163 Y-32.8604
G01 X-10.0071 Y-32.8385
G01 X-9.9062 Y-32.8406
G01 X-9.8197 Y-32.8660
G01 X-9.7125 Y-32.9375
G01 X-9.6410 Y-33.0447
G01 X-9.6156 Y-33.1312
G01 X-9.6135 Y-33.2321
G01 X-9.6354 Y-33.3413
G01 X-9.6525 Y-33.5800
G01 X-9.6354 Y-33.8187
G01 X-9.5845 Y-34.0526
G01 X-9.5009 Y-34.2769
G01 X-9.4462 Y-34.3769
G01 X-9.4119 Y-34.3426
G01 X-9.4820 Y-34.1922
G01 X-9.5318 Y-34.0522
G01 X-9.5681 Y-33.9082
G01 X-9.5940 Y-33.7395
G01 X-9.6018 Y-33.5800
G01 X-9.5940 Y-33.4205
G01 X-9.5681 Y-33.2518
G01 X-9.5318 Y-33.1078
G01 X-9.4820 Y-32.9678
G01 X-9.4119 Y-32.8174
G01 X-9.5924 Y-32.6369
G01 X-9.7428 Y-32.7070
G01 X-9.8828 Y-32.7568
G01 X-10.0268 Y-32.7931
G01 X-10.1955 Y-32.8190
G01 X-10.3550 Y-32.8268
G01 X-10.5145 Y-32.8190
G01 X-10.6832 Y-32.7931
G01 X-10.8272 Y-32.7568
G01 X-10.9672 Y-32.7070
G01 X-11.1176 Y-32.6369
G01 X-11.1519 Y-32.6712
G00 Z2.0000
G00 X-11.8262 Y-30.4031
G01 F60.00
G01 Z-0.0500
G01 F120.00
G01 X-11.7919 Y-30.4374
G01 X-11.8620 Y-30.5878
G01 X-11.9118 Y-30.7278
G01 X-11.9481 Y-30.8718
G01 X-11.9740 Y-31.0405
G01 X-11.9818 Y-31.2000
G01 X-11.9740 Y-31.3595
G01 X-11.9481 Y-31.5282
G01 X-11.9118 Y-31.6722
G01 X-11.8620 Y-31.8122
G01 X-11.7919 Y-31.9626
G01 X-11.8262 Y-31.9969
G01 X-11.8809 Y-31.8969
G01 X-11.9645 Y-31.6726
G01 X-12.0154 Y-31.4387
G01 X-12.0325 Y-31.2000
G01 X-12.0154 Y-30.9613
G01 X-11.9645 Y-30.7274
G01 X-11.8809 Y-30.5031
G01 X-11.8262 Y-30.4031
G00 X-11.8262 Y-30.4031
G01 F60.00
G01 Z-0.1000
G01 F120.00
G01 X-11.8809 Y-30.5031
G01 X-11.9645 Y-30.7274
G01 X-12.0154 Y-30.9613
G01 X-12.0325 Y-31.2000
G01 X-12.0154 Y-31.4387
G01 X-11.9645 Y-31.6726
G01 X-11.8809 Y-31.8969
G01 X-11.8262 Y-31.9969
G01 X-11.7919 Y-31.9626
G01 X-11.8620 Y-31.8122
G01 X-11.9118 Y-31.6722
G01 X-11.9481 Y-31.5282
G01 X-11.9740 Y-31.3595
G01 X-11.9818 Y-31.2000
G01 X-11.9740 Y-31.0405
G01 X-11.9481 Y-30.8718
G01 X-11.9118 Y-30.7278
G01 X-11.8620 Y-30.5878
G01 X-11.7919 Y-30.4374
G01 X-11.8262 Y-30.4031
G00 Z2.0000
G00 X-11.1519 Y-29.7288
G01 F60.00
G01 Z-0.0500
G01 F120.00
G01 X-11.0518 Y-29.6741
G01 X-10.8276 Y-29.5905
G01 X-10.5937 Y-29.5396
G01 X-10.3550 Y-29.5225
G01 X-10.1163 Y-29.5396
G01 X-10.0071 Y-29.5615
G01 X-9.9062 Y-29.5594
G01 X-9.8197 Y-29.5340
G01 X-9.7125 Y-29.4625
G01 X-9.6410 Y-29.3552
G01 X-9.6156 Y-29.2688
G01 X-9.6135 Y-29.1679
G01 X-9.6354 Y-29.0587
G01 X-9.6525 Y-28.8200
G01 X-9.6354 Y-28.5813
G01 X-9.5845 Y-28.3474
G01 X-9.5009 Y-28.1231
G01 X-9.4462 Y-28.0231
G01 X-9.4119 Y-28.0574
G01 X-9.4820 Y-28.2078
G01 X-9.5318 Y-28.3478
G01 X-9.5681 Y-28.4918
G01 X-9.5940 Y-28.6605
G01 X-9.6018 Y-28.8200
G01 X-9.5940 Y-28.9795
G01 X-9.5681 Y-29.1482
G01 X-9.5318 Y-29.2922
G01 X-9.4820 Y-29.4322
G01 X-9.4119 Y-29.5826
G01 X-9.5924 Y-29.7631
G01 X-9.7428 Y-29.6930
G01 X-9.8828 Y-29.6432
G01 X-10.0268 Y-29.6069
G01 X-10.1955 Y-29.5810
G01 X-10.3550 Y-29.5732
G01 X-10.5145 Y-29.5810
G01 X-10.6832 Y-29.6069
G01 X-10.8272 Y-29.6432
G01 X-10.9672 Y-29.6930
G01 X-11.1176 Y-29.7631
G01 X-11.1519 Y-29.7288
G00 X-11.1519 Y-29.7288
G01 F60.00
G01 Z-0.1000
G01 F120.00
G01 X-11.1176 Y-29.7631
G01 X-10.9672 Y-29.6930
G01 X-10.8272 Y-29.6432
G01 X-10.6832 Y-29.6069
G01 X-10.5145 Y-29.5810
G01 X-10.3550 Y-29.5732
G01 X-10.1955 Y-29.5810
G01 X-10.0268 Y-29.6069
G01 X-9.8828 Y-29.6432
G01 X-9.7428 Y-29.6930
G01 X-9.5924 Y-29.7631
G01 X-9.4119 Y-29.5826
G01 X-9.4820 Y-29.4322
G01 X-9.5318 Y-29.2922
G01 X-9.5681 Y-29.1482
G01 X-9.5940 Y-28.9795
G01 X-9.6018 Y-28.8200
G01 X-9.5940 Y-28.6605
G01 X-9.5681 Y-28.4918
G01 X-9.5318 Y-28.3478
G01 X-9.4820 Y-28.2078
G01 X-9.4119 Y-28.0574
G01 X-9.4462 Y-28.0231
G01 X-9.5009 Y-28.1231
G01 X-9.5845 Y-28.3474
G01 X-9.6354 Y-28.5813
G01 X-9.6525 Y-28.8200
G01 X-9.6354 Y-29.0587
G01 X-9.6135 Y-29.1679
G01 X-9.6156 Y-29.2688
G01 X-9.6410 Y-29.3552
G01 X-9.7125 Y-29.4625
G01 X-9.8197 Y-29.5340
G01 X-9.9062 Y-29.5594
G01 X-10.0071 Y-29.5615
G01 X-10.1163 Y-29.5396
G01 X-10.3550 Y-29.5225
G01 X-10.5937 Y-29.5396
G01 X-10.8276 Y-29.5905
G01 X-11.0518 Y-29.6741
G01 X-11.1519 Y-29.7288
G00 Z2.0000
G00 X-4.1581 Y-30.4374
G01 F60.00
G01 Z-0.0500
G01 F120.00
G01 X-4.1238 Y-30.4031
G01 X-4.0691 Y-30.5031
G01 X-3.9855 Y-30.7274
G01 X-3.9346 Y-30.9613
G01 X-3.9175 Y-31.2000
G01 X-3.9346 Y-31.4387
G01 X-3.9855 Y-31.6726
G01 X-4.0691 Y-31.8968
G01 X-4.1238 Y-31.9969
G01 X-4.1581 Y-31.9626
G01 X-4.0880 Y-31.8122
G01 X-4.0382 Y-31.6722
G01 X-4.0019 Y-31.5282
G01 X-3.9760 Y-31.3595
G01 X-3.9682 Y-31.2000
G01 X-3.9760 Y-31.0405
G01 X-4.0019 Y-30.8718
G01 X-4.0382 Y-30.7278
G01 X-4.0880 Y-30.5878
G01 X-4.1581 Y-30.4374
G00 X-4.1581 Y-30.4374
G01 F60.00
G01 Z-0.1000
G01 F120.00
G01 X-4.0880 Y-30.5878
G01 X-4.0382 Y-30.7278
G01 X-4.0019 Y-30.8718
G01 X-3.9760 Y-31.0405
G01 X-3.9682 Y-31.2000
G01 X-3.9760 Y-31.3595
G01 X-4.0019 Y-31.5282
G01 X-4.0382 Y-31.6722
G01 X-4.0880 Y-31.8122
G01 X-4.1581 Y-31.9626
G01 X-4.1238 Y-31.9969
G01 X-4.0691 Y-31.8968
G01 X-3.9855 Y-31.6726
G01 X-3.9346 Y-31.4387
G01 X-3.9175 Y-31.2000
G01 X-3.9346 Y-30.9613
G01 X-3.9855 Y-30.7274
G01 X-4.0691 Y-30.5031
G01 X-4.1238 Y-30.4031
G01 X-4.1581 Y-30.4374
G00 Z2.0000
G00 X-64.1581 Y-30.4374
G01 F60.00
G01 Z-0.0500
G01 F120.00
G01 X-64.1238 Y-30.4031
G01 X-64.0691 Y-30.5031
G01 X-63.9855 Y-30.7274
G01 X-63.9346 Y-30.9613
G01 X-63.9175 Y-31.2000
G01 X-63.9346 Y-31.4387
G01 X-63.9855 Y-31.6726
G01 X-64.0691 Y-31.8968
G01 X-64.1238 Y-31.9969
G01 X-64.1581 Y-31.9626
G01 X-64.0880 Y-31.8122
G01 X-64.0382 Y-31.6722
G01 X-64.0019 Y-31.5282
G01 X-63.9760 Y-31.3595
G01 X-63.9682 Y-31.2000
G01 X-63.9760 Y-31.0405
G01 X-64.0019 Y-30.8718
G01 X-64.0382 Y-30.7278
G01 X-64.0880 Y-30.5878
G01 X-64.1581 Y-30.4374
G00 X-64.1581 Y-30.4374
G01 F60.00
G01 Z-0.1000
G01 F120.00
G01 X-64.0880 Y-30.5878
G01 X-64.0382 Y-30.7278
G01 X-64.0019 Y-30.8718
G01 X-63.9760 Y-31.0405
G01 X-63.9682 Y-31.2000
G01 X-63.9760 Y-31.3595
G01 X-64.0019 Y-31.5282
G01 X-64.0382 Y-31.6722
G01 X-64.0880 Y-31.8122
G01 X-64.1581 Y-31.9626
G01 X-64.1238 Y-31.9969
G01 X-64.0691 Y-31.8968
G01 X-63.9855 Y-31.6726
G01 X-63.9346 Y-31.4387
G01 X-63.9175 Y-31.2000
G01 X-63.9346 Y-30.9613
G01 X-63.9855 Y-30.7274
G01 X-64.0691 Y-30.5031
G01 X-64.1238 Y-30.4031
G01 X-64.1581 Y-30.4374
G00 Z2.0000
G00 X-66.5381 Y-32.8174
G01 F60.00
G01 Z-0.0500
G01 F120.00
G01 X-66.3576 Y-32.6369
G01 X-66.2072 Y-32.7070
G01 X-66.0672 Y-32.7568
G01 X-65.9232 Y-32.7931
G01 X-65.7545 Y-32.8190
G01 X-65.5950 Y-32.8268
G01 X-65.4355 Y-32.8190
G01 X-65.2668 Y-32.7931
G01 X-65.1228 Y-32.7568
G01 X-64.9828 Y-32.7070
G01 X-64.8324 Y-32.6369
G01 X-64.7981 Y-32.6712
G01 X-64.8981 Y-32.7259
G01 X-65.1224 Y-32.8095
G01 X-65.3563 Y-32.8604
G01 X-65.5950 Y-32.8775
G01 X-65.8337 Y-32.8604
G01 X-65.9429 Y-32.8385
G01 X-66.0438 Y-32.8406
G01 X-66.1302 Y-32.8660
G01 X-66.2375 Y-32.9375
G01 X-66.3090 Y-33.0447
G01 X-66.3344 Y-33.1312
G01 X-66.3365 Y-33.2321
G01 X-66.3146 Y-33.3413
G01 X-66.2975 Y-33.5800
G01 X-66.3146 Y-33.8187
G01 X-66.3655 Y-34.0526
G01 X-66.4491 Y-34.2768
G01 X-66.5038 Y-34.3769
G01 X-66.5381 Y-34.3426
G01 X-66.4680 Y-34.1922
G01 X-66.4183 Y-34.0522
G01 X-66.3819 Y-33.9082
G01 X-66.3560 Y-33.7395
G01 X-66.3482 Y-33.5800
G01 X-66.3560 Y-33.4205
G01 X-66.3819 Y-33.2518
G01 X-66.4183 Y-33.1078
G01 X-66.4680 Y-32.9678
G01 X-66.5381 Y-32.8174
G00 X-66.5381 Y-32.8174
G01 F60.00
G01 Z-0.1000
G01 F120.00
G01 X-66.4680 Y-32.9678
G01 X-66.4183 Y-33.1078
G01 X-66.3819 Y-33.2518
G01 X-66.3560 Y-33.4205
G01 X-66.3482 Y-33.5800
G01 X-66.3560 Y-33.7395
G01 X-66.3819 Y-33.9082
G01 X-66.4183 Y-34.0522
G01 X-66.4680 Y-34.1922
G01 X-66.5381 Y-34.3426
G01 X-66.5038 Y-34.3769
G01 X-66.4491 Y-34.2768
G01 X-66.3655 Y-34.0526
G01 X-66.3146 Y-33.8187
G01 X-66.2975 Y-33.5800
G01 X-66.3146 Y-33.3413
G01 X-66.3365 Y-33.2321
G01 X-66.3344 Y-33.1312
G01 X-66.3090 Y-33.0447
G01 X-66.2375 Y-32.9375
G01 X-66.1302 Y-32.8660
G01 X-66.0438 Y-32.8406
G01 X-65.9429 Y-32.8385
G01 X-65.8337 Y-32.8604
G01 X-65.5950 Y-32.8775
G01 X-65.3563 Y-32.8604
G01 X-65.1224 Y-32.8095
G01 X-64.8981 Y-32.7259
G01 X-64.7981 Y-32.6712
G01 X-64.8324 Y-32.6369
G01 X-64.9828 Y-32.7070
G01 X-65.1228 Y-32.7568
G01 X-65.2668 Y-32.7931
G01 X-65.4355 Y-32.8190
G01 X-65.5950 Y-32.8268
G01 X-65.7545 Y-32.8190
G01 X-65.9232 Y-32.7931
G01 X-66.0672 Y-32.7568
G01 X-66.2072 Y-32.7070
G01 X-66.3576 Y-32.6369
G01 X-66.5381 Y-32.8174
G00 Z2.0000
G00 X-68.1951 Y-31.4201
G01 F60.00
G01 Z-0.0500
G01 F120.00
G01 X-68.1840 Y-31.1933
G01 X-68.1951 Y-30.9799
G01 X-67.9683 Y-30.9910
G01 X-67.7549 Y-30.9799
G01 X-67.7660 Y-31.1933
G01 X-67.7549 Y-31.4201
G01 X-67.9817 Y-31.4090
G01 X-68.1951 Y-31.4201
G01 X-68.5434 Y-31.7684
G01 X-68.4883 Y-31.5463
G01 X-68.4646 Y-31.3795
G01 X-68.4561 Y-31.1933
G01 X-68.4646 Y-31.0205
G01 X-68.4883 Y-30.8537
G01 X-68.5434 Y-30.6316
G01 X-68.3213 Y-30.6867
G01 X-68.1545 Y-30.7104
G01 X-67.9683 Y-30.7189
G01 X-67.7955 Y-30.7104
G01 X-67.6287 Y-30.6867
G01 X-67.4066 Y-30.6316
G01 X-67.4617 Y-30.8537
G01 X-67.4854 Y-31.0205
G01 X-67.4939 Y-31.2067
G01 X-67.4854 Y-31.3795
G01 X-67.4617 Y-31.5463
G01 X-67.4066 Y-31.7684
G01 X-67.6287 Y-31.7133
G01 X-67.7955 Y-31.6896
G01 X-67.9817 Y-31.6811
G01 X-68.1545 Y-31.6896
G01 X-68.3213 Y-31.7133
G01 X-68.5434 Y-31.7684
G00 X-68.5434 Y-31.7684
G01 F60.00
G01 Z-0.1000
G01 F120.00
G01 X-68.3213 Y-31.7133
G01 X-68.1545 Y-31.6896
G01 X-67.9817 Y-31.6811
G01 X-67.7955 Y-31.6896
G01 X-67.6287 Y-31.7133
G01 X-67.4066 Y-31.7684
G01 X-67.4617 Y-31.5463
G01 X-67.4854 Y-31.3795
G01 X-67.4939 Y-31.2067
G01 X-67.4854 Y-31.0205
G01 X-67.4617 Y-30.8537
G01 X-67.4066 Y-30.6316
G01 X-67.6287 Y-30.6867
G01 X-67.7955 Y-30.7104
G01 X-67.9683 Y-30.7189
G01 X-68.1545 Y-30.7104
G01 X-68.3213 Y-30.6867
G01 X-68.5434 Y-30.6316
G01 X-68.4883 Y-30.8537
G01 X-68.4646 Y-31.0205
G01 X-68.4561 Y-31.1933
G01 X-68.4646 Y-31.3795
G01 X-68.4883 Y-31.5463
G01 X-68.5434 Y-31.7684
G01 X-68.1951 Y-31.4201
G01 X-67.9817 Y-31.4090
G01 X-67.7549 Y-31.4201
G01 X-67.7660 Y-31.1933
G01 X-67.7549 Y-30.9799
G01 X-67.9683 Y-30.9910
G01 X-68.1951 Y-30.9799
G01 X-68.1840 Y-31.1933
G01 X-68.1951 Y-31.4201
G00 Z2.0000
G00 X-68.9181 Y-31.9626
G01 F60.00
G01 Z-0.0500
G01 F120.00
G01 X-68.8480 Y-31.8122
G01 X-68.7982 Y-31.6722
G01 X-68.7619 Y-31.5282
G01 X-68.7360 Y-31.3595
G01 X-68.7282 Y-31.2000
G01 X-68.7360 Y-31.0405
G01 X-68.7619 Y-30.8718
G01 X-68.7982 Y-30.7278
G01 X-68.8480 Y-30.5878
G01 X-68.9181 Y-30.4374
G01 X-68.7376 Y-30.2569
G01 X-68.5872 Y-30.3270
G01 X-68.4472 Y-30.3768
G01 X-68.3032 Y-30.4131
G01 X-68.1345 Y-30.4390
G01 X-67.9750 Y-30.4468
G01 X-67.8155 Y-30.4390
G01 X-67.6468 Y-30.4131
G01 X-67.5028 Y-30.3768
G01 X-67.3628 Y-30.3270
G01 X-67.2124 Y-30.2569
G01 X-67.0319 Y-30.4374
G01 X-67.1020 Y-30.5878
G01 X-67.1518 Y-30.7278
G01 X-67.1881 Y-30.8718
G01 X-67.2140 Y-31.0405
G01 X-67.2218 Y-31.2000
G01 X-67.2140 Y-31.3595
G01 X-67.1881 Y-31.5282
G01 X-67.1518 Y-31.6722
G01 X-67.1020 Y-31.8122
G01 X-67.0319 Y-31.9626
G01 X-67.2124 Y-32.1431
G01 X-67.3628 Y-32.0730
G01 X-67.5028 Y-32.0232
G01 X-67.6468 Y-31.9869
G01 X-67.8155 Y-31.9610
G01 X-67.9750 Y-31.9532
G01 X-68.1345 Y-31.9610
G01 X-68.3032 Y-31.9869
G01 X-68.4472 Y-32.0232
G01 X-68.5872 Y-32.0730
G01 X-68.7376 Y-32.1431
G01 X-68.9181 Y-31.9626
G00 X-68.9181 Y-31.9626
G01 F60.00
G01 Z-0.1000
G01 F120.00
G01 X-68.7376 Y-32.1431
G01 X-68.5872 Y-32.0730
G01 X-68.4472 Y-32.0232
G01 X-68.3032 Y-31.9869
G01 X-68.1345 Y-31.9610
G01 X-67.9750 Y-31.9532
G01 X-67.8155 Y-31.9610
G01 X-67.6468 Y-31.9869
G01 X-67.5028 Y-32.0232
G01 X-67.3628 Y-32.0730
G01 X-67.2124 Y-32.1431
G01 X-67.0319 Y-31.9626
G01 X-67.1020 Y-31.8122
G01 X-67.1518 Y-31.6722
G01 X-67.1881 Y-31.5282
G01 X-67.2140 Y-31.3595
G01 X-67.2218 Y-31.2000
G01 X-67.2140 Y-31.0405
G01 X-67.1881 Y-30.8718
G01 X-67.1518 Y-30.7278
G01 X-67.1020 Y-30.5878
G01 X-67.0319 Y-30.4374
G01 X-67.2124 Y-30.2569
G01 X-67.3628 Y-30.3270
G01 X-67.5028 Y-30.3768
G01 X-67.6468 Y-30.4131
G01 X-67.8155 Y-30.4390
G01 X-67.9750 Y-30.4468
G01 X-68.1345 Y-30.4390
G01 X-68.3032 Y-30.4131
G01 X-68.4472 Y-30.3768
G01 X-68.5872 Y-30.3270
G01 X-68.7376 Y-30.2569
G01 X-68.9181 Y-30.4374
G01 X-68.8480 Y-30.5878
G01 X-68.7982 Y-30.7278
G01 X-68.7619 Y-30.8718
G01 X-68.7360 Y-31.0405
G01 X-68.7282 Y-31.2000
G01 X-68.7360 Y-31.3595
G01 X-68.7619 Y-31.5282
G01 X-68.7982 Y-31.6722
G01 X-68.8480 Y-31.8122
G01 X-68.9181 Y-31.9626
G00 Z2.0000
G00 X-71.1519 Y-32.6712
G01 F60.00
G01 Z-0.0500
G01 F120.00
G01 X-71.1176 Y-32.6369
G01 X-70.9672 Y-32.7070
G01 X-70.8272 Y-32.7568
G01 X-70.6832 Y-32.7931
G01 X-70.5145 Y-32.8190
G01 X-70.3550 Y-32.8268
G01 X-70.1955 Y-32.8190
G01 X-70.0268 Y-32.7931
G01 X-69.8828 Y-32.7568
G01 X-69.7428 Y-32.7070
G01 X-69.5924 Y-32.6369
G01 X-69.4119 Y-32.8174
G01 X-69.4820 Y-32.9678
G01 X-69.5317 Y-33.1078
G01 X-69.5681 Y-33.2518
G01 X-69.5940 Y-33.4205
G01 X-69.6018 Y-33.5800
G01 X-69.5940 Y-33.7395
G01 X-69.5681 Y-33.9082
G01 X-69.5317 Y-34.0522
G01 X-69.4820 Y-34.1922
G01 X-69.4119 Y-34.3426
G01 X-69.4462 Y-34.3769
G01 X-69.5009 Y-34.2769
G01 X-69.5845 Y-34.0526
G01 X-69.6354 Y-33.8187
G01 X-69.6525 Y-33.5800
G01 X-69.6354 Y-33.3413
G01 X-69.6135 Y-33.2321
G01 X-69.6156 Y-33.1312
G01 X-69.6410 Y-33.0447
G01 X-69.7125 Y-32.9375
G01 X-69.8197 Y-32.8660
G01 X-69.9062 Y-32.8406
G01 X-70.0071 Y-32.8385
G01 X-70.1163 Y-32.8604
G01 X-70.3550 Y-32.8775
G01 X-70.5937 Y-32.8604
G01 X-70.8276 Y-32.8095
G01 X-71.0519 Y-32.7259
G01 X-71.1519 Y-32.6712
G00 X-71.1519 Y-32.6712
G01 F60.00
G01 Z-0.1000
G01 F120.00
G01 X-71.0519 Y-32.7259
G01 X-70.8276 Y-32.8095
G01 X-70.5937 Y-32.8604
G01 X-70.3550 Y-32.8775
G01 X-70.1163 Y-32.8604
G01 X-70.0071 Y-32.8385
G01 X-69.9062 Y-32.8406
G01 X-69.8197 Y-32.8660
G01 X-69.7125 Y-32.9375
G01 X-69.6410 Y-33.0447
G01 X-69.6156 Y-33.1312
G01 X-69.6135 Y-33.2321
G01 X-69.6354 Y-33.3413
G01 X-69.6525 Y-33.5800
G01 X-69.6354 Y-33.8187
G01 X-69.5845 Y-34.0526
G01 X-69.5009 Y-34.2769
G01 X-69.4462 Y-34.3769
G01 X-69.4119 Y-34.3426
G01 X-69.4820 Y-34.1922
G01 X-69.5317 Y-34.0522
G01 X-69.5681 Y-33.9082
G01 X-69.5940 Y-33.7395
G01 X-69.6018 Y-33.5800
G01 X-69.5940 Y-33.4205
G01 X-69.5681 Y-33.2518
G01 X-69.5317 Y-33.1078
G01 X-69.4820 Y-32.9678
G01 X-69.4119 Y-32.8174
G01 X-69.5924 Y-32.6369
G01 X-69.7428 Y-32.7070
G01 X-69.8828 Y-32.7568
G01 X-70.0268 Y-32.7931
G01 X-70.1955 Y-32.8190
G01 X-70.3550 Y-32.8268
G01 X-70.5145 Y-32.8190
G01 X-70.6832 Y-32.7931
G01 X-70.8272 Y-32.7568
G01 X-70.9672 Y-32.7070
G01 X-71.1176 Y-32.6369
G01 X-71.1519 Y-32.6712
G00 Z2.0000
G00 X-71.8262 Y-30.4031
G01 F60.00
G01 Z-0.0500
G01 F120.00
G01 X-71.7919 Y-30.4374
G01 X-71.8620 Y-30.5878
G01 X-71.9118 Y-30.7278
G01 X-71.9481 Y-30.8718
G01 X-71.9740 Y-31.0405
G01 X-71.9818 Y-31.2000
G01 X-71.9740 Y-31.3595
G01 X-71.9481 Y-31.5282
G01 X-71.9118 Y-31.6722
G01 X-71.8620 Y-31.8122
G01 X-71.7919 Y-31.9626
G01 X-71.8262 Y-31.9969
G01 X-71.8809 Y-31.8969
G01 X-71.9645 Y-31.6726
G01 X-72.0154 Y-31.4387
G01 X-72.0325 Y-31.2000
G01 X-72.0154 Y-30.9613
G01 X-71.9645 Y-30.7274
G01 X-71.8809 Y-30.5031
G01 X-71.8262 Y-30.4031
G00 X-71.8262 Y-30.4031
G01 F60.00
G01 Z-0.1000
G01 F120.00
G01 X-71.8809 Y-30.5031
G01 X-71.9645 Y-30.7274
G01 X-72.0154 Y-30.9613
G01 X-72.0325 Y-31.2000
G01 X-72.0154 Y-31.4387
G01 X-71.9645 Y-31.6726
G01 X-71.8809 Y-31.8969
G01 X-71.8262 Y-31.9969
G01 X-71.7919 Y-31.9626
G01 X-71.8620 Y-31.8122
G01 X-71.9118 Y-31.6722
G01 X-71.9481 Y-31.5282
G01 X-71.9740 Y-31.3595
G01 X-71.9818 Y-31.2000
G01 X-71.9740 Y-31.0405
G01 X-71.9481 Y-30.8718
G01 X-71.9118 Y-30.7278
G01 X-71.8620 Y-30.5878
G01 X-71.7919 Y-30.4374
G01 X-71.8262 Y-30.4031
G00 Z2.0000
G00 X-71.1519 Y-29.7288
G01 F60.00
G01 Z-0.0500
G01 F120.00
G01 X-71.0518 Y-29.6741
G01 X-70.8276 Y-29.5905
G01 X-70.5937 Y-29.5396
G01 X-70.3550 Y-29.5225
G01 X-70.1163 Y-29.5396
G01 X-70.0071 Y-29.5615
G01 X-69.9062 Y-29.5594
G01 X-69.8197 Y-29.5340
G01 X-69.7125 Y-29.4625
G01 X-69.6410 Y-29.3552
G01 X-69.6156 Y-29.2688
G01 X-69.6135 Y-29.1679
G01 X-69.6354 Y-29.0587
G01 X-69.6525 Y-28.8200
G01 X-69.6354 Y-28.5813
G01 X-69.5845 Y-28.3474
G01 X-69.5009 Y-28.1231
G01 X-69.4462 Y-28.0231
G01 X-69.4119 Y-28.0574
G01 X-69.4820 Y-28.2078
G01 X-69.5318 Y-28.3478
G01 X-69.5681 Y-28.4918
G01 X-69.5940 Y-28.6605
G01 X-69.6018 Y-28.8200
G01 X-69.5940 Y-28.9795
G01 X-69.5681 Y-29.1482
G01 X-69.5318 Y-29.2922
G01 X-69.4820 Y-29.4322
G01 X-69.4119 Y-29.5826
G01 X-69.5924 Y-29.7631
G01 X-69.7428 Y-29.6930
G01 X-69.8828 Y-29.6432
G01 X-70.0268 Y-29.6069
G01 X-70.1955 Y-29.5810
G01 X-70.3550 Y-29.5732
G01 X-70.5145 Y-29.5810
G01 X-70.6832 Y-29.6069
G01 X-70.8272 Y-29.6432
G01 X-70.9672 Y-29.6930
G01 X-71.1176 Y-29.7631
G01 X-71.1519 Y-29.7288
G00 X-71.1519 Y-29.7288
G01 F60.00
G01 Z-0.1000
G01 F120.00
G01 X-71.1176 Y-29.7631
G01 X-70.9672 Y-29.6930
G01 X-70.8272 Y-29.6432
G01 X-70.6832 Y-29.6069
G01 X-70.5145 Y-29.5810
G01 X-70.3550 Y-29.5732
G01 X-70.1955 Y-29.5810
G01 X-70.0268 Y-29.6069
G01 X-69.8828 Y-29.6432
G01 X-69.7428 Y-29.6930
G01 X-69.5924 Y-29.7631
G01 X-69.4119 Y-29.5826
G01 X-69.4820 Y-29.4322
G01 X-69.5318 Y-29.2922
G01 X-69.5681 Y-29.1482
G01 X-69.5940 Y-28.9795
G01 X-69.6018 Y-28.8200
G01 X-69.5940 Y-28.6605
G01 X-69.5681 Y-28.4918
G01 X-69.5318 Y-28.3478
G01 X-69.4820 Y-28.2078
G01 X-69.4119 Y-28.0574
G01 X-69.4462 Y-28.0231
G01 X-69.5009 Y-28.1231
G01 X-69.5845 Y-28.3474
G01 X-69.6354 Y-28.5813
G01 X-69.6525 Y-28.8200
G01 X-69.6354 Y-29.0587
G01 X-69.6135 Y-29.1679
G01 X-69.6156 Y-29.2688
G01 X-69.6410 Y-29.3552
G01 X-69.7125 Y-29.4625
G01 X-69.8197 Y-29.5340
G01 X-69.9062 Y-29.5594
G01 X-70.0071 Y-29.5615
G01 X-70.1163 Y-29.5396
G01 X-70.3550 Y-29.5225
G01 X-70.5937 Y-29.5396
G01 X-70.8276 Y-29.5905
G01 X-71.0518 Y-29.6741
G01 X-71.1519 Y-29.7288
G00 Z2.0000
G00 X-68.7376 Y-27.3831
G01 F60.00
G01 Z-0.0500
G01 F120.00
G01 X-68.7719 Y-27.3488
G01 X-68.6718 Y-27.2941
G01 X-68.4476 Y-27.2105
G01 X-68.2137 Y-27.1596
G01 X-67.9750 Y-27.1425
G01 X-67.7363 Y-27.1596
G01 X-67.5024 Y-27.2105
G01 X-67.2781 Y-27.2941
G01 X-67.1781 Y-27.3488
G01 X-67.2124 Y-27.3831
G01 X-67.3628 Y-27.3130
G01 X-67.5028 Y-27.2632
G01 X-67.6468 Y-27.2269
G01 X-67.8155 Y-27.2010
G01 X-67.9750 Y-27.1932
G01 X-68.1345 Y-27.2010
G01 X-68.3032 Y-27.2269
G01 X-68.4472 Y-27.2632
G01 X-68.5872 Y-27.3130
G01 X-68.7376 Y-27.3831
G00 X-68.7376 Y-27.3831
G01 F60.00
G01 Z-0.1000
G01 F120.00
G01 X-68.5872 Y-27.3130
G01 X-68.4472 Y-27.2632
G01 X-68.3032 Y-27.2269
G01 X-68.1345 Y-27.2010
G01 X-67.9750 Y-27.1932
G01 X-67.8155 Y-27.2010
G01 X-67.6468 Y-27.2269
G01 X-67.5028 Y-27.2632
G01 X-67.3628 Y-27.3130
G01 X-67.2124 Y-27.3831
G01 X-67.1781 Y-27.3488
G01 X-67.2781 Y-27.2941
G01 X-67.5024 Y-27.2105
G01 X-67.7363 Y-27.1596
G01 X-67.9750 Y-27.1425
G01 X-68.2137 Y-27.1596
G01 X-68.4476 Y-27.2105
G01 X-68.6718 Y-27.2941
G01 X-68.7719 Y-27.3488
G01 X-68.7376 Y-27.3831
G00 Z2.0000
G00 X-66.5381 Y-28.0574
G01 F60.00
G01 Z-0.0500
G01 F120.00
G01 X-66.5038 Y-28.0231
G01 X-66.4491 Y-28.1231
G01 X-66.3655 Y-28.3474
G01 X-66.3146 Y-28.5813
G01 X-66.2975 Y-28.8200
G01 X-66.3146 Y-29.0587
G01 X-66.3365 Y-29.1679
G01 X-66.3344 Y-29.2688
G01 X-66.3090 Y-29.3553
G01 X-66.2375 Y-29.4625
G01 X-66.1303 Y-29.5340
G01 X-66.0438 Y-29.5594
G01 X-65.9429 Y-29.5615
G01 X-65.8337 Y-29.5396
G01 X-65.5950 Y-29.5225
G01 X-65.3563 Y-29.5396
G01 X-65.1224 Y-29.5905
G01 X-64.8981 Y-29.6741
G01 X-64.7981 Y-29.7288
G01 X-64.8324 Y-29.7631
G01 X-64.9828 Y-29.6930
G01 X-65.1228 Y-29.6432
G01 X-65.2668 Y-29.6069
G01 X-65.4355 Y-29.5810
G01 X-65.5950 Y-29.5732
G01 X-65.7545 Y-29.5810
G01 X-65.9232 Y-29.6069
G01 X-66.0672 Y-29.6432
G01 X-66.2072 Y-29.6930
G01 X-66.3576 Y-29.7631
G01 X-66.5381 Y-29.5826
G01 X-66.4680 Y-29.4322
G01 X-66.4182 Y-29.2922
G01 X-66.3819 Y-29.1482
G01 X-66.3560 Y-28.9795
G01 X-66.3482 Y-28.8200
G01 X-66.3560 Y-28.6605
G01 X-66.3819 Y-28.4918
G01 X-66.4182 Y-28.3478
G01 X-66.4680 Y-28.2078
G01 X-66.5381 Y-28.0574
G00 X-66.5381 Y-28.0574
G01 F60.00
G01 Z-0.1000
G01 F120.00
G01 X-66.4680 Y-28.2078
G01 X-66.4182 Y-28.3478
G01 X-66.3819 Y-28.4918
G01 X-66.3560 Y-28.6605
G01 X-66.3482 Y-28.8200
G01 X-66.3560 Y-28.9795
G01 X-66.3819 Y-29.1482
G01 X-66.4182 Y-29.2922
G01 X-66.4680 Y-29.4322
G01 X-66.5381 Y-29.5826
G01 X-66.3576 Y-29.7631
G01 X-66.2072 Y-29.6930
G01 X-66.0672 Y-29.6432
G01 X-65.9232 Y-29.6069
G01 X-65.7545 Y-29.5810
G01 X-65.5950 Y-29.5732
G01 X-65.4355 Y-29.5810
G01 X-65.2668 Y-29.6069
G01 X-65.1228 Y-29.6432
G01 X-64.9828 Y-29.6930
G01 X-64.8324 Y-29.7631
G01 X-64.7981 Y-29.7288
G01 X-64.8981 Y-29.6741
G01 X-65.1224 Y-29.5905
G01 X-65.3563 Y-29.5396
G01 X-65.5950 Y-29.5225
G01 X-65.8337 Y-29.5396
G01 X-65.9429 Y-29.5615
G01 X-66.0438 Y-29.5594
G01 X-66.1303 Y-29.5340
G01 X-66.2375 Y-29.4625
G01 X-66.3090 Y-29.3553
G01 X-66.3344 Y-29.2688
G01 X-66.3365 Y-29.1679
G01 X-66.3146 Y-29.0587
G01 X-66.2975 Y-28.8200
G01 X-66.3146 Y-28.5813
G01 X-66.3655 Y-28.3474
G01 X-66.4491 Y-28.1231
G01 X-66.5038 Y-28.0231
G01 X-66.5381 Y-28.0574
G00 Z2.0000
G00 X-68.7719 Y-35.0512
G01 F60.00
G01 Z-0.0500
G01 F120.00
G01 X-68.7376 Y-35.0169
G01 X-68.5872 Y-35.0870
G01 X-68.4472 Y-35.1368
G01 X-68.3032 Y-35.1731
G01 X-68.1345 Y-35.1990
G01 X-67.9750 Y-35.2068
G01 X-67.8155 Y-35.1990
G01 X-67.6468 Y-35.1731
G01 X-67.5028 Y-35.1368
G01 X-67.3628 Y-35.0870
G01 X-67.2124 Y-35.0169
G01 X-67.1781 Y-35.0512
G01 X-67.2781 Y-35.1059
G01 X-67.5024 Y-35.1895
G01 X-67.7363 Y-35.2404
G01 X-67.9750 Y-35.2575
G01 X-68.2137 Y-35.2404
G01 X-68.4476 Y-35.1895
G01 X-68.6719 Y-35.1059
G01 X-68.7719 Y-35.0512
G00 X-68.7719 Y-35.0512
G01 F60.00
G01 Z-0.1000
G01 F120.00
G01 X-68.6719 Y-35.1059
G01 X-68.4476 Y-35.1895
G01 X-68.2137 Y-35.2404
G01 X-67.9750 Y-35.2575
G01 X-67.7363 Y-35.2404
G01 X-67.5024 Y-35.1895
G01 X-67.2781 Y-35.1059
G01 X-67.1781 Y-35.0512
G01 X-67.2124 Y-35.0169
G01 X-67.3628 Y-35.0870
G01 X-67.5028 Y-35.1368
G01 X-67.6468 Y-35.1731
G01 X-67.8155 Y-35.1990
G01 X-67.9750 Y-35.2068
G01 X-68.1345 Y-35.1990
G01 X-68.3032 Y-35.1731
G01 X-68.4472 Y-35.1368
G01 X-68.5872 Y-35.0870
G01 X-68.7376 Y-35.0169
G01 X-68.7719 Y-35.0512
G00 Z2.0000
G00 X-67.9751 Y-38.7005
G01 F60.00
G01 Z-0.0500
G01 F120.00
G01 X-68.5145 Y-38.6808
G01 X-68.8478 Y-38.6451
G01 X-69.0953 Y-38.6157
G01 X-69.6430 Y-38.5117
G01 X-70.1739 Y-38.3698
G01 X-70.6829 Y-38.1930
G01 X-71.1957 Y-37.9718
G01 X-71.4677 Y-37.8328
G01 X-71.7118 Y-37.7010
G01 X-72.1842 Y-37.4053
G01 X-72.6211 Y-37.0851
G01 X-73.0393 Y-36.7290
G01 X-73.4367 Y-36.3365
G01 X-73.6378 Y-36.1127
G01 X-73.8185 Y-35.8971
G01 X-74.1392 Y-35.4674
G01 X-74.3033 Y-35.2197
G01 X-74.4396 Y-34.9967
G01 X-74.5915 Y-34.7255
G01 X-74.8300 Y-34.2366
G01 X-75.0339 Y-33.7267
G01 X-75.2022 Y-33.1957
G01 X-75.2694 Y-32.9288
G01 X-75.3356 Y-32.6290
G01 X-75.4190 Y-32.1001
G01 X-75.4655 Y-31.5448
G01 X-75.4709 Y-31.2676
G01 X-75.4700 Y-30.9620
G01 X-75.4326 Y-30.4123
G01 X-75.3564 Y-29.8753
G01 X-75.3014 Y-29.6143
G01 X-75.2326 Y-29.3103
G01 X-75.0692 Y-28.7673
G01 X-74.8742 Y-28.2580
G01 X-74.6428 Y-27.7651
G01 X-64.0877 Y-7.2753
G01 X-63.7573 Y-6.6756
G01 X-63.5614 Y-6.3608
G01 X-63.3757 Y-6.0668
G01 X-62.9716 Y-5.4965
G01 X-62.5343 Y-4.9474
G01 X-62.0668 Y-4.4236
G01 X-61.5698 Y-3.9261
G01 X-61.0569 Y-3.4669
G01 X-60.5048 Y-3.0253
G01 X-59.9353 Y-2.6203
G01 X-59.3407 Y-2.2456
G01 X-59.0148 Y-2.0590
G01 X-58.4014 Y-1.7419
G01 X-57.7610 Y-1.4547
G01 X-57.1054 Y-1.2039
G01 X-56.4357 Y-0.9900
G01 X-55.7559 Y-0.8143
G01 X-55.0675 Y-0.6770
G01 X-54.3724 Y-0.5786
G01 X-53.6794 Y-0.5197
G01 X-52.9749 Y-0.4995
G01 X-22.9750 Y-0.4995
G01 X-22.2871 Y-0.5187
G01 X-21.5777 Y-0.5786
G01 X-20.8767 Y-0.6781
G01 X-20.1887 Y-0.8156
G01 X-19.5269 Y-0.9865
G01 X-19.1713 Y-1.0965
G01 X-18.8399 Y-1.2056
G01 X-18.2014 Y-1.4497
G01 X-17.5596 Y-1.7366
G01 X-16.9254 Y-2.0644
G01 X-16.3212 Y-2.4215
G01 X-16.0147 Y-2.6203
G01 X-15.4550 Y-3.0180
G01 X-14.9066 Y-3.4554
G01 X-14.3801 Y-3.9262
G01 X-13.8867 Y-4.4199
G01 X-13.4158 Y-4.9473
G01 X-12.9783 Y-5.4966
G01 X-12.5725 Y-6.0694
G01 X-12.1994 Y-6.6642
G01 X-11.8623 Y-7.2754
G01 X-1.3051 Y-27.7693
G01 X-1.0776 Y-28.2538
G01 X-0.9577 Y-28.5641
G01 X-0.8709 Y-28.7957
G01 X-0.7173 Y-29.3104
G01 X-0.5930 Y-29.8792
G01 X-0.5178 Y-30.4086
G01 X-0.4948 Y-30.7119
G01 X-0.4793 Y-30.9874
G01 X-0.4834 Y-31.5206
G01 X-0.5310 Y-32.1001
G01 X-0.6144 Y-32.6291
G01 X-0.6805 Y-32.9286
G01 X-0.7469 Y-33.1929
G01 X-0.9104 Y-33.7111
G01 X-1.1169 Y-34.2295
G01 X-1.3585 Y-34.7257
G01 X-1.5035 Y-34.9850
G01 X-1.6394 Y-35.2082
G01 X-1.8108 Y-35.4674
G01 X-2.1412 Y-35.9094
G01 X-2.5075 Y-36.3304
G01 X-2.9042 Y-36.7231
G01 X-3.3338 Y-37.0890
G01 X-3.7794 Y-37.4146
G01 X-4.2532 Y-37.7097
G01 X-4.7477 Y-37.9688
G01 X-5.2600 Y-38.1903
G01 X-5.7875 Y-38.3732
G01 X-6.3272 Y-38.5164
G01 X-6.8760 Y-38.6190
G01 X-7.4355 Y-38.6808
G01 X-7.9750 Y-38.7005
G01 X-67.9751 Y-38.7005
G01 X-67.9764 Y-38.9727
G01 X-67.9834 Y-38.9726
G01 X-68.5536 Y-38.9509
G01 X-69.1280 Y-38.8861
G01 X-69.6818 Y-38.7821
G01 X-70.2293 Y-38.6372
G01 X-70.7879 Y-38.4443
G01 X-71.3086 Y-38.2195
G01 X-71.8219 Y-37.9515
G01 X-72.0940 Y-37.7866
G01 X-72.3404 Y-37.6282
G01 X-72.7778 Y-37.3079
G01 X-73.2372 Y-36.9169
G01 X-73.6561 Y-36.5003
G01 X-74.0125 Y-36.0901
G01 X-74.2047 Y-35.8421
G01 X-74.3767 Y-35.6024
G01 X-74.6726 Y-35.1373
G01 X-74.8240 Y-34.8681
G01 X-74.9547 Y-34.6121
G01 X-75.0871 Y-34.3278
G01 X-75.2884 Y-33.8232
G01 X-75.4669 Y-33.2600
G01 X-75.6034 Y-32.6772
G01 X-75.6887 Y-32.1370
G01 X-75.7161 Y-31.8514
G01 X-75.7385 Y-31.5334
G01 X-75.7429 Y-30.9899
G01 X-75.7046 Y-30.3963
G01 X-75.6189 Y-29.7982
G01 X-75.5022 Y-29.2655
G01 X-75.4267 Y-29.0052
G01 X-75.3288 Y-28.6845
G01 X-75.1356 Y-28.1778
G01 X-74.8967 Y-27.6646
G01 X-64.3268 Y-7.1452
G01 X-63.9933 Y-6.5401
G01 X-63.7909 Y-6.2145
G01 X-63.6008 Y-5.9138
G01 X-63.1951 Y-5.3410
G01 X-62.7420 Y-4.7715
G01 X-62.2707 Y-4.2431
G01 X-61.7650 Y-3.7361
G01 X-61.2355 Y-3.2615
G01 X-60.6696 Y-2.8088
G01 X-60.0893 Y-2.3959
G01 X-59.7627 Y-2.1842
G01 X-59.1624 Y-1.8296
G01 X-58.5205 Y-1.4971
G01 X-57.8726 Y-1.2064
G01 X-57.2035 Y-0.9500
G01 X-56.8619 Y-0.8374
G01 X-56.4951 Y-0.7240
G01 X-55.7991 Y-0.5451
G01 X-55.1138 Y-0.4088
G01 X-54.4084 Y-0.3088
G01 X-53.6888 Y-0.2476
G01 X-52.9758 Y-0.2273
G01 X-22.9741 Y-0.2273
G01 X-22.2832 Y-0.2465
G01 X-21.5465 Y-0.3082
G01 X-20.8363 Y-0.4088
G01 X-20.1330 Y-0.5491
G01 X-19.4386 Y-0.7286
G01 X-18.7534 Y-0.9475
G01 X-18.0838 Y-1.2037
G01 X-17.4294 Y-1.4972
G01 X-16.7928 Y-1.8267
G01 X-16.4684 Y-2.0128
G01 X-15.8782 Y-2.3842
G01 X-15.2938 Y-2.7987
G01 X-14.7281 Y-3.2499
G01 X-14.1795 Y-3.7414
G01 X-13.6738 Y-4.2490
G01 X-13.2137 Y-4.7649
G01 X-12.9859 Y-5.0471
G01 X-12.7522 Y-5.3446
G01 X-12.3519 Y-5.9098
G01 X-11.9593 Y-6.5356
G01 X-11.6208 Y-7.1499
G01 X-1.0564 Y-27.6583
G01 X-0.8144 Y-28.1777
G01 X-0.6212 Y-28.6846
G01 X-0.5244 Y-29.0016
G01 X-0.4479 Y-29.2655
G01 X-0.3311 Y-29.7982
G01 X-0.2482 Y-30.3713
G01 X-0.2071 Y-30.9842
G01 X-0.2113 Y-31.5281
G01 X-0.2334 Y-31.8451
G01 X-0.2613 Y-32.1369
G01 X-0.3466 Y-32.6773
G01 X-0.4856 Y-33.2688
G01 X-0.6509 Y-33.7936
G01 X-0.7614 Y-34.0844
G01 X-0.8765 Y-34.3585
G01 X-1.1167 Y-34.8506
G01 X-1.2680 Y-35.1214
G01 X-1.4215 Y-35.3727
G01 X-1.5891 Y-35.6252
G01 X-1.9164 Y-36.0639
G01 X-2.1074 Y-36.2919
G01 X-2.3184 Y-36.5264
G01 X-2.7061 Y-36.9106
G01 X-2.9264 Y-37.1045
G01 X-3.1683 Y-37.3050
G01 X-3.6054 Y-37.6252
G01 X-4.1187 Y-37.9463
G01 X-4.6414 Y-38.2195
G01 X-5.1442 Y-38.4373
G01 X-5.4118 Y-38.5332
G01 X-5.7147 Y-38.6355
G01 X-6.2414 Y-38.7759
G01 X-6.8502 Y-38.8902
G01 X-7.4122 Y-38.9520
G01 X-7.9738 Y-38.9727
G01 X-67.9764 Y-38.9727
G00 X-67.9764 Y-38.9727
G01 F60.00
G01 Z-0.1000
G01 F120.00
G01 X-7.9738 Y-38.9727
G01 X-7.4122 Y-38.9520
G01 X-6.8502 Y-38.8902
G01 X-6.2414 Y-38.7759
G01 X-5.7147 Y-38.6355
G01 X-5.4118 Y-38.5332
G01 X-5.1442 Y-38.4373
G01 X-4.6414 Y-38.2195
G01 X-4.1187 Y-37.9463
G01 X-3.6054 Y-37.6252
G01 X-3.1683 Y-37.3050
G01 X-2.9264 Y-37.1045
G01 X-2.7061 Y-36.9106
G01 X-2.3184 Y-36.5264
G01 X-2.1074 Y-36.2919
G01 X-1.9164 Y-36.0639
G01 X-1.5891 Y-35.6252
G01 X-1.4215 Y-35.3727
G01 X-1.2680 Y-35.1214
G01 X-1.1167 Y-34.8506
G01 X-0.8765 Y-34.3585
G01 X-0.7614 Y-34.0844
G01 X-0.6509 Y-33.7936
G01 X-0.4856 Y-33.2688
G01 X-0.3466 Y-32.6773
G01 X-0.2613 Y-32.1369
G01 X-0.2334 Y-31.8451
G01 X-0.2113 Y-31.5281
G01 X-0.2071 Y-30.9842
G01 X-0.2482 Y-30.3713
G01 X-0.3311 Y-29.7982
G01 X-0.4479 Y-29.2655
G01 X-0.5244 Y-29.0016
G01 X-0.6212 Y-28.6846
G01 X-0.8144 Y-28.1777
G01 X-1.0564 Y-27.6583
G01 X-11.6208 Y-7.1499
G01 X-11.9593 Y-6.5356
G01 X-12.3519 Y-5.9098
G01 X-12.7522 Y-5.3446
G01 X-12.9859 Y-5.0471
G01 X-13.2137 Y-4.7649
G01 X-13.6738 Y-4.2490
G01 X-14.1795 Y-3.7414
G01 X-14.7281 Y-3.2499
G01 X-15.2938 Y-2.7987
G01 X-15.8782 Y-2.3842
G01 X-16.4684 Y-2.0128
G01 X-16.7928 Y-1.8267
G01 X-17.4294 Y-1.4972
G01 X-18.0838 Y-1.2037
G01 X-18.7534 Y-0.9475
G01 X-19.4386 Y-0.7286
G01 X-20.1330 Y-0.5491
G01 X-20.8363 Y-0.4088
G01 X-21.5465 Y-0.3082
G01 X-22.2832 Y-0.2465
G01 X-22.9741 Y-0.2273
G01 X-52.9758 Y-0.2273
G01 X-53.6888 Y-0.2476
G01 X-54.4084 Y-0.3088
G01 X-55.1138 Y-0.4088
G01 X-55.7991 Y-0.5451
G01 X-56.4951 Y-0.7240
G01 X-56.8619 Y-0.8374
G01 X-57.2035 Y-0.9500
G01 X-57.8726 Y-1.2064
G01 X-58.5205 Y-1.4971
G01 X-59.1624 Y-1.8296
G01 X-59.7627 Y-2.1842
G01 X-60.0893 Y-2.3959
G01 X-60.6696 Y-2.8088
G01 X-61.2355 Y-3.2615
G01 X-61.7650 Y-3.7361
G01 X-62.2707 Y-4.2431
G01 X-62.7420 Y-4.7715
G01 X-63.1951 Y-5.3410
G01 X-63.6008 Y-5.9138
G01 X-63.7909 Y-6.2145
G01 X-63.9933 Y-6.5401
G01 X-64.3268 Y-7.1452
G01 X-74.8967 Y-27.6646
G01 X-75.1356 Y-28.1778
G01 X-75.3288 Y-28.6845
G01 X-75.4267 Y-29.0052
G01 X-75.5022 Y-29.2655
G01 X-75.6189 Y-29.7982
G01 X-75.7046 Y-30.3963
G01 X-75.7429 Y-30.9899
G01 X-75.7385 Y-31.5334
G01 X-75.7161 Y-31.8514
G01 X-75.6887 Y-32.1370
G01 X-75.6034 Y-32.6772
G01 X-75.4669 Y-33.2600
G01 X-75.2884 Y-33.8232
G01 X-75.0871 Y-34.3278
G01 X-74.9547 Y-34.6121
G01 X-74.8240 Y-34.8681
G01 X-74.6726 Y-35.1373
G01 X-74.3767 Y-35.6024
G01 X-74.2047 Y-35.8421
G01 X-74.0125 Y-36.0901
G01 X-73.6561 Y-36.5003
G01 X-73.2372 Y-36.9169
G01 X-72.7778 Y-37.3079
G01 X-72.3404 Y-37.6282
G01 X-72.0940 Y-37.7866
G01 X-71.8219 Y-37.9515
G01 X-71.3086 Y-38.2195
G01 X-70.7879 Y-38.4443
G01 X-70.2293 Y-38.6372
G01 X-69.6818 Y-38.7821
G01 X-69.1280 Y-38.8861
G01 X-68.5536 Y-38.9509
G01 X-67.9834 Y-38.9726
G01 X-67.9764 Y-38.9727
G01 X-67.9751 Y-38.7005
G01 X-7.9750 Y-38.7005
G01 X-7.4355 Y-38.6808
G01 X-6.8760 Y-38.6190
G01 X-6.3272 Y-38.5164
G01 X-5.7875 Y-38.3732
G01 X-5.2600 Y-38.1903
G01 X-4.7477 Y-37.9688
G01 X-4.2532 Y-37.7097
G01 X-3.7794 Y-37.4146
G01 X-3.3338 Y-37.0890
G01 X-2.9042 Y-36.7231
G01 X-2.5075 Y-36.3304
G01 X-2.1412 Y-35.9094
G01 X-1.8108 Y-35.4674
G01 X-1.6394 Y-35.2082
G01 X-1.5035 Y-34.9850
G01 X-1.3585 Y-34.7257
G01 X-1.1169 Y-34.2295
G01 X-0.9104 Y-33.7111
G01 X-0.7469 Y-33.1929
G01 X-0.6805 Y-32.9286
G01 X-0.6144 Y-32.6291
G01 X-0.5310 Y-32.1001
G01 X-0.4834 Y-31.5206
G01 X-0.4793 Y-30.9874
G01 X-0.4948 Y-30.7119
G01 X-0.5178 Y-30.4086
G01 X-0.5930 Y-29.8792
G01 X-0.7173 Y-29.3104
G01 X-0.8709 Y-28.7957
G01 X-0.9577 Y-28.5641
G01 X-1.0776 Y-28.2538
G01 X-1.3051 Y-27.7693
G01 X-11.8623 Y-7.2754
G01 X-12.1994 Y-6.6642
G01 X-12.5725 Y-6.0694
G01 X-12.9783 Y-5.4966
G01 X-13.4158 Y-4.9473
G01 X-13.8867 Y-4.4199
G01 X-14.3801 Y-3.9262
G01 X-14.9066 Y-3.4554
G01 X-15.4550 Y-3.0180
G01 X-16.0147 Y-2.6203
G01 X-16.3212 Y-2.4215
G01 X-16.9254 Y-2.0644
G01 X-17.5596 Y-1.7366
G01 X-18.2014 Y-1.4497
G01 X-18.8399 Y-1.2056
G01 X-19.1713 Y-1.0965
G01 X-19.5269 Y-0.9865
G01 X-20.1887 Y-0.8156
G01 X-20.8767 Y-0.6781
G01 X-21.5777 Y-0.5786
G01 X-22.2871 Y-0.5187
G01 X-22.9750 Y-0.4995
G01 X-52.9749 Y-0.4995
G01 X-53.6794 Y-0.5197
G01 X-54.3724 Y-0.5786
G01 X-55.0675 Y-0.6770
G01 X-55.7559 Y-0.8143
G01 X-56.4357 Y-0.9900
G01 X-57.1054 Y-1.2039
G01 X-57.7610 Y-1.4547
G01 X-58.4014 Y-1.7419
G01 X-59.0148 Y-2.0590
G01 X-59.3407 Y-2.2456
G01 X-59.9353 Y-2.6203
G01 X-60.5048 Y-3.0253
G01 X-61.0569 Y-3.4669
G01 X-61.5698 Y-3.9261
G01 X-62.0668 Y-4.4236
G01 X-62.5343 Y-4.9474
G01 X-62.9716 Y-5.4965
G01 X-63.3757 Y-6.0668
G01 X-63.5614 Y-6.3608
G01 X-63.7573 Y-6.6756
G01 X-64.0877 Y-7.2753
G01 X-74.6428 Y-27.7651
G01 X-74.8742 Y-28.2580
G01 X-75.0692 Y-28.7673
G01 X-75.2326 Y-29.3103
G01 X-75.3014 Y-29.6143
G01 X-75.3564 Y-29.8753
G01 X-75.4326 Y-30.4123
G01 X-75.4700 Y-30.9620
G01 X-75.4709 Y-31.2676
G01 X-75.4655 Y-31.5448
G01 X-75.4190 Y-32.1001
G01 X-75.3356 Y-32.6290
G01 X-75.2694 Y-32.9288
G01 X-75.2022 Y-33.1957
G01 X-75.0339 Y-33.7267
G01 X-74.8300 Y-34.2366
G01 X-74.5915 Y-34.7255
G01 X-74.4396 Y-34.9967
G01 X-74.3033 Y-35.2197
G01 X-74.1392 Y-35.4674
G01 X-73.8185 Y-35.8971
G01 X-73.6378 Y-36.1127
G01 X-73.4367 Y-36.3365
G01 X-73.0393 Y-36.7290
G01 X-72.6211 Y-37.0851
G01 X-72.1842 Y-37.4053
G01 X-71.7118 Y-37.7010
G01 X-71.4677 Y-37.8328
G01 X-71.1957 Y-37.9718
G01 X-70.6829 Y-38.1930
G01 X-70.1739 Y-38.3698
G01 X-69.6430 Y-38.5117
G01 X-69.0953 Y-38.6157
G01 X-68.8478 Y-38.6451
G01 X-68.5145 Y-38.6808
G01 X-67.9751 Y-38.7005
G00 Z2.0000
G00 X-74.5596 Y-28.2323
G01 F60.00
G01 Z-0.0500
G01 F120.00
G01 X-74.6277 Y-28.3792
G01 X-74.8140 Y-28.8679
G01 X-74.9721 Y-29.3985
G01 X-75.0834 Y-29.9068
G01 X-75.1273 Y-30.2000
G01 X-75.1612 Y-30.4537
G01 X-75.1965 Y-30.9931
G01 X-75.1925 Y-31.5138
G01 X-75.1717 Y-31.8045
G01 X-75.1472 Y-32.0638
G01 X-75.0638 Y-32.5900
G01 X-74.9432 Y-33.1035
G01 X-74.8599 Y-33.3820
G01 X-74.7777 Y-33.6290
G01 X-74.5788 Y-34.1265
G01 X-74.3484 Y-34.5988
G01 X-74.2107 Y-34.8448
G01 X-74.0731 Y-35.0708
G01 X-73.9151 Y-35.3093
G01 X-73.6015 Y-35.7295
G01 X-73.4319 Y-35.9315
G01 X-73.2406 Y-36.1447
G01 X-72.8583 Y-36.5229
G01 X-72.4604 Y-36.8625
G01 X-72.2499 Y-37.0210
G01 X-72.0158 Y-37.1882
G01 X-71.5620 Y-37.4709
G01 X-71.0952 Y-37.7160
G01 X-70.8581 Y-37.8214
G01 X-70.5890 Y-37.9354
G01 X-70.0789 Y-38.1119
G01 X-69.5723 Y-38.2466
G01 X-69.0441 Y-38.3462
G01 X-68.5099 Y-38.4062
G01 X-67.9749 Y-38.4263
G01 X-38.5990 Y-38.4263
G01 X-38.4726 Y-38.4003
G01 X-38.4037 Y-38.3664
G01 X-38.3231 Y-38.2893
G01 X-38.2895 Y-38.2405
G01 X-38.2547 Y-38.1294
G01 X-38.2482 Y-38.0755
G01 X-38.2482 Y-1.1245
G01 X-38.2742 Y-0.9981
G01 X-38.3081 Y-0.9292
G01 X-38.3943 Y-0.8409
G01 X-38.4726 Y-0.7997
G01 X-38.5990 Y-0.7737
G01 X-52.9748 Y-0.7737
G01 X-53.6559 Y-0.7930
G01 X-54.3431 Y-0.8513
G01 X-55.0242 Y-0.9479
G01 X-55.6858 Y-1.0796
G01 X-56.0345 Y-1.1671
G01 X-56.3608 Y-1.2539
G01 X-57.0060 Y-1.4597
G01 X-57.6577 Y-1.7088
G01 X-58.2735 Y-1.9847
G01 X-58.5930 Y-2.1450
G01 X-58.8934 Y-2.3053
G01 X-59.4760 Y-2.6494
G01 X-59.7809 Y-2.8469
G01 X-60.3317 Y-3.2383
G01 X-60.8697 Y-3.6676
G01 X-61.3813 Y-4.1253
G01 X-61.6229 Y-4.3631
G01 X-61.8733 Y-4.6182
G01 X-62.3254 Y-5.1251
G01 X-62.7515 Y-5.6601
G01 X-62.9483 Y-5.9355
G01 X-63.1551 Y-6.2303
G01 X-63.5198 Y-6.8128
G01 X-63.8447 Y-7.4025
G01 X-74.3980 Y-27.8887
G01 X-74.5596 Y-28.2323
G01 X-74.8060 Y-28.1166
G01 X-74.8813 Y-28.2803
G01 X-75.0787 Y-28.8014
G01 X-75.2343 Y-29.3248
G01 X-75.3491 Y-29.8475
G01 X-75.4325 Y-30.4323
G01 X-75.4680 Y-30.9649
G01 X-75.4688 Y-31.2681
G01 X-75.4635 Y-31.5439
G01 X-75.4199 Y-32.0745
G01 X-75.3336 Y-32.6279
G01 X-75.2046 Y-33.1795
G01 X-75.0354 Y-33.7168
G01 X-74.8286 Y-34.2346
G01 X-74.5792 Y-34.7440
G01 X-74.4366 Y-34.9976
G01 X-74.1499 Y-35.4481
G01 X-73.9867 Y-35.6757
G01 X-73.8075 Y-35.9077
G01 X-73.4419 Y-36.3280
G01 X-73.0384 Y-36.7270
G01 X-72.6130 Y-37.0888
G01 X-72.1824 Y-37.4040
G01 X-71.9497 Y-37.5533
G01 X-71.6904 Y-37.7109
G01 X-71.2203 Y-37.9577
G01 X-70.7077 Y-38.1811
G01 X-70.1638 Y-38.3707
G01 X-69.6111 Y-38.5167
G01 X-69.0916 Y-38.6142
G01 X-68.8452 Y-38.6433
G01 X-68.5154 Y-38.6787
G01 X-67.9727 Y-38.6985
G01 X-38.5990 Y-38.6985
G01 X-38.5065 Y-38.6898
G01 X-38.3862 Y-38.6585
G01 X-38.3042 Y-38.6241
G01 X-38.2380 Y-38.5823
G01 X-38.1161 Y-38.4660
G01 X-38.0504 Y-38.3703
G01 X-38.0194 Y-38.2984
G01 X-37.9911 Y-38.1970
G01 X-37.9760 Y-38.0755
G01 X-37.9760 Y-1.1245
G01 X-37.9847 Y-1.0320
G01 X-38.0160 Y-0.9117
G01 X-38.0504 Y-0.8297
G01 X-38.0922 Y-0.7635
G01 X-38.2085 Y-0.6416
G01 X-38.3042 Y-0.5759
G01 X-38.3761 Y-0.5449
G01 X-38.4727 Y-0.5178
G01 X-38.5911 Y-0.5016
G01 X-52.9756 Y-0.5015
G01 X-53.6710 Y-0.5212
G01 X-54.3590 Y-0.5792
G01 X-55.0736 Y-0.6802
G01 X-55.7440 Y-0.8138
G01 X-56.1010 Y-0.9032
G01 X-56.4395 Y-0.9933
G01 X-57.0900 Y-1.2009
G01 X-57.7468 Y-1.4512
G01 X-58.3987 Y-1.7429
G01 X-59.0287 Y-2.0691
G01 X-59.3411 Y-2.2483
G01 X-59.9201 Y-2.6126
G01 X-60.4962 Y-3.0215
G01 X-61.0471 Y-3.4613
G01 X-61.5656 Y-3.9250
G01 X-62.0621 Y-4.4217
G01 X-62.2970 Y-4.6811
G01 X-62.5412 Y-4.9589
G01 X-62.9784 Y-5.5091
G01 X-63.3801 Y-6.0771
G01 X-63.7558 Y-6.6773
G01 X-64.0866 Y-7.2778
G01 X-74.6399 Y-27.7641
G01 X-74.8060 Y-28.1166
G00 X-74.8060 Y-28.1166
G01 F60.00
G01 Z-0.1000
G01 F120.00
G01 X-74.6399 Y-27.7641
G01 X-64.0866 Y-7.2778
G01 X-63.7558 Y-6.6773
G01 X-63.3801 Y-6.0771
G01 X-62.9784 Y-5.5091
G01 X-62.5412 Y-4.9589
G01 X-62.2970 Y-4.6811
G01 X-62.0621 Y-4.4217
G01 X-61.5656 Y-3.9250
G01 X-61.0471 Y-3.4613
G01 X-60.4962 Y-3.0215
G01 X-59.9201 Y-2.6126
G01 X-59.3411 Y-2.2483
G01 X-59.0287 Y-2.0691
G01 X-58.3987 Y-1.7429
G01 X-57.7468 Y-1.4512
G01 X-57.0900 Y-1.2009
G01 X-56.4395 Y-0.9933
G01 X-56.1010 Y-0.9032
G01 X-55.7440 Y-0.8138
G01 X-55.0736 Y-0.6802
G01 X-54.3590 Y-0.5792
G01 X-53.6710 Y-0.5212
G01 X-52.9756 Y-0.5015
G01 X-38.5911 Y-0.5016
G01 X-38.4727 Y-0.5178
G01 X-38.3761 Y-0.5449
G01 X-38.3042 Y-0.5759
G01 X-38.2085 Y-0.6416
G01 X-38.0922 Y-0.7635
G01 X-38.0504 Y-0.8297
G01 X-38.0160 Y-0.9117
G01 X-37.9847 Y-1.0320
G01 X-37.9760 Y-1.1245
G01 X-37.9760 Y-38.0755
G01 X-37.9911 Y-38.1970
G01 X-38.0194 Y-38.2984
G01 X-38.0504 Y-38.3703
G01 X-38.1161 Y-38.4660
G01 X-38.2380 Y-38.5823
G01 X-38.3042 Y-38.6241
G01 X-38.3862 Y-38.6585
G01 X-38.5065 Y-38.6898
G01 X-38.5990 Y-38.6985
G01 X-67.9727 Y-38.6985
G01 X-68.5154 Y-38.6787
G01 X-68.8452 Y-38.6433
G01 X-69.0916 Y-38.6142
G01 X-69.6111 Y-38.5167
G01 X-70.1638 Y-38.3707
G01 X-70.7077 Y-38.1811
G01 X-71.2203 Y-37.9577
G01 X-71.6904 Y-37.7109
G01 X-71.9497 Y-37.5533
G01 X-72.1824 Y-37.4040
G01 X-72.6130 Y-37.0888
G01 X-73.0384 Y-36.7270
G01 X-73.4419 Y-36.3280
G01 X-73.8075 Y-35.9077
G01 X-73.9867 Y-35.6757
G01 X-74.1499 Y-35.4481
G01 X-74.4366 Y-34.9976
G01 X-74.5792 Y-34.7440
G01 X-74.8286 Y-34.2346
G01 X-75.0354 Y-33.7168
G01 X-75.2046 Y-33.1795
G01 X-75.3336 Y-32.6279
G01 X-75.4199 Y-32.0745
G01 X-75.4635 Y-31.5439
G01 X-75.4688 Y-31.2681
G01 X-75.4680 Y-30.9649
G01 X-75.4325 Y-30.4323
G01 X-75.3491 Y-29.8475
G01 X-75.2343 Y-29.3248
G01 X-75.0787 Y-28.8014
G01 X-74.8813 Y-28.2803
G01 X-74.8060 Y-28.1166
G01 X-74.5596 Y-28.2323
G01 X-74.3980 Y-27.8887
G01 X-63.8447 Y-7.4025
G01 X-63.5198 Y-6.8128
G01 X-63.1551 Y-6.2303
G01 X-62.9483 Y-5.9355
G01 X-62.7515 Y-5.6601
G01 X-62.3254 Y-5.1251
G01 X-61.8733 Y-4.6182
G01 X-61.6229 Y-4.3631
G01 X-61.3813 Y-4.1253
G01 X-60.8697 Y-3.6676
G01 X-60.3317 Y-3.2383
G01 X-59.7809 Y-2.8469
G01 X-59.4760 Y-2.6494
G01 X-58.8934 Y-2.3053
G01 X-58.5930 Y-2.1450
G01 X-58.2735 Y-1.9847
G01 X-57.6577 Y-1.7088
G01 X-57.0060 Y-1.4597
G01 X-56.3608 Y-1.2539
G01 X-56.0345 Y-1.1671
G01 X-55.6858 Y-1.0796
G01 X-55.0242 Y-0.9479
G01 X-54.3431 Y-0.8513
G01 X-53.6559 Y-0.7930
G01 X-52.9748 Y-0.7737
G01 X-38.5990 Y-0.7737
G01 X-38.4726 Y-0.7997
G01 X-38.3943 Y-0.8409
G01 X-38.3081 Y-0.9292
G01 X-38.2742 Y-0.9981
G01 X-38.2482 Y-1.1245
G01 X-38.2482 Y-38.0755
G01 X-38.2547 Y-38.1294
G01 X-38.2895 Y-38.2405
G01 X-38.3231 Y-38.2893
G01 X-38.4037 Y-38.3664
G01 X-38.4726 Y-38.4003
G01 X-38.5990 Y-38.4263
G01 X-67.9749 Y-38.4263
G01 X-68.5099 Y-38.4062
G01 X-69.0441 Y-38.3462
G01 X-69.5723 Y-38.2466
G01 X-70.0789 Y-38.1119
G01 X-70.5890 Y-37.9354
G01 X-70.8581 Y-37.8214
G01 X-71.0952 Y-37.7160
G01 X-71.5620 Y-37.4709
G01 X-72.0158 Y-37.1882
G01 X-72.2499 Y-37.0210
G01 X-72.4604 Y-36.8625
G01 X-72.8583 Y-36.5229
G01 X-73.2406 Y-36.1447
G01 X-73.4319 Y-35.9315
G01 X-73.6015 Y-35.7295
G01 X-73.9151 Y-35.3093
G01 X-74.0731 Y-35.0708
G01 X-74.2107 Y-34.8448
G01 X-74.3484 Y-34.5988
G01 X-74.5788 Y-34.1265
G01 X-74.7777 Y-33.6290
G01 X-74.8599 Y-33.3820
G01 X-74.9432 Y-33.1035
G01 X-75.0638 Y-32.5900
G01 X-75.1472 Y-32.0638
G01 X-75.1717 Y-31.8045
G01 X-75.1925 Y-31.5138
G01 X-75.1965 Y-30.9931
G01 X-75.1612 Y-30.4537
G01 X-75.1273 Y-30.2000
G01 X-75.0834 Y-29.9068
G01 X-74.9721 Y-29.3985
G01 X-74.8140 Y-28.8679
G01 X-74.6277 Y-28.3792
G01 X-74.5596 Y-28.2323
G00 Z2.0000
M05
G00 Z2.0000
G00 Z15.00
G00 X0.0 Y0.0


