(G-code generated by FlatCAM Evo vUnstable - Version Date: 2022/4/31)

(Name: maynuo_banana_adapter.drl_cnc)
(Type: G-code from Excellon)
(Units: MM)

(Created on Wednesday, 26 April 2023 at 19:46)

(This preprocessor is the default preprocessor.)
(It is made to work with MACH3 compatible motion controllers.)


(TOOLS DIAMETER: )
(Tool: 1 -> Dia: 1.6001999999999998)

(FEEDRATE Z: )
(Tool: 1 -> Feedrate: 120.0)

(FEEDRATE RAPIDS: )
(Tool: 1 -> Feedrate Rapids: 1500)

(Z_CUT: )
(Tool: 1 -> Z_Cut: -2.5)

(Tools Offset: )
(Tool: 1 -> Offset Z: 0.0)

(Z_MOVE: )
(Tool: 1 -> Z_Move: 2)

(Z Start: None mm)
(Z End: 15 mm)
(X,Y End: 0.0000, 0.0000 mm)
(Steps per circle: 16)
(Preprocessor Excellon: default)

(X range:  -71.1556 ...   -4.7955  mm)
(Y range:  -34.3789 ...   -9.7993  mm)

(Spindle Speed: 13000 RPM)
G21
G90
G94

G01 F120.00
G00 Z2.0000

M03 S13000
G4 P1
G00 X-5.5956 Y-31.1988
G01 Z-2.5000
G01 Z0
G00 Z2.0000
G00 X-7.9756 Y-33.5788
G01 Z-2.5000
G01 Z0
G00 Z2.0000
G00 X-67.9755 Y-33.5788
G01 Z-2.5000
G01 Z0
G00 Z2.0000
G00 X-70.3555 Y-31.1988
G01 Z-2.5000
G01 Z0
G00 Z2.0000
G00 X-67.9755 Y-28.8188
G01 Z-2.5000
G01 Z0
G00 Z2.0000
G00 X-65.5955 Y-31.1988
G01 Z-2.5000
G01 Z0
G00 Z2.0000
G00 X-10.3556 Y-31.1988
G01 Z-2.5000
G01 Z0
G00 Z2.0000
G00 X-7.9756 Y-28.8188
G01 Z-2.5000
G01 Z0
G00 Z2.0000
M05
G00 Z15.00
G00 X0.0 Y0.0


