(G-code generated by FlatCAM Evo vUnstable - Version Date: 2022/4/31)

(Name: maynuo_banana_adapter.drl_exc_cnc_cnc)
(Type: G-code from Geometry)
(Units: MM)

(Created on Wednesday, 26 April 2023 at 19:47)

(This preprocessor is the default preprocessor.)
(It is made to work with MACH3 compatible motion controllers.)

(TOOL DIAMETER: 1.0 mm)
(Feedrate_XY: 120.0 mm/min)
(Feedrate_Z: 60.0 mm/min)
(Feedrate rapids 1500.0 mm/min)

(Z_Cut: -2.5 mm)
(DepthPerCut: 0.5 mm <=>5 passes)
(Z_Move: 2.0 mm)
(Z Start: None mm)
(Z End: 15.0 mm)
(X,Y End: 0.0000, 0.0000 mm)
(Steps per circle: 16)
(Preprocessor Geometry: default)

(X range:  -71.1556 ...   -4.7955  mm)
(Y range:  -34.3789 ...   -9.7993  mm)

(Spindle Speed: 13000.0 RPM)
G21
G90
G94

G01 F120.00
G00 Z2.0000

M03 S13000.0
G4 P1.0
G01 F120.00
G00 X-20.2745 Y-12.9997
G01 F60.00
G01 Z-0.5000
G01 F120.00
G01 X-20.2875 Y-13.2643
G01 X-20.3264 Y-13.5264
G01 X-20.3908 Y-13.7834
G01 X-20.4800 Y-14.0329
G01 X-20.5933 Y-14.2724
G01 X-20.7295 Y-14.4996
G01 X-20.8873 Y-14.7125
G01 X-21.0653 Y-14.9088
G01 X-21.2616 Y-15.0867
G01 X-21.4744 Y-15.2445
G01 X-21.7016 Y-15.3807
G01 X-21.9411 Y-15.4940
G01 X-22.1906 Y-15.5833
G01 X-22.4476 Y-15.6476
G01 X-22.7097 Y-15.6865
G01 X-22.9743 Y-15.6995
G01 X-23.2389 Y-15.6865
G01 X-23.5010 Y-15.6476
G01 X-23.7580 Y-15.5833
G01 X-24.0075 Y-15.4940
G01 X-24.2470 Y-15.3807
G01 X-24.4742 Y-15.2445
G01 X-24.6870 Y-15.0867
G01 X-24.8833 Y-14.9088
G01 X-25.0613 Y-14.7125
G01 X-25.2191 Y-14.4996
G01 X-25.3553 Y-14.2724
G01 X-25.4686 Y-14.0329
G01 X-25.5578 Y-13.7834
G01 X-25.6222 Y-13.5264
G01 X-25.6611 Y-13.2643
G01 X-25.6741 Y-12.9997
G01 X-25.6611 Y-12.7351
G01 X-25.6222 Y-12.4730
G01 X-25.5578 Y-12.2160
G01 X-25.4686 Y-11.9666
G01 X-25.3553 Y-11.7270
G01 X-25.2191 Y-11.4998
G01 X-25.0613 Y-11.2870
G01 X-24.8833 Y-11.0907
G01 X-24.6870 Y-10.9127
G01 X-24.4742 Y-10.7549
G01 X-24.2470 Y-10.6187
G01 X-24.0075 Y-10.5054
G01 X-23.7580 Y-10.4162
G01 X-23.5010 Y-10.3518
G01 X-23.2389 Y-10.3129
G01 X-22.9743 Y-10.2999
G01 X-22.7097 Y-10.3129
G01 X-22.4476 Y-10.3518
G01 X-22.1906 Y-10.4162
G01 X-21.9411 Y-10.5054
G01 X-21.7016 Y-10.6187
G01 X-21.4744 Y-10.7549
G01 X-21.2616 Y-10.9127
G01 X-21.0653 Y-11.0907
G01 X-20.8873 Y-11.2870
G01 X-20.7295 Y-11.4998
G01 X-20.5933 Y-11.7270
G01 X-20.4800 Y-11.9666
G01 X-20.3908 Y-12.2160
G01 X-20.3264 Y-12.4730
G01 X-20.2875 Y-12.7351
G01 X-20.2745 Y-12.9997
G00 X-20.2745 Y-12.9997
G01 F60.00
G01 Z-1.0000
G01 F120.00
G01 X-20.2875 Y-12.7351
G01 X-20.3264 Y-12.4730
G01 X-20.3908 Y-12.2160
G01 X-20.4800 Y-11.9666
G01 X-20.5933 Y-11.7270
G01 X-20.7295 Y-11.4998
G01 X-20.8873 Y-11.2870
G01 X-21.0653 Y-11.0907
G01 X-21.2616 Y-10.9127
G01 X-21.4744 Y-10.7549
G01 X-21.7016 Y-10.6187
G01 X-21.9411 Y-10.5054
G01 X-22.1906 Y-10.4162
G01 X-22.4476 Y-10.3518
G01 X-22.7097 Y-10.3129
G01 X-22.9743 Y-10.2999
G01 X-23.2389 Y-10.3129
G01 X-23.5010 Y-10.3518
G01 X-23.7580 Y-10.4162
G01 X-24.0075 Y-10.5054
G01 X-24.2470 Y-10.6187
G01 X-24.4742 Y-10.7549
G01 X-24.6870 Y-10.9127
G01 X-24.8833 Y-11.0907
G01 X-25.0613 Y-11.2870
G01 X-25.2191 Y-11.4998
G01 X-25.3553 Y-11.7270
G01 X-25.4686 Y-11.9666
G01 X-25.5578 Y-12.2160
G01 X-25.6222 Y-12.4730
G01 X-25.6611 Y-12.7351
G01 X-25.6741 Y-12.9997
G01 X-25.6611 Y-13.2643
G01 X-25.6222 Y-13.5264
G01 X-25.5578 Y-13.7834
G01 X-25.4686 Y-14.0329
G01 X-25.3553 Y-14.2724
G01 X-25.2191 Y-14.4996
G01 X-25.0613 Y-14.7125
G01 X-24.8833 Y-14.9088
G01 X-24.6870 Y-15.0867
G01 X-24.4742 Y-15.2445
G01 X-24.2470 Y-15.3807
G01 X-24.0075 Y-15.4940
G01 X-23.7580 Y-15.5833
G01 X-23.5010 Y-15.6476
G01 X-23.2389 Y-15.6865
G01 X-22.9743 Y-15.6995
G01 X-22.7097 Y-15.6865
G01 X-22.4476 Y-15.6476
G01 X-22.1906 Y-15.5833
G01 X-21.9411 Y-15.4940
G01 X-21.7016 Y-15.3807
G01 X-21.4744 Y-15.2445
G01 X-21.2616 Y-15.0867
G01 X-21.0653 Y-14.9088
G01 X-20.8873 Y-14.7125
G01 X-20.7295 Y-14.4996
G01 X-20.5933 Y-14.2724
G01 X-20.4800 Y-14.0329
G01 X-20.3908 Y-13.7834
G01 X-20.3264 Y-13.5264
G01 X-20.2875 Y-13.2643
G01 X-20.2745 Y-12.9997
G00 X-20.2745 Y-12.9997
G01 F60.00
G01 Z-1.5000
G01 F120.00
G01 X-20.2875 Y-13.2643
G01 X-20.3264 Y-13.5264
G01 X-20.3908 Y-13.7834
G01 X-20.4800 Y-14.0329
G01 X-20.5933 Y-14.2724
G01 X-20.7295 Y-14.4996
G01 X-20.8873 Y-14.7125
G01 X-21.0653 Y-14.9088
G01 X-21.2616 Y-15.0867
G01 X-21.4744 Y-15.2445
G01 X-21.7016 Y-15.3807
G01 X-21.9411 Y-15.4940
G01 X-22.1906 Y-15.5833
G01 X-22.4476 Y-15.6476
G01 X-22.7097 Y-15.6865
G01 X-22.9743 Y-15.6995
G01 X-23.2389 Y-15.6865
G01 X-23.5010 Y-15.6476
G01 X-23.7580 Y-15.5833
G01 X-24.0075 Y-15.4940
G01 X-24.2470 Y-15.3807
G01 X-24.4742 Y-15.2445
G01 X-24.6870 Y-15.0867
G01 X-24.8833 Y-14.9088
G01 X-25.0613 Y-14.7125
G01 X-25.2191 Y-14.4996
G01 X-25.3553 Y-14.2724
G01 X-25.4686 Y-14.0329
G01 X-25.5578 Y-13.7834
G01 X-25.6222 Y-13.5264
G01 X-25.6611 Y-13.2643
G01 X-25.6741 Y-12.9997
G01 X-25.6611 Y-12.7351
G01 X-25.6222 Y-12.4730
G01 X-25.5578 Y-12.2160
G01 X-25.4686 Y-11.9666
G01 X-25.3553 Y-11.7270
G01 X-25.2191 Y-11.4998
G01 X-25.0613 Y-11.2870
G01 X-24.8833 Y-11.0907
G01 X-24.6870 Y-10.9127
G01 X-24.4742 Y-10.7549
G01 X-24.2470 Y-10.6187
G01 X-24.0075 Y-10.5054
G01 X-23.7580 Y-10.4162
G01 X-23.5010 Y-10.3518
G01 X-23.2389 Y-10.3129
G01 X-22.9743 Y-10.2999
G01 X-22.7097 Y-10.3129
G01 X-22.4476 Y-10.3518
G01 X-22.1906 Y-10.4162
G01 X-21.9411 Y-10.5054
G01 X-21.7016 Y-10.6187
G01 X-21.4744 Y-10.7549
G01 X-21.2616 Y-10.9127
G01 X-21.0653 Y-11.0907
G01 X-20.8873 Y-11.2870
G01 X-20.7295 Y-11.4998
G01 X-20.5933 Y-11.7270
G01 X-20.4800 Y-11.9666
G01 X-20.3908 Y-12.2160
G01 X-20.3264 Y-12.4730
G01 X-20.2875 Y-12.7351
G01 X-20.2745 Y-12.9997
G00 X-20.2745 Y-12.9997
G01 F60.00
G01 Z-2.0000
G01 F120.00
G01 X-20.2875 Y-12.7351
G01 X-20.3264 Y-12.4730
G01 X-20.3908 Y-12.2160
G01 X-20.4800 Y-11.9666
G01 X-20.5933 Y-11.7270
G01 X-20.7295 Y-11.4998
G01 X-20.8873 Y-11.2870
G01 X-21.0653 Y-11.0907
G01 X-21.2616 Y-10.9127
G01 X-21.4744 Y-10.7549
G01 X-21.7016 Y-10.6187
G01 X-21.9411 Y-10.5054
G01 X-22.1906 Y-10.4162
G01 X-22.4476 Y-10.3518
G01 X-22.7097 Y-10.3129
G01 X-22.9743 Y-10.2999
G01 X-23.2389 Y-10.3129
G01 X-23.5010 Y-10.3518
G01 X-23.7580 Y-10.4162
G01 X-24.0075 Y-10.5054
G01 X-24.2470 Y-10.6187
G01 X-24.4742 Y-10.7549
G01 X-24.6870 Y-10.9127
G01 X-24.8833 Y-11.0907
G01 X-25.0613 Y-11.2870
G01 X-25.2191 Y-11.4998
G01 X-25.3553 Y-11.7270
G01 X-25.4686 Y-11.9666
G01 X-25.5578 Y-12.2160
G01 X-25.6222 Y-12.4730
G01 X-25.6611 Y-12.7351
G01 X-25.6741 Y-12.9997
G01 X-25.6611 Y-13.2643
G01 X-25.6222 Y-13.5264
G01 X-25.5578 Y-13.7834
G01 X-25.4686 Y-14.0329
G01 X-25.3553 Y-14.2724
G01 X-25.2191 Y-14.4996
G01 X-25.0613 Y-14.7125
G01 X-24.8833 Y-14.9088
G01 X-24.6870 Y-15.0867
G01 X-24.4742 Y-15.2445
G01 X-24.2470 Y-15.3807
G01 X-24.0075 Y-15.4940
G01 X-23.7580 Y-15.5833
G01 X-23.5010 Y-15.6476
G01 X-23.2389 Y-15.6865
G01 X-22.9743 Y-15.6995
G01 X-22.7097 Y-15.6865
G01 X-22.4476 Y-15.6476
G01 X-22.1906 Y-15.5833
G01 X-21.9411 Y-15.4940
G01 X-21.7016 Y-15.3807
G01 X-21.4744 Y-15.2445
G01 X-21.2616 Y-15.0867
G01 X-21.0653 Y-14.9088
G01 X-20.8873 Y-14.7125
G01 X-20.7295 Y-14.4996
G01 X-20.5933 Y-14.2724
G01 X-20.4800 Y-14.0329
G01 X-20.3908 Y-13.7834
G01 X-20.3264 Y-13.5264
G01 X-20.2875 Y-13.2643
G01 X-20.2745 Y-12.9997
G00 X-20.2745 Y-12.9997
G01 F60.00
G01 Z-2.5000
G01 F120.00
G01 X-20.2875 Y-13.2643
G01 X-20.3264 Y-13.5264
G01 X-20.3908 Y-13.7834
G01 X-20.4800 Y-14.0329
G01 X-20.5933 Y-14.2724
G01 X-20.7295 Y-14.4996
G01 X-20.8873 Y-14.7125
G01 X-21.0653 Y-14.9088
G01 X-21.2616 Y-15.0867
G01 X-21.4744 Y-15.2445
G01 X-21.7016 Y-15.3807
G01 X-21.9411 Y-15.4940
G01 X-22.1906 Y-15.5833
G01 X-22.4476 Y-15.6476
G01 X-22.7097 Y-15.6865
G01 X-22.9743 Y-15.6995
G01 X-23.2389 Y-15.6865
G01 X-23.5010 Y-15.6476
G01 X-23.7580 Y-15.5833
G01 X-24.0075 Y-15.4940
G01 X-24.2470 Y-15.3807
G01 X-24.4742 Y-15.2445
G01 X-24.6870 Y-15.0867
G01 X-24.8833 Y-14.9088
G01 X-25.0613 Y-14.7125
G01 X-25.2191 Y-14.4996
G01 X-25.3553 Y-14.2724
G01 X-25.4686 Y-14.0329
G01 X-25.5578 Y-13.7834
G01 X-25.6222 Y-13.5264
G01 X-25.6611 Y-13.2643
G01 X-25.6741 Y-12.9997
G01 X-25.6611 Y-12.7351
G01 X-25.6222 Y-12.4730
G01 X-25.5578 Y-12.2160
G01 X-25.4686 Y-11.9666
G01 X-25.3553 Y-11.7270
G01 X-25.2191 Y-11.4998
G01 X-25.0613 Y-11.2870
G01 X-24.8833 Y-11.0907
G01 X-24.6870 Y-10.9127
G01 X-24.4742 Y-10.7549
G01 X-24.2470 Y-10.6187
G01 X-24.0075 Y-10.5054
G01 X-23.7580 Y-10.4162
G01 X-23.5010 Y-10.3518
G01 X-23.2389 Y-10.3129
G01 X-22.9743 Y-10.2999
G01 X-22.7097 Y-10.3129
G01 X-22.4476 Y-10.3518
G01 X-22.1906 Y-10.4162
G01 X-21.9411 Y-10.5054
G01 X-21.7016 Y-10.6187
G01 X-21.4744 Y-10.7549
G01 X-21.2616 Y-10.9127
G01 X-21.0653 Y-11.0907
G01 X-20.8873 Y-11.2870
G01 X-20.7295 Y-11.4998
G01 X-20.5933 Y-11.7270
G01 X-20.4800 Y-11.9666
G01 X-20.3908 Y-12.2160
G01 X-20.3264 Y-12.4730
G01 X-20.2875 Y-12.7351
G01 X-20.2745 Y-12.9997
G00 Z2.0000
G00 X-20.7243 Y-12.9997
G01 F60.00
G01 Z-0.5000
G01 F120.00
G01 X-20.7351 Y-13.2203
G01 X-20.7675 Y-13.4387
G01 X-20.8212 Y-13.6529
G01 X-20.8956 Y-13.8608
G01 X-20.9900 Y-14.0604
G01 X-21.1035 Y-14.2498
G01 X-21.2350 Y-14.4271
G01 X-21.3833 Y-14.5907
G01 X-21.5469 Y-14.7390
G01 X-21.7243 Y-14.8705
G01 X-21.9137 Y-14.9840
G01 X-22.1133 Y-15.0784
G01 X-22.3212 Y-15.1528
G01 X-22.5353 Y-15.2065
G01 X-22.7538 Y-15.2389
G01 X-22.9743 Y-15.2497
G01 X-23.1948 Y-15.2389
G01 X-23.4133 Y-15.2065
G01 X-23.6274 Y-15.1528
G01 X-23.8353 Y-15.0784
G01 X-24.0349 Y-14.9840
G01 X-24.2243 Y-14.8705
G01 X-24.4017 Y-14.7390
G01 X-24.5653 Y-14.5907
G01 X-24.7136 Y-14.4271
G01 X-24.8451 Y-14.2498
G01 X-24.9586 Y-14.0604
G01 X-25.0530 Y-13.8608
G01 X-25.1274 Y-13.6529
G01 X-25.1811 Y-13.4387
G01 X-25.2135 Y-13.2203
G01 X-25.2243 Y-12.9997
G01 X-25.2135 Y-12.7792
G01 X-25.1811 Y-12.5608
G01 X-25.1274 Y-12.3466
G01 X-25.0530 Y-12.1387
G01 X-24.9586 Y-11.9391
G01 X-24.8451 Y-11.7497
G01 X-24.7136 Y-11.5723
G01 X-24.5653 Y-11.4087
G01 X-24.4017 Y-11.2604
G01 X-24.2243 Y-11.1289
G01 X-24.0349 Y-11.0154
G01 X-23.8353 Y-10.9210
G01 X-23.6274 Y-10.8466
G01 X-23.4133 Y-10.7930
G01 X-23.1948 Y-10.7606
G01 X-22.9743 Y-10.7497
G01 X-22.7538 Y-10.7606
G01 X-22.5353 Y-10.7930
G01 X-22.3212 Y-10.8466
G01 X-22.2163 Y-10.8812
G01 X-22.0123 Y-10.9657
G01 X-21.8176 Y-11.0698
G01 X-21.6340 Y-11.1925
G01 X-21.5469 Y-11.2604
G01 X-21.4633 Y-11.3326
G01 X-21.3072 Y-11.4887
G01 X-21.1671 Y-11.6594
G01 X-21.0444 Y-11.8430
G01 X-20.9403 Y-12.0377
G01 X-20.8956 Y-12.1387
G01 X-20.8212 Y-12.3466
G01 X-20.7675 Y-12.5608
G01 X-20.7351 Y-12.7792
G01 X-20.7243 Y-12.9997
G01 X-21.6243 Y-12.9997
G01 X-21.6308 Y-13.1320
G01 X-21.6502 Y-13.2631
G01 X-21.7032 Y-13.4545
G01 X-21.7539 Y-13.5769
G01 X-21.8164 Y-13.6938
G01 X-21.9307 Y-13.8562
G01 X-22.0197 Y-13.9543
G01 X-22.1179 Y-14.0433
G01 X-22.2243 Y-14.1222
G01 X-22.3379 Y-14.1903
G01 X-22.4577 Y-14.2470
G01 X-22.5824 Y-14.2916
G01 X-22.7762 Y-14.3351
G01 X-22.9081 Y-14.3481
G01 X-23.0405 Y-14.3481
G01 X-23.1724 Y-14.3351
G01 X-23.3662 Y-14.2916
G01 X-23.4909 Y-14.2470
G01 X-23.6107 Y-14.1903
G01 X-23.7785 Y-14.0841
G01 X-23.8809 Y-14.0000
G01 X-23.9746 Y-13.9063
G01 X-24.0586 Y-13.8039
G01 X-24.1322 Y-13.6938
G01 X-24.1947 Y-13.5769
G01 X-24.2454 Y-13.4545
G01 X-24.2838 Y-13.3277
G01 X-24.3178 Y-13.1320
G01 X-24.3243 Y-12.9997
G01 X-24.3178 Y-12.8674
G01 X-24.2984 Y-12.7363
G01 X-24.2662 Y-12.6078
G01 X-24.2215 Y-12.4831
G01 X-24.1649 Y-12.3633
G01 X-24.0968 Y-12.2497
G01 X-24.0179 Y-12.1433
G01 X-23.9289 Y-12.0451
G01 X-23.8307 Y-11.9562
G01 X-23.7243 Y-11.8772
G01 X-23.6107 Y-11.8091
G01 X-23.4909 Y-11.7525
G01 X-23.3662 Y-11.7079
G01 X-23.2377 Y-11.6757
G01 X-23.1066 Y-11.6562
G01 X-22.9743 Y-11.6497
G01 X-22.7762 Y-11.6643
G01 X-22.6463 Y-11.6902
G01 X-22.5195 Y-11.7286
G01 X-22.3379 Y-11.8091
G01 X-22.1701 Y-11.9154
G01 X-22.0197 Y-12.0451
G01 X-21.8900 Y-12.1955
G01 X-21.7837 Y-12.3633
G01 X-21.7032 Y-12.5449
G01 X-21.6502 Y-12.7363
G01 X-21.6308 Y-12.8674
G01 X-21.6243 Y-12.9997
G01 X-22.5243 Y-12.9997
G01 X-22.5329 Y-13.0875
G01 X-22.5506 Y-13.1513
G01 X-22.5774 Y-13.2118
G01 X-22.6264 Y-13.2852
G01 X-22.6721 Y-13.3331
G01 X-22.7430 Y-13.3857
G01 X-22.8650 Y-13.4362
G01 X-22.9522 Y-13.4492
G01 X-23.0621 Y-13.4411
G01 X-23.1465 Y-13.4155
G01 X-23.2424 Y-13.3612
G01 X-23.3222 Y-13.2852
G01 X-23.3811 Y-13.1921
G01 X-23.4157 Y-13.0875
G01 X-23.4243 Y-12.9997
G01 X-23.4157 Y-12.9119
G01 X-23.3900 Y-12.8275
G01 X-23.3485 Y-12.7497
G01 X-23.2925 Y-12.6815
G01 X-23.2243 Y-12.6256
G01 X-23.1465 Y-12.5840
G01 X-23.0621 Y-12.5584
G01 X-22.9743 Y-12.5497
G01 X-22.8865 Y-12.5584
G01 X-22.8021 Y-12.5840
G01 X-22.7243 Y-12.6256
G01 X-22.6561 Y-12.6815
G01 X-22.6001 Y-12.7497
G01 X-22.5586 Y-12.8275
G01 X-22.5329 Y-12.9119
G01 X-22.5243 Y-12.9997
G00 X-22.5243 Y-12.9997
G01 F60.00
G01 Z-1.0000
G01 F120.00
G01 X-22.5329 Y-12.9119
G01 X-22.5586 Y-12.8275
G01 X-22.6001 Y-12.7497
G01 X-22.6561 Y-12.6815
G01 X-22.7243 Y-12.6256
G01 X-22.8021 Y-12.5840
G01 X-22.8865 Y-12.5584
G01 X-22.9743 Y-12.5497
G01 X-23.0621 Y-12.5584
G01 X-23.1465 Y-12.5840
G01 X-23.2243 Y-12.6256
G01 X-23.2925 Y-12.6815
G01 X-23.3485 Y-12.7497
G01 X-23.3900 Y-12.8275
G01 X-23.4157 Y-12.9119
G01 X-23.4243 Y-12.9997
G01 X-23.4157 Y-13.0875
G01 X-23.3811 Y-13.1921
G01 X-23.3222 Y-13.2852
G01 X-23.2424 Y-13.3612
G01 X-23.1465 Y-13.4155
G01 X-23.0621 Y-13.4411
G01 X-22.9522 Y-13.4492
G01 X-22.8650 Y-13.4362
G01 X-22.7430 Y-13.3857
G01 X-22.6721 Y-13.3331
G01 X-22.6264 Y-13.2852
G01 X-22.5774 Y-13.2118
G01 X-22.5506 Y-13.1513
G01 X-22.5329 Y-13.0875
G01 X-22.5243 Y-12.9997
G01 X-21.6243 Y-12.9997
G01 X-21.6308 Y-12.8674
G01 X-21.6502 Y-12.7363
G01 X-21.7032 Y-12.5449
G01 X-21.7837 Y-12.3633
G01 X-21.8900 Y-12.1955
G01 X-22.0197 Y-12.0451
G01 X-22.1701 Y-11.9154
G01 X-22.3379 Y-11.8091
G01 X-22.5195 Y-11.7286
G01 X-22.6463 Y-11.6902
G01 X-22.7762 Y-11.6643
G01 X-22.9743 Y-11.6497
G01 X-23.1066 Y-11.6562
G01 X-23.2377 Y-11.6757
G01 X-23.3662 Y-11.7079
G01 X-23.4909 Y-11.7525
G01 X-23.6107 Y-11.8091
G01 X-23.7243 Y-11.8772
G01 X-23.8307 Y-11.9562
G01 X-23.9289 Y-12.0451
G01 X-24.0179 Y-12.1433
G01 X-24.0968 Y-12.2497
G01 X-24.1649 Y-12.3633
G01 X-24.2215 Y-12.4831
G01 X-24.2662 Y-12.6078
G01 X-24.2984 Y-12.7363
G01 X-24.3178 Y-12.8674
G01 X-24.3243 Y-12.9997
G01 X-24.3178 Y-13.1320
G01 X-24.2838 Y-13.3277
G01 X-24.2454 Y-13.4545
G01 X-24.1947 Y-13.5769
G01 X-24.1322 Y-13.6938
G01 X-24.0586 Y-13.8039
G01 X-23.9746 Y-13.9063
G01 X-23.8809 Y-14.0000
G01 X-23.7785 Y-14.0841
G01 X-23.6107 Y-14.1903
G01 X-23.4909 Y-14.2470
G01 X-23.3662 Y-14.2916
G01 X-23.1724 Y-14.3351
G01 X-23.0405 Y-14.3481
G01 X-22.9081 Y-14.3481
G01 X-22.7762 Y-14.3351
G01 X-22.5824 Y-14.2916
G01 X-22.4577 Y-14.2470
G01 X-22.3379 Y-14.1903
G01 X-22.2243 Y-14.1222
G01 X-22.1179 Y-14.0433
G01 X-22.0197 Y-13.9543
G01 X-21.9307 Y-13.8562
G01 X-21.8164 Y-13.6938
G01 X-21.7539 Y-13.5769
G01 X-21.7032 Y-13.4545
G01 X-21.6502 Y-13.2631
G01 X-21.6308 Y-13.1320
G01 X-21.6243 Y-12.9997
G01 X-20.7243 Y-12.9997
G01 X-20.7351 Y-12.7792
G01 X-20.7675 Y-12.5608
G01 X-20.8212 Y-12.3466
G01 X-20.8956 Y-12.1387
G01 X-20.9403 Y-12.0377
G01 X-21.0444 Y-11.8430
G01 X-21.1671 Y-11.6594
G01 X-21.3072 Y-11.4887
G01 X-21.4633 Y-11.3326
G01 X-21.5469 Y-11.2604
G01 X-21.6340 Y-11.1925
G01 X-21.8176 Y-11.0698
G01 X-22.0123 Y-10.9657
G01 X-22.2163 Y-10.8812
G01 X-22.3212 Y-10.8466
G01 X-22.5353 Y-10.7930
G01 X-22.7538 Y-10.7606
G01 X-22.9743 Y-10.7497
G01 X-23.1948 Y-10.7606
G01 X-23.4133 Y-10.7930
G01 X-23.6274 Y-10.8466
G01 X-23.8353 Y-10.9210
G01 X-24.0349 Y-11.0154
G01 X-24.2243 Y-11.1289
G01 X-24.4017 Y-11.2604
G01 X-24.5653 Y-11.4087
G01 X-24.7136 Y-11.5723
G01 X-24.8451 Y-11.7497
G01 X-24.9586 Y-11.9391
G01 X-25.0530 Y-12.1387
G01 X-25.1274 Y-12.3466
G01 X-25.1811 Y-12.5608
G01 X-25.2135 Y-12.7792
G01 X-25.2243 Y-12.9997
G01 X-25.2135 Y-13.2203
G01 X-25.1811 Y-13.4387
G01 X-25.1274 Y-13.6529
G01 X-25.0530 Y-13.8608
G01 X-24.9586 Y-14.0604
G01 X-24.8451 Y-14.2498
G01 X-24.7136 Y-14.4271
G01 X-24.5653 Y-14.5907
G01 X-24.4017 Y-14.7390
G01 X-24.2243 Y-14.8705
G01 X-24.0349 Y-14.9840
G01 X-23.8353 Y-15.0784
G01 X-23.6274 Y-15.1528
G01 X-23.4133 Y-15.2065
G01 X-23.1948 Y-15.2389
G01 X-22.9743 Y-15.2497
G01 X-22.7538 Y-15.2389
G01 X-22.5353 Y-15.2065
G01 X-22.3212 Y-15.1528
G01 X-22.1133 Y-15.0784
G01 X-21.9137 Y-14.9840
G01 X-21.7243 Y-14.8705
G01 X-21.5469 Y-14.7390
G01 X-21.3833 Y-14.5907
G01 X-21.2350 Y-14.4271
G01 X-21.1035 Y-14.2498
G01 X-20.9900 Y-14.0604
G01 X-20.8956 Y-13.8608
G01 X-20.8212 Y-13.6529
G01 X-20.7675 Y-13.4387
G01 X-20.7351 Y-13.2203
G01 X-20.7243 Y-12.9997
G00 X-20.7243 Y-12.9997
G01 F60.00
G01 Z-1.5000
G01 F120.00
G01 X-20.7351 Y-13.2203
G01 X-20.7675 Y-13.4387
G01 X-20.8212 Y-13.6529
G01 X-20.8956 Y-13.8608
G01 X-20.9900 Y-14.0604
G01 X-21.1035 Y-14.2498
G01 X-21.2350 Y-14.4271
G01 X-21.3833 Y-14.5907
G01 X-21.5469 Y-14.7390
G01 X-21.7243 Y-14.8705
G01 X-21.9137 Y-14.9840
G01 X-22.1133 Y-15.0784
G01 X-22.3212 Y-15.1528
G01 X-22.5353 Y-15.2065
G01 X-22.7538 Y-15.2389
G01 X-22.9743 Y-15.2497
G01 X-23.1948 Y-15.2389
G01 X-23.4133 Y-15.2065
G01 X-23.6274 Y-15.1528
G01 X-23.8353 Y-15.0784
G01 X-24.0349 Y-14.9840
G01 X-24.2243 Y-14.8705
G01 X-24.4017 Y-14.7390
G01 X-24.5653 Y-14.5907
G01 X-24.7136 Y-14.4271
G01 X-24.8451 Y-14.2498
G01 X-24.9586 Y-14.0604
G01 X-25.0530 Y-13.8608
G01 X-25.1274 Y-13.6529
G01 X-25.1811 Y-13.4387
G01 X-25.2135 Y-13.2203
G01 X-25.2243 Y-12.9997
G01 X-25.2135 Y-12.7792
G01 X-25.1811 Y-12.5608
G01 X-25.1274 Y-12.3466
G01 X-25.0530 Y-12.1387
G01 X-24.9586 Y-11.9391
G01 X-24.8451 Y-11.7497
G01 X-24.7136 Y-11.5723
G01 X-24.5653 Y-11.4087
G01 X-24.4017 Y-11.2604
G01 X-24.2243 Y-11.1289
G01 X-24.0349 Y-11.0154
G01 X-23.8353 Y-10.9210
G01 X-23.6274 Y-10.8466
G01 X-23.4133 Y-10.7930
G01 X-23.1948 Y-10.7606
G01 X-22.9743 Y-10.7497
G01 X-22.7538 Y-10.7606
G01 X-22.5353 Y-10.7930
G01 X-22.3212 Y-10.8466
G01 X-22.2163 Y-10.8812
G01 X-22.0123 Y-10.9657
G01 X-21.8176 Y-11.0698
G01 X-21.6340 Y-11.1925
G01 X-21.5469 Y-11.2604
G01 X-21.4633 Y-11.3326
G01 X-21.3072 Y-11.4887
G01 X-21.1671 Y-11.6594
G01 X-21.0444 Y-11.8430
G01 X-20.9403 Y-12.0377
G01 X-20.8956 Y-12.1387
G01 X-20.8212 Y-12.3466
G01 X-20.7675 Y-12.5608
G01 X-20.7351 Y-12.7792
G01 X-20.7243 Y-12.9997
G01 X-21.6243 Y-12.9997
G01 X-21.6308 Y-13.1320
G01 X-21.6502 Y-13.2631
G01 X-21.7032 Y-13.4545
G01 X-21.7539 Y-13.5769
G01 X-21.8164 Y-13.6938
G01 X-21.9307 Y-13.8562
G01 X-22.0197 Y-13.9543
G01 X-22.1179 Y-14.0433
G01 X-22.2243 Y-14.1222
G01 X-22.3379 Y-14.1903
G01 X-22.4577 Y-14.2470
G01 X-22.5824 Y-14.2916
G01 X-22.7762 Y-14.3351
G01 X-22.9081 Y-14.3481
G01 X-23.0405 Y-14.3481
G01 X-23.1724 Y-14.3351
G01 X-23.3662 Y-14.2916
G01 X-23.4909 Y-14.2470
G01 X-23.6107 Y-14.1903
G01 X-23.7785 Y-14.0841
G01 X-23.8809 Y-14.0000
G01 X-23.9746 Y-13.9063
G01 X-24.0586 Y-13.8039
G01 X-24.1322 Y-13.6938
G01 X-24.1947 Y-13.5769
G01 X-24.2454 Y-13.4545
G01 X-24.2838 Y-13.3277
G01 X-24.3178 Y-13.1320
G01 X-24.3243 Y-12.9997
G01 X-24.3178 Y-12.8674
G01 X-24.2984 Y-12.7363
G01 X-24.2662 Y-12.6078
G01 X-24.2215 Y-12.4831
G01 X-24.1649 Y-12.3633
G01 X-24.0968 Y-12.2497
G01 X-24.0179 Y-12.1433
G01 X-23.9289 Y-12.0451
G01 X-23.8307 Y-11.9562
G01 X-23.7243 Y-11.8772
G01 X-23.6107 Y-11.8091
G01 X-23.4909 Y-11.7525
G01 X-23.3662 Y-11.7079
G01 X-23.2377 Y-11.6757
G01 X-23.1066 Y-11.6562
G01 X-22.9743 Y-11.6497
G01 X-22.7762 Y-11.6643
G01 X-22.6463 Y-11.6902
G01 X-22.5195 Y-11.7286
G01 X-22.3379 Y-11.8091
G01 X-22.1701 Y-11.9154
G01 X-22.0197 Y-12.0451
G01 X-21.8900 Y-12.1955
G01 X-21.7837 Y-12.3633
G01 X-21.7032 Y-12.5449
G01 X-21.6502 Y-12.7363
G01 X-21.6308 Y-12.8674
G01 X-21.6243 Y-12.9997
G01 X-22.5243 Y-12.9997
G01 X-22.5329 Y-13.0875
G01 X-22.5506 Y-13.1513
G01 X-22.5774 Y-13.2118
G01 X-22.6264 Y-13.2852
G01 X-22.6721 Y-13.3331
G01 X-22.7430 Y-13.3857
G01 X-22.8650 Y-13.4362
G01 X-22.9522 Y-13.4492
G01 X-23.0621 Y-13.4411
G01 X-23.1465 Y-13.4155
G01 X-23.2424 Y-13.3612
G01 X-23.3222 Y-13.2852
G01 X-23.3811 Y-13.1921
G01 X-23.4157 Y-13.0875
G01 X-23.4243 Y-12.9997
G01 X-23.4157 Y-12.9119
G01 X-23.3900 Y-12.8275
G01 X-23.3485 Y-12.7497
G01 X-23.2925 Y-12.6815
G01 X-23.2243 Y-12.6256
G01 X-23.1465 Y-12.5840
G01 X-23.0621 Y-12.5584
G01 X-22.9743 Y-12.5497
G01 X-22.8865 Y-12.5584
G01 X-22.8021 Y-12.5840
G01 X-22.7243 Y-12.6256
G01 X-22.6561 Y-12.6815
G01 X-22.6001 Y-12.7497
G01 X-22.5586 Y-12.8275
G01 X-22.5329 Y-12.9119
G01 X-22.5243 Y-12.9997
G00 X-22.5243 Y-12.9997
G01 F60.00
G01 Z-2.0000
G01 F120.00
G01 X-22.5329 Y-12.9119
G01 X-22.5586 Y-12.8275
G01 X-22.6001 Y-12.7497
G01 X-22.6561 Y-12.6815
G01 X-22.7243 Y-12.6256
G01 X-22.8021 Y-12.5840
G01 X-22.8865 Y-12.5584
G01 X-22.9743 Y-12.5497
G01 X-23.0621 Y-12.5584
G01 X-23.1465 Y-12.5840
G01 X-23.2243 Y-12.6256
G01 X-23.2925 Y-12.6815
G01 X-23.3485 Y-12.7497
G01 X-23.3900 Y-12.8275
G01 X-23.4157 Y-12.9119
G01 X-23.4243 Y-12.9997
G01 X-23.4157 Y-13.0875
G01 X-23.3811 Y-13.1921
G01 X-23.3222 Y-13.2852
G01 X-23.2424 Y-13.3612
G01 X-23.1465 Y-13.4155
G01 X-23.0621 Y-13.4411
G01 X-22.9522 Y-13.4492
G01 X-22.8650 Y-13.4362
G01 X-22.7430 Y-13.3857
G01 X-22.6721 Y-13.3331
G01 X-22.6264 Y-13.2852
G01 X-22.5774 Y-13.2118
G01 X-22.5506 Y-13.1513
G01 X-22.5329 Y-13.0875
G01 X-22.5243 Y-12.9997
G01 X-21.6243 Y-12.9997
G01 X-21.6308 Y-12.8674
G01 X-21.6502 Y-12.7363
G01 X-21.7032 Y-12.5449
G01 X-21.7837 Y-12.3633
G01 X-21.8900 Y-12.1955
G01 X-22.0197 Y-12.0451
G01 X-22.1701 Y-11.9154
G01 X-22.3379 Y-11.8091
G01 X-22.5195 Y-11.7286
G01 X-22.6463 Y-11.6902
G01 X-22.7762 Y-11.6643
G01 X-22.9743 Y-11.6497
G01 X-23.1066 Y-11.6562
G01 X-23.2377 Y-11.6757
G01 X-23.3662 Y-11.7079
G01 X-23.4909 Y-11.7525
G01 X-23.6107 Y-11.8091
G01 X-23.7243 Y-11.8772
G01 X-23.8307 Y-11.9562
G01 X-23.9289 Y-12.0451
G01 X-24.0179 Y-12.1433
G01 X-24.0968 Y-12.2497
G01 X-24.1649 Y-12.3633
G01 X-24.2215 Y-12.4831
G01 X-24.2662 Y-12.6078
G01 X-24.2984 Y-12.7363
G01 X-24.3178 Y-12.8674
G01 X-24.3243 Y-12.9997
G01 X-24.3178 Y-13.1320
G01 X-24.2838 Y-13.3277
G01 X-24.2454 Y-13.4545
G01 X-24.1947 Y-13.5769
G01 X-24.1322 Y-13.6938
G01 X-24.0586 Y-13.8039
G01 X-23.9746 Y-13.9063
G01 X-23.8809 Y-14.0000
G01 X-23.7785 Y-14.0841
G01 X-23.6107 Y-14.1903
G01 X-23.4909 Y-14.2470
G01 X-23.3662 Y-14.2916
G01 X-23.1724 Y-14.3351
G01 X-23.0405 Y-14.3481
G01 X-22.9081 Y-14.3481
G01 X-22.7762 Y-14.3351
G01 X-22.5824 Y-14.2916
G01 X-22.4577 Y-14.2470
G01 X-22.3379 Y-14.1903
G01 X-22.2243 Y-14.1222
G01 X-22.1179 Y-14.0433
G01 X-22.0197 Y-13.9543
G01 X-21.9307 Y-13.8562
G01 X-21.8164 Y-13.6938
G01 X-21.7539 Y-13.5769
G01 X-21.7032 Y-13.4545
G01 X-21.6502 Y-13.2631
G01 X-21.6308 Y-13.1320
G01 X-21.6243 Y-12.9997
G01 X-20.7243 Y-12.9997
G01 X-20.7351 Y-12.7792
G01 X-20.7675 Y-12.5608
G01 X-20.8212 Y-12.3466
G01 X-20.8956 Y-12.1387
G01 X-20.9403 Y-12.0377
G01 X-21.0444 Y-11.8430
G01 X-21.1671 Y-11.6594
G01 X-21.3072 Y-11.4887
G01 X-21.4633 Y-11.3326
G01 X-21.5469 Y-11.2604
G01 X-21.6340 Y-11.1925
G01 X-21.8176 Y-11.0698
G01 X-22.0123 Y-10.9657
G01 X-22.2163 Y-10.8812
G01 X-22.3212 Y-10.8466
G01 X-22.5353 Y-10.7930
G01 X-22.7538 Y-10.7606
G01 X-22.9743 Y-10.7497
G01 X-23.1948 Y-10.7606
G01 X-23.4133 Y-10.7930
G01 X-23.6274 Y-10.8466
G01 X-23.8353 Y-10.9210
G01 X-24.0349 Y-11.0154
G01 X-24.2243 Y-11.1289
G01 X-24.4017 Y-11.2604
G01 X-24.5653 Y-11.4087
G01 X-24.7136 Y-11.5723
G01 X-24.8451 Y-11.7497
G01 X-24.9586 Y-11.9391
G01 X-25.0530 Y-12.1387
G01 X-25.1274 Y-12.3466
G01 X-25.1811 Y-12.5608
G01 X-25.2135 Y-12.7792
G01 X-25.2243 Y-12.9997
G01 X-25.2135 Y-13.2203
G01 X-25.1811 Y-13.4387
G01 X-25.1274 Y-13.6529
G01 X-25.0530 Y-13.8608
G01 X-24.9586 Y-14.0604
G01 X-24.8451 Y-14.2498
G01 X-24.7136 Y-14.4271
G01 X-24.5653 Y-14.5907
G01 X-24.4017 Y-14.7390
G01 X-24.2243 Y-14.8705
G01 X-24.0349 Y-14.9840
G01 X-23.8353 Y-15.0784
G01 X-23.6274 Y-15.1528
G01 X-23.4133 Y-15.2065
G01 X-23.1948 Y-15.2389
G01 X-22.9743 Y-15.2497
G01 X-22.7538 Y-15.2389
G01 X-22.5353 Y-15.2065
G01 X-22.3212 Y-15.1528
G01 X-22.1133 Y-15.0784
G01 X-21.9137 Y-14.9840
G01 X-21.7243 Y-14.8705
G01 X-21.5469 Y-14.7390
G01 X-21.3833 Y-14.5907
G01 X-21.2350 Y-14.4271
G01 X-21.1035 Y-14.2498
G01 X-20.9900 Y-14.0604
G01 X-20.8956 Y-13.8608
G01 X-20.8212 Y-13.6529
G01 X-20.7675 Y-13.4387
G01 X-20.7351 Y-13.2203
G01 X-20.7243 Y-12.9997
G00 X-20.7243 Y-12.9997
G01 F60.00
G01 Z-2.5000
G01 F120.00
G01 X-20.7351 Y-13.2203
G01 X-20.7675 Y-13.4387
G01 X-20.8212 Y-13.6529
G01 X-20.8956 Y-13.8608
G01 X-20.9900 Y-14.0604
G01 X-21.1035 Y-14.2498
G01 X-21.2350 Y-14.4271
G01 X-21.3833 Y-14.5907
G01 X-21.5469 Y-14.7390
G01 X-21.7243 Y-14.8705
G01 X-21.9137 Y-14.9840
G01 X-22.1133 Y-15.0784
G01 X-22.3212 Y-15.1528
G01 X-22.5353 Y-15.2065
G01 X-22.7538 Y-15.2389
G01 X-22.9743 Y-15.2497
G01 X-23.1948 Y-15.2389
G01 X-23.4133 Y-15.2065
G01 X-23.6274 Y-15.1528
G01 X-23.8353 Y-15.0784
G01 X-24.0349 Y-14.9840
G01 X-24.2243 Y-14.8705
G01 X-24.4017 Y-14.7390
G01 X-24.5653 Y-14.5907
G01 X-24.7136 Y-14.4271
G01 X-24.8451 Y-14.2498
G01 X-24.9586 Y-14.0604
G01 X-25.0530 Y-13.8608
G01 X-25.1274 Y-13.6529
G01 X-25.1811 Y-13.4387
G01 X-25.2135 Y-13.2203
G01 X-25.2243 Y-12.9997
G01 X-25.2135 Y-12.7792
G01 X-25.1811 Y-12.5608
G01 X-25.1274 Y-12.3466
G01 X-25.0530 Y-12.1387
G01 X-24.9586 Y-11.9391
G01 X-24.8451 Y-11.7497
G01 X-24.7136 Y-11.5723
G01 X-24.5653 Y-11.4087
G01 X-24.4017 Y-11.2604
G01 X-24.2243 Y-11.1289
G01 X-24.0349 Y-11.0154
G01 X-23.8353 Y-10.9210
G01 X-23.6274 Y-10.8466
G01 X-23.4133 Y-10.7930
G01 X-23.1948 Y-10.7606
G01 X-22.9743 Y-10.7497
G01 X-22.7538 Y-10.7606
G01 X-22.5353 Y-10.7930
G01 X-22.3212 Y-10.8466
G01 X-22.2163 Y-10.8812
G01 X-22.0123 Y-10.9657
G01 X-21.8176 Y-11.0698
G01 X-21.6340 Y-11.1925
G01 X-21.5469 Y-11.2604
G01 X-21.4633 Y-11.3326
G01 X-21.3072 Y-11.4887
G01 X-21.1671 Y-11.6594
G01 X-21.0444 Y-11.8430
G01 X-20.9403 Y-12.0377
G01 X-20.8956 Y-12.1387
G01 X-20.8212 Y-12.3466
G01 X-20.7675 Y-12.5608
G01 X-20.7351 Y-12.7792
G01 X-20.7243 Y-12.9997
G01 X-21.6243 Y-12.9997
G01 X-21.6308 Y-13.1320
G01 X-21.6502 Y-13.2631
G01 X-21.7032 Y-13.4545
G01 X-21.7539 Y-13.5769
G01 X-21.8164 Y-13.6938
G01 X-21.9307 Y-13.8562
G01 X-22.0197 Y-13.9543
G01 X-22.1179 Y-14.0433
G01 X-22.2243 Y-14.1222
G01 X-22.3379 Y-14.1903
G01 X-22.4577 Y-14.2470
G01 X-22.5824 Y-14.2916
G01 X-22.7762 Y-14.3351
G01 X-22.9081 Y-14.3481
G01 X-23.0405 Y-14.3481
G01 X-23.1724 Y-14.3351
G01 X-23.3662 Y-14.2916
G01 X-23.4909 Y-14.2470
G01 X-23.6107 Y-14.1903
G01 X-23.7785 Y-14.0841
G01 X-23.8809 Y-14.0000
G01 X-23.9746 Y-13.9063
G01 X-24.0586 Y-13.8039
G01 X-24.1322 Y-13.6938
G01 X-24.1947 Y-13.5769
G01 X-24.2454 Y-13.4545
G01 X-24.2838 Y-13.3277
G01 X-24.3178 Y-13.1320
G01 X-24.3243 Y-12.9997
G01 X-24.3178 Y-12.8674
G01 X-24.2984 Y-12.7363
G01 X-24.2662 Y-12.6078
G01 X-24.2215 Y-12.4831
G01 X-24.1649 Y-12.3633
G01 X-24.0968 Y-12.2497
G01 X-24.0179 Y-12.1433
G01 X-23.9289 Y-12.0451
G01 X-23.8307 Y-11.9562
G01 X-23.7243 Y-11.8772
G01 X-23.6107 Y-11.8091
G01 X-23.4909 Y-11.7525
G01 X-23.3662 Y-11.7079
G01 X-23.2377 Y-11.6757
G01 X-23.1066 Y-11.6562
G01 X-22.9743 Y-11.6497
G01 X-22.7762 Y-11.6643
G01 X-22.6463 Y-11.6902
G01 X-22.5195 Y-11.7286
G01 X-22.3379 Y-11.8091
G01 X-22.1701 Y-11.9154
G01 X-22.0197 Y-12.0451
G01 X-21.8900 Y-12.1955
G01 X-21.7837 Y-12.3633
G01 X-21.7032 Y-12.5449
G01 X-21.6502 Y-12.7363
G01 X-21.6308 Y-12.8674
G01 X-21.6243 Y-12.9997
G01 X-22.5243 Y-12.9997
G01 X-22.5329 Y-13.0875
G01 X-22.5506 Y-13.1513
G01 X-22.5774 Y-13.2118
G01 X-22.6264 Y-13.2852
G01 X-22.6721 Y-13.3331
G01 X-22.7430 Y-13.3857
G01 X-22.8650 Y-13.4362
G01 X-22.9522 Y-13.4492
G01 X-23.0621 Y-13.4411
G01 X-23.1465 Y-13.4155
G01 X-23.2424 Y-13.3612
G01 X-23.3222 Y-13.2852
G01 X-23.3811 Y-13.1921
G01 X-23.4157 Y-13.0875
G01 X-23.4243 Y-12.9997
G01 X-23.4157 Y-12.9119
G01 X-23.3900 Y-12.8275
G01 X-23.3485 Y-12.7497
G01 X-23.2925 Y-12.6815
G01 X-23.2243 Y-12.6256
G01 X-23.1465 Y-12.5840
G01 X-23.0621 Y-12.5584
G01 X-22.9743 Y-12.5497
G01 X-22.8865 Y-12.5584
G01 X-22.8021 Y-12.5840
G01 X-22.7243 Y-12.6256
G01 X-22.6561 Y-12.6815
G01 X-22.6001 Y-12.7497
G01 X-22.5586 Y-12.8275
G01 X-22.5329 Y-12.9119
G01 X-22.5243 Y-12.9997
G00 Z2.0000
G00 X-50.2744 Y-12.9997
G01 F60.00
G01 Z-0.5000
G01 F120.00
G01 X-50.2874 Y-13.2643
G01 X-50.3263 Y-13.5264
G01 X-50.3907 Y-13.7834
G01 X-50.4800 Y-14.0329
G01 X-50.5932 Y-14.2724
G01 X-50.7294 Y-14.4996
G01 X-50.8873 Y-14.7125
G01 X-51.0652 Y-14.9088
G01 X-51.2615 Y-15.0867
G01 X-51.4743 Y-15.2445
G01 X-51.7016 Y-15.3807
G01 X-51.9411 Y-15.4940
G01 X-52.1905 Y-15.5833
G01 X-52.4475 Y-15.6476
G01 X-52.7096 Y-15.6865
G01 X-52.9742 Y-15.6995
G01 X-53.2389 Y-15.6865
G01 X-53.5009 Y-15.6476
G01 X-53.7579 Y-15.5833
G01 X-54.0074 Y-15.4940
G01 X-54.2469 Y-15.3807
G01 X-54.4742 Y-15.2445
G01 X-54.6870 Y-15.0867
G01 X-54.8833 Y-14.9088
G01 X-55.0612 Y-14.7125
G01 X-55.2190 Y-14.4996
G01 X-55.3552 Y-14.2724
G01 X-55.4685 Y-14.0329
G01 X-55.5578 Y-13.7834
G01 X-55.6222 Y-13.5264
G01 X-55.6610 Y-13.2643
G01 X-55.6740 Y-12.9997
G01 X-55.6610 Y-12.7351
G01 X-55.6222 Y-12.4730
G01 X-55.5578 Y-12.2160
G01 X-55.4685 Y-11.9666
G01 X-55.3552 Y-11.7270
G01 X-55.2190 Y-11.4998
G01 X-55.0612 Y-11.2870
G01 X-54.8833 Y-11.0907
G01 X-54.6870 Y-10.9127
G01 X-54.4742 Y-10.7549
G01 X-54.2469 Y-10.6187
G01 X-54.0074 Y-10.5054
G01 X-53.7579 Y-10.4162
G01 X-53.5009 Y-10.3518
G01 X-53.2389 Y-10.3129
G01 X-52.9742 Y-10.2999
G01 X-52.7096 Y-10.3129
G01 X-52.4475 Y-10.3518
G01 X-52.1905 Y-10.4162
G01 X-51.9411 Y-10.5054
G01 X-51.7016 Y-10.6187
G01 X-51.4743 Y-10.7549
G01 X-51.2615 Y-10.9127
G01 X-51.0652 Y-11.0907
G01 X-50.8873 Y-11.2870
G01 X-50.7294 Y-11.4998
G01 X-50.5932 Y-11.7270
G01 X-50.4800 Y-11.9666
G01 X-50.3907 Y-12.2160
G01 X-50.3263 Y-12.4730
G01 X-50.2874 Y-12.7351
G01 X-50.2744 Y-12.9997
G00 X-50.2744 Y-12.9997
G01 F60.00
G01 Z-1.0000
G01 F120.00
G01 X-50.2874 Y-12.7351
G01 X-50.3263 Y-12.4730
G01 X-50.3907 Y-12.2160
G01 X-50.4800 Y-11.9666
G01 X-50.5932 Y-11.7270
G01 X-50.7294 Y-11.4998
G01 X-50.8873 Y-11.2870
G01 X-51.0652 Y-11.0907
G01 X-51.2615 Y-10.9127
G01 X-51.4743 Y-10.7549
G01 X-51.7016 Y-10.6187
G01 X-51.9411 Y-10.5054
G01 X-52.1905 Y-10.4162
G01 X-52.4475 Y-10.3518
G01 X-52.7096 Y-10.3129
G01 X-52.9742 Y-10.2999
G01 X-53.2389 Y-10.3129
G01 X-53.5009 Y-10.3518
G01 X-53.7579 Y-10.4162
G01 X-54.0074 Y-10.5054
G01 X-54.2469 Y-10.6187
G01 X-54.4742 Y-10.7549
G01 X-54.6870 Y-10.9127
G01 X-54.8833 Y-11.0907
G01 X-55.0612 Y-11.2870
G01 X-55.2190 Y-11.4998
G01 X-55.3552 Y-11.7270
G01 X-55.4685 Y-11.9666
G01 X-55.5578 Y-12.2160
G01 X-55.6222 Y-12.4730
G01 X-55.6610 Y-12.7351
G01 X-55.6740 Y-12.9997
G01 X-55.6610 Y-13.2643
G01 X-55.6222 Y-13.5264
G01 X-55.5578 Y-13.7834
G01 X-55.4685 Y-14.0329
G01 X-55.3552 Y-14.2724
G01 X-55.2190 Y-14.4996
G01 X-55.0612 Y-14.7125
G01 X-54.8833 Y-14.9088
G01 X-54.6870 Y-15.0867
G01 X-54.4742 Y-15.2445
G01 X-54.2469 Y-15.3807
G01 X-54.0074 Y-15.4940
G01 X-53.7579 Y-15.5833
G01 X-53.5009 Y-15.6476
G01 X-53.2389 Y-15.6865
G01 X-52.9742 Y-15.6995
G01 X-52.7096 Y-15.6865
G01 X-52.4475 Y-15.6476
G01 X-52.1905 Y-15.5833
G01 X-51.9411 Y-15.4940
G01 X-51.7016 Y-15.3807
G01 X-51.4743 Y-15.2445
G01 X-51.2615 Y-15.0867
G01 X-51.0652 Y-14.9088
G01 X-50.8873 Y-14.7125
G01 X-50.7294 Y-14.4996
G01 X-50.5932 Y-14.2724
G01 X-50.4800 Y-14.0329
G01 X-50.3907 Y-13.7834
G01 X-50.3263 Y-13.5264
G01 X-50.2874 Y-13.2643
G01 X-50.2744 Y-12.9997
G00 X-50.2744 Y-12.9997
G01 F60.00
G01 Z-1.5000
G01 F120.00
G01 X-50.2874 Y-13.2643
G01 X-50.3263 Y-13.5264
G01 X-50.3907 Y-13.7834
G01 X-50.4800 Y-14.0329
G01 X-50.5932 Y-14.2724
G01 X-50.7294 Y-14.4996
G01 X-50.8873 Y-14.7125
G01 X-51.0652 Y-14.9088
G01 X-51.2615 Y-15.0867
G01 X-51.4743 Y-15.2445
G01 X-51.7016 Y-15.3807
G01 X-51.9411 Y-15.4940
G01 X-52.1905 Y-15.5833
G01 X-52.4475 Y-15.6476
G01 X-52.7096 Y-15.6865
G01 X-52.9742 Y-15.6995
G01 X-53.2389 Y-15.6865
G01 X-53.5009 Y-15.6476
G01 X-53.7579 Y-15.5833
G01 X-54.0074 Y-15.4940
G01 X-54.2469 Y-15.3807
G01 X-54.4742 Y-15.2445
G01 X-54.6870 Y-15.0867
G01 X-54.8833 Y-14.9088
G01 X-55.0612 Y-14.7125
G01 X-55.2190 Y-14.4996
G01 X-55.3552 Y-14.2724
G01 X-55.4685 Y-14.0329
G01 X-55.5578 Y-13.7834
G01 X-55.6222 Y-13.5264
G01 X-55.6610 Y-13.2643
G01 X-55.6740 Y-12.9997
G01 X-55.6610 Y-12.7351
G01 X-55.6222 Y-12.4730
G01 X-55.5578 Y-12.2160
G01 X-55.4685 Y-11.9666
G01 X-55.3552 Y-11.7270
G01 X-55.2190 Y-11.4998
G01 X-55.0612 Y-11.2870
G01 X-54.8833 Y-11.0907
G01 X-54.6870 Y-10.9127
G01 X-54.4742 Y-10.7549
G01 X-54.2469 Y-10.6187
G01 X-54.0074 Y-10.5054
G01 X-53.7579 Y-10.4162
G01 X-53.5009 Y-10.3518
G01 X-53.2389 Y-10.3129
G01 X-52.9742 Y-10.2999
G01 X-52.7096 Y-10.3129
G01 X-52.4475 Y-10.3518
G01 X-52.1905 Y-10.4162
G01 X-51.9411 Y-10.5054
G01 X-51.7016 Y-10.6187
G01 X-51.4743 Y-10.7549
G01 X-51.2615 Y-10.9127
G01 X-51.0652 Y-11.0907
G01 X-50.8873 Y-11.2870
G01 X-50.7294 Y-11.4998
G01 X-50.5932 Y-11.7270
G01 X-50.4800 Y-11.9666
G01 X-50.3907 Y-12.2160
G01 X-50.3263 Y-12.4730
G01 X-50.2874 Y-12.7351
G01 X-50.2744 Y-12.9997
G00 X-50.2744 Y-12.9997
G01 F60.00
G01 Z-2.0000
G01 F120.00
G01 X-50.2874 Y-12.7351
G01 X-50.3263 Y-12.4730
G01 X-50.3907 Y-12.2160
G01 X-50.4800 Y-11.9666
G01 X-50.5932 Y-11.7270
G01 X-50.7294 Y-11.4998
G01 X-50.8873 Y-11.2870
G01 X-51.0652 Y-11.0907
G01 X-51.2615 Y-10.9127
G01 X-51.4743 Y-10.7549
G01 X-51.7016 Y-10.6187
G01 X-51.9411 Y-10.5054
G01 X-52.1905 Y-10.4162
G01 X-52.4475 Y-10.3518
G01 X-52.7096 Y-10.3129
G01 X-52.9742 Y-10.2999
G01 X-53.2389 Y-10.3129
G01 X-53.5009 Y-10.3518
G01 X-53.7579 Y-10.4162
G01 X-54.0074 Y-10.5054
G01 X-54.2469 Y-10.6187
G01 X-54.4742 Y-10.7549
G01 X-54.6870 Y-10.9127
G01 X-54.8833 Y-11.0907
G01 X-55.0612 Y-11.2870
G01 X-55.2190 Y-11.4998
G01 X-55.3552 Y-11.7270
G01 X-55.4685 Y-11.9666
G01 X-55.5578 Y-12.2160
G01 X-55.6222 Y-12.4730
G01 X-55.6610 Y-12.7351
G01 X-55.6740 Y-12.9997
G01 X-55.6610 Y-13.2643
G01 X-55.6222 Y-13.5264
G01 X-55.5578 Y-13.7834
G01 X-55.4685 Y-14.0329
G01 X-55.3552 Y-14.2724
G01 X-55.2190 Y-14.4996
G01 X-55.0612 Y-14.7125
G01 X-54.8833 Y-14.9088
G01 X-54.6870 Y-15.0867
G01 X-54.4742 Y-15.2445
G01 X-54.2469 Y-15.3807
G01 X-54.0074 Y-15.4940
G01 X-53.7579 Y-15.5833
G01 X-53.5009 Y-15.6476
G01 X-53.2389 Y-15.6865
G01 X-52.9742 Y-15.6995
G01 X-52.7096 Y-15.6865
G01 X-52.4475 Y-15.6476
G01 X-52.1905 Y-15.5833
G01 X-51.9411 Y-15.4940
G01 X-51.7016 Y-15.3807
G01 X-51.4743 Y-15.2445
G01 X-51.2615 Y-15.0867
G01 X-51.0652 Y-14.9088
G01 X-50.8873 Y-14.7125
G01 X-50.7294 Y-14.4996
G01 X-50.5932 Y-14.2724
G01 X-50.4800 Y-14.0329
G01 X-50.3907 Y-13.7834
G01 X-50.3263 Y-13.5264
G01 X-50.2874 Y-13.2643
G01 X-50.2744 Y-12.9997
G00 X-50.2744 Y-12.9997
G01 F60.00
G01 Z-2.5000
G01 F120.00
G01 X-50.2874 Y-13.2643
G01 X-50.3263 Y-13.5264
G01 X-50.3907 Y-13.7834
G01 X-50.4800 Y-14.0329
G01 X-50.5932 Y-14.2724
G01 X-50.7294 Y-14.4996
G01 X-50.8873 Y-14.7125
G01 X-51.0652 Y-14.9088
G01 X-51.2615 Y-15.0867
G01 X-51.4743 Y-15.2445
G01 X-51.7016 Y-15.3807
G01 X-51.9411 Y-15.4940
G01 X-52.1905 Y-15.5833
G01 X-52.4475 Y-15.6476
G01 X-52.7096 Y-15.6865
G01 X-52.9742 Y-15.6995
G01 X-53.2389 Y-15.6865
G01 X-53.5009 Y-15.6476
G01 X-53.7579 Y-15.5833
G01 X-54.0074 Y-15.4940
G01 X-54.2469 Y-15.3807
G01 X-54.4742 Y-15.2445
G01 X-54.6870 Y-15.0867
G01 X-54.8833 Y-14.9088
G01 X-55.0612 Y-14.7125
G01 X-55.2190 Y-14.4996
G01 X-55.3552 Y-14.2724
G01 X-55.4685 Y-14.0329
G01 X-55.5578 Y-13.7834
G01 X-55.6222 Y-13.5264
G01 X-55.6610 Y-13.2643
G01 X-55.6740 Y-12.9997
G01 X-55.6610 Y-12.7351
G01 X-55.6222 Y-12.4730
G01 X-55.5578 Y-12.2160
G01 X-55.4685 Y-11.9666
G01 X-55.3552 Y-11.7270
G01 X-55.2190 Y-11.4998
G01 X-55.0612 Y-11.2870
G01 X-54.8833 Y-11.0907
G01 X-54.6870 Y-10.9127
G01 X-54.4742 Y-10.7549
G01 X-54.2469 Y-10.6187
G01 X-54.0074 Y-10.5054
G01 X-53.7579 Y-10.4162
G01 X-53.5009 Y-10.3518
G01 X-53.2389 Y-10.3129
G01 X-52.9742 Y-10.2999
G01 X-52.7096 Y-10.3129
G01 X-52.4475 Y-10.3518
G01 X-52.1905 Y-10.4162
G01 X-51.9411 Y-10.5054
G01 X-51.7016 Y-10.6187
G01 X-51.4743 Y-10.7549
G01 X-51.2615 Y-10.9127
G01 X-51.0652 Y-11.0907
G01 X-50.8873 Y-11.2870
G01 X-50.7294 Y-11.4998
G01 X-50.5932 Y-11.7270
G01 X-50.4800 Y-11.9666
G01 X-50.3907 Y-12.2160
G01 X-50.3263 Y-12.4730
G01 X-50.2874 Y-12.7351
G01 X-50.2744 Y-12.9997
G00 Z2.0000
G00 X-50.7242 Y-12.9997
G01 F60.00
G01 Z-0.5000
G01 F120.00
G01 X-50.7351 Y-13.2203
G01 X-50.7675 Y-13.4387
G01 X-50.8211 Y-13.6529
G01 X-50.8955 Y-13.8608
G01 X-50.9899 Y-14.0604
G01 X-51.1034 Y-14.2498
G01 X-51.2350 Y-14.4271
G01 X-51.3832 Y-14.5907
G01 X-51.5469 Y-14.7390
G01 X-51.7242 Y-14.8705
G01 X-51.9136 Y-14.9840
G01 X-52.1132 Y-15.0784
G01 X-52.3211 Y-15.1528
G01 X-52.5353 Y-15.2065
G01 X-52.7537 Y-15.2389
G01 X-52.9742 Y-15.2497
G01 X-53.1948 Y-15.2389
G01 X-53.4132 Y-15.2065
G01 X-53.6274 Y-15.1528
G01 X-53.8353 Y-15.0784
G01 X-54.0349 Y-14.9840
G01 X-54.2243 Y-14.8705
G01 X-54.4016 Y-14.7390
G01 X-54.5652 Y-14.5907
G01 X-54.7135 Y-14.4271
G01 X-54.8450 Y-14.2498
G01 X-54.9586 Y-14.0604
G01 X-55.0530 Y-13.8608
G01 X-55.1274 Y-13.6529
G01 X-55.1810 Y-13.4387
G01 X-55.2134 Y-13.2203
G01 X-55.2242 Y-12.9997
G01 X-55.2134 Y-12.7792
G01 X-55.1810 Y-12.5608
G01 X-55.1274 Y-12.3466
G01 X-55.0530 Y-12.1387
G01 X-54.9586 Y-11.9391
G01 X-54.8450 Y-11.7497
G01 X-54.7135 Y-11.5723
G01 X-54.5652 Y-11.4087
G01 X-54.4016 Y-11.2604
G01 X-54.2243 Y-11.1289
G01 X-54.0349 Y-11.0154
G01 X-53.8353 Y-10.9210
G01 X-53.6274 Y-10.8466
G01 X-53.4132 Y-10.7930
G01 X-53.1948 Y-10.7606
G01 X-52.9742 Y-10.7497
G01 X-52.7537 Y-10.7606
G01 X-52.5353 Y-10.7930
G01 X-52.3211 Y-10.8466
G01 X-52.2162 Y-10.8812
G01 X-52.1132 Y-10.9210
G01 X-51.9136 Y-11.0154
G01 X-51.7242 Y-11.1289
G01 X-51.5469 Y-11.2604
G01 X-51.3832 Y-11.4087
G01 X-51.2350 Y-11.5723
G01 X-51.1034 Y-11.7497
G01 X-51.0444 Y-11.8430
G01 X-50.9403 Y-12.0377
G01 X-50.8558 Y-12.2417
G01 X-50.7917 Y-12.4530
G01 X-50.7675 Y-12.5608
G01 X-50.7351 Y-12.7792
G01 X-50.7242 Y-12.9997
G01 X-51.6242 Y-12.9997
G01 X-51.6307 Y-13.1320
G01 X-51.6502 Y-13.2631
G01 X-51.6824 Y-13.3916
G01 X-51.7270 Y-13.5163
G01 X-51.8163 Y-13.6938
G01 X-51.8899 Y-13.8039
G01 X-51.9740 Y-13.9063
G01 X-52.0676 Y-14.0000
G01 X-52.1700 Y-14.0841
G01 X-52.3379 Y-14.1903
G01 X-52.4576 Y-14.2470
G01 X-52.5824 Y-14.2916
G01 X-52.7762 Y-14.3351
G01 X-52.9080 Y-14.3481
G01 X-53.0405 Y-14.3481
G01 X-53.1723 Y-14.3351
G01 X-53.3661 Y-14.2916
G01 X-53.5514 Y-14.2201
G01 X-53.6683 Y-14.1577
G01 X-53.7784 Y-14.0841
G01 X-53.8808 Y-14.0000
G01 X-53.9745 Y-13.9063
G01 X-54.0586 Y-13.8039
G01 X-54.1322 Y-13.6938
G01 X-54.2215 Y-13.5163
G01 X-54.2661 Y-13.3916
G01 X-54.2983 Y-13.2631
G01 X-54.3177 Y-13.1320
G01 X-54.3242 Y-12.9997
G01 X-54.3177 Y-12.8674
G01 X-54.2983 Y-12.7363
G01 X-54.2661 Y-12.6078
G01 X-54.2215 Y-12.4831
G01 X-54.1648 Y-12.3633
G01 X-54.0967 Y-12.2497
G01 X-54.0178 Y-12.1433
G01 X-53.9288 Y-12.0451
G01 X-53.8307 Y-11.9562
G01 X-53.7243 Y-11.8772
G01 X-53.6106 Y-11.8091
G01 X-53.4909 Y-11.7525
G01 X-53.3661 Y-11.7079
G01 X-53.2376 Y-11.6757
G01 X-53.1066 Y-11.6562
G01 X-52.9742 Y-11.6497
G01 X-52.7762 Y-11.6643
G01 X-52.6462 Y-11.6902
G01 X-52.5194 Y-11.7286
G01 X-52.3379 Y-11.8091
G01 X-52.1700 Y-11.9154
G01 X-52.0196 Y-12.0451
G01 X-51.8899 Y-12.1955
G01 X-51.7836 Y-12.3633
G01 X-51.7032 Y-12.5449
G01 X-51.6647 Y-12.6717
G01 X-51.6389 Y-12.8016
G01 X-51.6242 Y-12.9997
G01 X-52.5242 Y-12.9997
G01 X-52.5291 Y-13.0657
G01 X-52.5505 Y-13.1513
G01 X-52.6128 Y-13.2678
G01 X-52.6560 Y-13.3179
G01 X-52.7242 Y-13.3739
G01 X-52.8020 Y-13.4155
G01 X-52.8649 Y-13.4362
G01 X-52.9522 Y-13.4492
G01 X-53.0620 Y-13.4411
G01 X-53.1666 Y-13.4065
G01 X-53.2597 Y-13.3476
G01 X-53.3357 Y-13.2678
G01 X-53.3810 Y-13.1921
G01 X-53.4156 Y-13.0875
G01 X-53.4242 Y-12.9997
G01 X-53.4156 Y-12.9119
G01 X-53.3900 Y-12.8275
G01 X-53.3484 Y-12.7497
G01 X-53.2924 Y-12.6815
G01 X-53.2242 Y-12.6256
G01 X-53.1464 Y-12.5840
G01 X-53.0620 Y-12.5584
G01 X-52.9742 Y-12.5497
G01 X-52.8864 Y-12.5584
G01 X-52.8020 Y-12.5840
G01 X-52.7242 Y-12.6256
G01 X-52.6560 Y-12.6815
G01 X-52.6001 Y-12.7497
G01 X-52.5585 Y-12.8275
G01 X-52.5329 Y-12.9119
G01 X-52.5242 Y-12.9997
G00 X-52.5242 Y-12.9997
G01 F60.00
G01 Z-1.0000
G01 F120.00
G01 X-52.5329 Y-12.9119
G01 X-52.5585 Y-12.8275
G01 X-52.6001 Y-12.7497
G01 X-52.6560 Y-12.6815
G01 X-52.7242 Y-12.6256
G01 X-52.8020 Y-12.5840
G01 X-52.8864 Y-12.5584
G01 X-52.9742 Y-12.5497
G01 X-53.0620 Y-12.5584
G01 X-53.1464 Y-12.5840
G01 X-53.2242 Y-12.6256
G01 X-53.2924 Y-12.6815
G01 X-53.3484 Y-12.7497
G01 X-53.3900 Y-12.8275
G01 X-53.4156 Y-12.9119
G01 X-53.4242 Y-12.9997
G01 X-53.4156 Y-13.0875
G01 X-53.3810 Y-13.1921
G01 X-53.3357 Y-13.2678
G01 X-53.2597 Y-13.3476
G01 X-53.1666 Y-13.4065
G01 X-53.0620 Y-13.4411
G01 X-52.9522 Y-13.4492
G01 X-52.8649 Y-13.4362
G01 X-52.8020 Y-13.4155
G01 X-52.7242 Y-13.3739
G01 X-52.6560 Y-13.3179
G01 X-52.6128 Y-13.2678
G01 X-52.5505 Y-13.1513
G01 X-52.5291 Y-13.0657
G01 X-52.5242 Y-12.9997
G01 X-51.6242 Y-12.9997
G01 X-51.6389 Y-12.8016
G01 X-51.6647 Y-12.6717
G01 X-51.7032 Y-12.5449
G01 X-51.7836 Y-12.3633
G01 X-51.8899 Y-12.1955
G01 X-52.0196 Y-12.0451
G01 X-52.1700 Y-11.9154
G01 X-52.3379 Y-11.8091
G01 X-52.5194 Y-11.7286
G01 X-52.6462 Y-11.6902
G01 X-52.7762 Y-11.6643
G01 X-52.9742 Y-11.6497
G01 X-53.1066 Y-11.6562
G01 X-53.2376 Y-11.6757
G01 X-53.3661 Y-11.7079
G01 X-53.4909 Y-11.7525
G01 X-53.6106 Y-11.8091
G01 X-53.7243 Y-11.8772
G01 X-53.8307 Y-11.9562
G01 X-53.9288 Y-12.0451
G01 X-54.0178 Y-12.1433
G01 X-54.0967 Y-12.2497
G01 X-54.1648 Y-12.3633
G01 X-54.2215 Y-12.4831
G01 X-54.2661 Y-12.6078
G01 X-54.2983 Y-12.7363
G01 X-54.3177 Y-12.8674
G01 X-54.3242 Y-12.9997
G01 X-54.3177 Y-13.1320
G01 X-54.2983 Y-13.2631
G01 X-54.2661 Y-13.3916
G01 X-54.2215 Y-13.5163
G01 X-54.1648 Y-13.6361
G01 X-54.0967 Y-13.7497
G01 X-54.0178 Y-13.8562
G01 X-53.8808 Y-14.0000
G01 X-53.7784 Y-14.0841
G01 X-53.6683 Y-14.1577
G01 X-53.5514 Y-14.2201
G01 X-53.3661 Y-14.2916
G01 X-53.1723 Y-14.3351
G01 X-53.0405 Y-14.3481
G01 X-52.9080 Y-14.3481
G01 X-52.7762 Y-14.3351
G01 X-52.5824 Y-14.2916
G01 X-52.4576 Y-14.2470
G01 X-52.3379 Y-14.1903
G01 X-52.1700 Y-14.0841
G01 X-52.0676 Y-14.0000
G01 X-51.9740 Y-13.9063
G01 X-51.8899 Y-13.8039
G01 X-51.8163 Y-13.6938
G01 X-51.7270 Y-13.5163
G01 X-51.6824 Y-13.3916
G01 X-51.6502 Y-13.2631
G01 X-51.6307 Y-13.1320
G01 X-51.6242 Y-12.9997
G01 X-50.7242 Y-12.9997
G01 X-50.7351 Y-12.7792
G01 X-50.7675 Y-12.5608
G01 X-50.7917 Y-12.4530
G01 X-50.8558 Y-12.2417
G01 X-50.9403 Y-12.0377
G01 X-51.0444 Y-11.8430
G01 X-51.1034 Y-11.7497
G01 X-51.2350 Y-11.5723
G01 X-51.3832 Y-11.4087
G01 X-51.5469 Y-11.2604
G01 X-51.7242 Y-11.1289
G01 X-51.9136 Y-11.0154
G01 X-52.1132 Y-10.9210
G01 X-52.2162 Y-10.8812
G01 X-52.3211 Y-10.8466
G01 X-52.5353 Y-10.7930
G01 X-52.7537 Y-10.7606
G01 X-52.9742 Y-10.7497
G01 X-53.1948 Y-10.7606
G01 X-53.4132 Y-10.7930
G01 X-53.6274 Y-10.8466
G01 X-53.8353 Y-10.9210
G01 X-54.0349 Y-11.0154
G01 X-54.2243 Y-11.1289
G01 X-54.4016 Y-11.2604
G01 X-54.5652 Y-11.4087
G01 X-54.7135 Y-11.5723
G01 X-54.8450 Y-11.7497
G01 X-54.9586 Y-11.9391
G01 X-55.0530 Y-12.1387
G01 X-55.1274 Y-12.3466
G01 X-55.1810 Y-12.5608
G01 X-55.2134 Y-12.7792
G01 X-55.2242 Y-12.9997
G01 X-55.2134 Y-13.2203
G01 X-55.1810 Y-13.4387
G01 X-55.1274 Y-13.6529
G01 X-55.0530 Y-13.8608
G01 X-54.9586 Y-14.0604
G01 X-54.8450 Y-14.2498
G01 X-54.7135 Y-14.4271
G01 X-54.5652 Y-14.5907
G01 X-54.4016 Y-14.7390
G01 X-54.2243 Y-14.8705
G01 X-54.0349 Y-14.9840
G01 X-53.8353 Y-15.0784
G01 X-53.6274 Y-15.1528
G01 X-53.4132 Y-15.2065
G01 X-53.1948 Y-15.2389
G01 X-52.9742 Y-15.2497
G01 X-52.7537 Y-15.2389
G01 X-52.5353 Y-15.2065
G01 X-52.3211 Y-15.1528
G01 X-52.1132 Y-15.0784
G01 X-51.9136 Y-14.9840
G01 X-51.7242 Y-14.8705
G01 X-51.5469 Y-14.7390
G01 X-51.3832 Y-14.5907
G01 X-51.2350 Y-14.4271
G01 X-51.1034 Y-14.2498
G01 X-50.9899 Y-14.0604
G01 X-50.8955 Y-13.8608
G01 X-50.8211 Y-13.6529
G01 X-50.7675 Y-13.4387
G01 X-50.7351 Y-13.2203
G01 X-50.7242 Y-12.9997
G00 X-50.7242 Y-12.9997
G01 F60.00
G01 Z-1.5000
G01 F120.00
G01 X-50.7351 Y-13.2203
G01 X-50.7675 Y-13.4387
G01 X-50.8211 Y-13.6529
G01 X-50.8955 Y-13.8608
G01 X-50.9899 Y-14.0604
G01 X-51.1034 Y-14.2498
G01 X-51.2350 Y-14.4271
G01 X-51.3832 Y-14.5907
G01 X-51.5469 Y-14.7390
G01 X-51.7242 Y-14.8705
G01 X-51.9136 Y-14.9840
G01 X-52.1132 Y-15.0784
G01 X-52.3211 Y-15.1528
G01 X-52.5353 Y-15.2065
G01 X-52.7537 Y-15.2389
G01 X-52.9742 Y-15.2497
G01 X-53.1948 Y-15.2389
G01 X-53.4132 Y-15.2065
G01 X-53.6274 Y-15.1528
G01 X-53.8353 Y-15.0784
G01 X-54.0349 Y-14.9840
G01 X-54.2243 Y-14.8705
G01 X-54.4016 Y-14.7390
G01 X-54.5652 Y-14.5907
G01 X-54.7135 Y-14.4271
G01 X-54.8450 Y-14.2498
G01 X-54.9586 Y-14.0604
G01 X-55.0530 Y-13.8608
G01 X-55.1274 Y-13.6529
G01 X-55.1810 Y-13.4387
G01 X-55.2134 Y-13.2203
G01 X-55.2242 Y-12.9997
G01 X-55.2134 Y-12.7792
G01 X-55.1810 Y-12.5608
G01 X-55.1274 Y-12.3466
G01 X-55.0530 Y-12.1387
G01 X-54.9586 Y-11.9391
G01 X-54.8450 Y-11.7497
G01 X-54.7135 Y-11.5723
G01 X-54.5652 Y-11.4087
G01 X-54.4016 Y-11.2604
G01 X-54.2243 Y-11.1289
G01 X-54.0349 Y-11.0154
G01 X-53.8353 Y-10.9210
G01 X-53.6274 Y-10.8466
G01 X-53.4132 Y-10.7930
G01 X-53.1948 Y-10.7606
G01 X-52.9742 Y-10.7497
G01 X-52.7537 Y-10.7606
G01 X-52.5353 Y-10.7930
G01 X-52.3211 Y-10.8466
G01 X-52.2162 Y-10.8812
G01 X-52.1132 Y-10.9210
G01 X-51.9136 Y-11.0154
G01 X-51.7242 Y-11.1289
G01 X-51.5469 Y-11.2604
G01 X-51.3832 Y-11.4087
G01 X-51.2350 Y-11.5723
G01 X-51.1034 Y-11.7497
G01 X-51.0444 Y-11.8430
G01 X-50.9403 Y-12.0377
G01 X-50.8558 Y-12.2417
G01 X-50.7917 Y-12.4530
G01 X-50.7675 Y-12.5608
G01 X-50.7351 Y-12.7792
G01 X-50.7242 Y-12.9997
G01 X-51.6242 Y-12.9997
G01 X-51.6307 Y-13.1320
G01 X-51.6502 Y-13.2631
G01 X-51.6824 Y-13.3916
G01 X-51.7270 Y-13.5163
G01 X-51.8163 Y-13.6938
G01 X-51.8899 Y-13.8039
G01 X-51.9740 Y-13.9063
G01 X-52.0676 Y-14.0000
G01 X-52.1700 Y-14.0841
G01 X-52.3379 Y-14.1903
G01 X-52.4576 Y-14.2470
G01 X-52.5824 Y-14.2916
G01 X-52.7762 Y-14.3351
G01 X-52.9080 Y-14.3481
G01 X-53.0405 Y-14.3481
G01 X-53.1723 Y-14.3351
G01 X-53.3661 Y-14.2916
G01 X-53.5514 Y-14.2201
G01 X-53.6683 Y-14.1577
G01 X-53.7784 Y-14.0841
G01 X-53.8808 Y-14.0000
G01 X-53.9745 Y-13.9063
G01 X-54.0586 Y-13.8039
G01 X-54.1322 Y-13.6938
G01 X-54.2215 Y-13.5163
G01 X-54.2661 Y-13.3916
G01 X-54.2983 Y-13.2631
G01 X-54.3177 Y-13.1320
G01 X-54.3242 Y-12.9997
G01 X-54.3177 Y-12.8674
G01 X-54.2983 Y-12.7363
G01 X-54.2661 Y-12.6078
G01 X-54.2215 Y-12.4831
G01 X-54.1648 Y-12.3633
G01 X-54.0967 Y-12.2497
G01 X-54.0178 Y-12.1433
G01 X-53.9288 Y-12.0451
G01 X-53.8307 Y-11.9562
G01 X-53.7243 Y-11.8772
G01 X-53.6106 Y-11.8091
G01 X-53.4909 Y-11.7525
G01 X-53.3661 Y-11.7079
G01 X-53.2376 Y-11.6757
G01 X-53.1066 Y-11.6562
G01 X-52.9742 Y-11.6497
G01 X-52.7762 Y-11.6643
G01 X-52.6462 Y-11.6902
G01 X-52.5194 Y-11.7286
G01 X-52.3379 Y-11.8091
G01 X-52.1700 Y-11.9154
G01 X-52.0196 Y-12.0451
G01 X-51.8899 Y-12.1955
G01 X-51.7836 Y-12.3633
G01 X-51.7032 Y-12.5449
G01 X-51.6647 Y-12.6717
G01 X-51.6389 Y-12.8016
G01 X-51.6242 Y-12.9997
G01 X-52.5242 Y-12.9997
G01 X-52.5291 Y-13.0657
G01 X-52.5505 Y-13.1513
G01 X-52.6128 Y-13.2678
G01 X-52.6560 Y-13.3179
G01 X-52.7242 Y-13.3739
G01 X-52.8020 Y-13.4155
G01 X-52.8649 Y-13.4362
G01 X-52.9522 Y-13.4492
G01 X-53.0620 Y-13.4411
G01 X-53.1666 Y-13.4065
G01 X-53.2597 Y-13.3476
G01 X-53.3357 Y-13.2678
G01 X-53.3810 Y-13.1921
G01 X-53.4156 Y-13.0875
G01 X-53.4242 Y-12.9997
G01 X-53.4156 Y-12.9119
G01 X-53.3900 Y-12.8275
G01 X-53.3484 Y-12.7497
G01 X-53.2924 Y-12.6815
G01 X-53.2242 Y-12.6256
G01 X-53.1464 Y-12.5840
G01 X-53.0620 Y-12.5584
G01 X-52.9742 Y-12.5497
G01 X-52.8864 Y-12.5584
G01 X-52.8020 Y-12.5840
G01 X-52.7242 Y-12.6256
G01 X-52.6560 Y-12.6815
G01 X-52.6001 Y-12.7497
G01 X-52.5585 Y-12.8275
G01 X-52.5329 Y-12.9119
G01 X-52.5242 Y-12.9997
G00 X-52.5242 Y-12.9997
G01 F60.00
G01 Z-2.0000
G01 F120.00
G01 X-52.5329 Y-12.9119
G01 X-52.5585 Y-12.8275
G01 X-52.6001 Y-12.7497
G01 X-52.6560 Y-12.6815
G01 X-52.7242 Y-12.6256
G01 X-52.8020 Y-12.5840
G01 X-52.8864 Y-12.5584
G01 X-52.9742 Y-12.5497
G01 X-53.0620 Y-12.5584
G01 X-53.1464 Y-12.5840
G01 X-53.2242 Y-12.6256
G01 X-53.2924 Y-12.6815
G01 X-53.3484 Y-12.7497
G01 X-53.3900 Y-12.8275
G01 X-53.4156 Y-12.9119
G01 X-53.4242 Y-12.9997
G01 X-53.4156 Y-13.0875
G01 X-53.3810 Y-13.1921
G01 X-53.3357 Y-13.2678
G01 X-53.2597 Y-13.3476
G01 X-53.1666 Y-13.4065
G01 X-53.0620 Y-13.4411
G01 X-52.9522 Y-13.4492
G01 X-52.8649 Y-13.4362
G01 X-52.8020 Y-13.4155
G01 X-52.7242 Y-13.3739
G01 X-52.6560 Y-13.3179
G01 X-52.6128 Y-13.2678
G01 X-52.5505 Y-13.1513
G01 X-52.5291 Y-13.0657
G01 X-52.5242 Y-12.9997
G01 X-51.6242 Y-12.9997
G01 X-51.6389 Y-12.8016
G01 X-51.6647 Y-12.6717
G01 X-51.7032 Y-12.5449
G01 X-51.7836 Y-12.3633
G01 X-51.8899 Y-12.1955
G01 X-52.0196 Y-12.0451
G01 X-52.1700 Y-11.9154
G01 X-52.3379 Y-11.8091
G01 X-52.5194 Y-11.7286
G01 X-52.6462 Y-11.6902
G01 X-52.7762 Y-11.6643
G01 X-52.9742 Y-11.6497
G01 X-53.1066 Y-11.6562
G01 X-53.2376 Y-11.6757
G01 X-53.3661 Y-11.7079
G01 X-53.4909 Y-11.7525
G01 X-53.6106 Y-11.8091
G01 X-53.7243 Y-11.8772
G01 X-53.8307 Y-11.9562
G01 X-53.9288 Y-12.0451
G01 X-54.0178 Y-12.1433
G01 X-54.0967 Y-12.2497
G01 X-54.1648 Y-12.3633
G01 X-54.2215 Y-12.4831
G01 X-54.2661 Y-12.6078
G01 X-54.2983 Y-12.7363
G01 X-54.3177 Y-12.8674
G01 X-54.3242 Y-12.9997
G01 X-54.3177 Y-13.1320
G01 X-54.2983 Y-13.2631
G01 X-54.2661 Y-13.3916
G01 X-54.2215 Y-13.5163
G01 X-54.1648 Y-13.6361
G01 X-54.0967 Y-13.7497
G01 X-54.0178 Y-13.8562
G01 X-53.8808 Y-14.0000
G01 X-53.7784 Y-14.0841
G01 X-53.6683 Y-14.1577
G01 X-53.5514 Y-14.2201
G01 X-53.3661 Y-14.2916
G01 X-53.1723 Y-14.3351
G01 X-53.0405 Y-14.3481
G01 X-52.9080 Y-14.3481
G01 X-52.7762 Y-14.3351
G01 X-52.5824 Y-14.2916
G01 X-52.4576 Y-14.2470
G01 X-52.3379 Y-14.1903
G01 X-52.1700 Y-14.0841
G01 X-52.0676 Y-14.0000
G01 X-51.9740 Y-13.9063
G01 X-51.8899 Y-13.8039
G01 X-51.8163 Y-13.6938
G01 X-51.7270 Y-13.5163
G01 X-51.6824 Y-13.3916
G01 X-51.6502 Y-13.2631
G01 X-51.6307 Y-13.1320
G01 X-51.6242 Y-12.9997
G01 X-50.7242 Y-12.9997
G01 X-50.7351 Y-12.7792
G01 X-50.7675 Y-12.5608
G01 X-50.7917 Y-12.4530
G01 X-50.8558 Y-12.2417
G01 X-50.9403 Y-12.0377
G01 X-51.0444 Y-11.8430
G01 X-51.1034 Y-11.7497
G01 X-51.2350 Y-11.5723
G01 X-51.3832 Y-11.4087
G01 X-51.5469 Y-11.2604
G01 X-51.7242 Y-11.1289
G01 X-51.9136 Y-11.0154
G01 X-52.1132 Y-10.9210
G01 X-52.2162 Y-10.8812
G01 X-52.3211 Y-10.8466
G01 X-52.5353 Y-10.7930
G01 X-52.7537 Y-10.7606
G01 X-52.9742 Y-10.7497
G01 X-53.1948 Y-10.7606
G01 X-53.4132 Y-10.7930
G01 X-53.6274 Y-10.8466
G01 X-53.8353 Y-10.9210
G01 X-54.0349 Y-11.0154
G01 X-54.2243 Y-11.1289
G01 X-54.4016 Y-11.2604
G01 X-54.5652 Y-11.4087
G01 X-54.7135 Y-11.5723
G01 X-54.8450 Y-11.7497
G01 X-54.9586 Y-11.9391
G01 X-55.0530 Y-12.1387
G01 X-55.1274 Y-12.3466
G01 X-55.1810 Y-12.5608
G01 X-55.2134 Y-12.7792
G01 X-55.2242 Y-12.9997
G01 X-55.2134 Y-13.2203
G01 X-55.1810 Y-13.4387
G01 X-55.1274 Y-13.6529
G01 X-55.0530 Y-13.8608
G01 X-54.9586 Y-14.0604
G01 X-54.8450 Y-14.2498
G01 X-54.7135 Y-14.4271
G01 X-54.5652 Y-14.5907
G01 X-54.4016 Y-14.7390
G01 X-54.2243 Y-14.8705
G01 X-54.0349 Y-14.9840
G01 X-53.8353 Y-15.0784
G01 X-53.6274 Y-15.1528
G01 X-53.4132 Y-15.2065
G01 X-53.1948 Y-15.2389
G01 X-52.9742 Y-15.2497
G01 X-52.7537 Y-15.2389
G01 X-52.5353 Y-15.2065
G01 X-52.3211 Y-15.1528
G01 X-52.1132 Y-15.0784
G01 X-51.9136 Y-14.9840
G01 X-51.7242 Y-14.8705
G01 X-51.5469 Y-14.7390
G01 X-51.3832 Y-14.5907
G01 X-51.2350 Y-14.4271
G01 X-51.1034 Y-14.2498
G01 X-50.9899 Y-14.0604
G01 X-50.8955 Y-13.8608
G01 X-50.8211 Y-13.6529
G01 X-50.7675 Y-13.4387
G01 X-50.7351 Y-13.2203
G01 X-50.7242 Y-12.9997
G00 X-50.7242 Y-12.9997
G01 F60.00
G01 Z-2.5000
G01 F120.00
G01 X-50.7351 Y-13.2203
G01 X-50.7675 Y-13.4387
G01 X-50.8211 Y-13.6529
G01 X-50.8955 Y-13.8608
G01 X-50.9899 Y-14.0604
G01 X-51.1034 Y-14.2498
G01 X-51.2350 Y-14.4271
G01 X-51.3832 Y-14.5907
G01 X-51.5469 Y-14.7390
G01 X-51.7242 Y-14.8705
G01 X-51.9136 Y-14.9840
G01 X-52.1132 Y-15.0784
G01 X-52.3211 Y-15.1528
G01 X-52.5353 Y-15.2065
G01 X-52.7537 Y-15.2389
G01 X-52.9742 Y-15.2497
G01 X-53.1948 Y-15.2389
G01 X-53.4132 Y-15.2065
G01 X-53.6274 Y-15.1528
G01 X-53.8353 Y-15.0784
G01 X-54.0349 Y-14.9840
G01 X-54.2243 Y-14.8705
G01 X-54.4016 Y-14.7390
G01 X-54.5652 Y-14.5907
G01 X-54.7135 Y-14.4271
G01 X-54.8450 Y-14.2498
G01 X-54.9586 Y-14.0604
G01 X-55.0530 Y-13.8608
G01 X-55.1274 Y-13.6529
G01 X-55.1810 Y-13.4387
G01 X-55.2134 Y-13.2203
G01 X-55.2242 Y-12.9997
G01 X-55.2134 Y-12.7792
G01 X-55.1810 Y-12.5608
G01 X-55.1274 Y-12.3466
G01 X-55.0530 Y-12.1387
G01 X-54.9586 Y-11.9391
G01 X-54.8450 Y-11.7497
G01 X-54.7135 Y-11.5723
G01 X-54.5652 Y-11.4087
G01 X-54.4016 Y-11.2604
G01 X-54.2243 Y-11.1289
G01 X-54.0349 Y-11.0154
G01 X-53.8353 Y-10.9210
G01 X-53.6274 Y-10.8466
G01 X-53.4132 Y-10.7930
G01 X-53.1948 Y-10.7606
G01 X-52.9742 Y-10.7497
G01 X-52.7537 Y-10.7606
G01 X-52.5353 Y-10.7930
G01 X-52.3211 Y-10.8466
G01 X-52.2162 Y-10.8812
G01 X-52.1132 Y-10.9210
G01 X-51.9136 Y-11.0154
G01 X-51.7242 Y-11.1289
G01 X-51.5469 Y-11.2604
G01 X-51.3832 Y-11.4087
G01 X-51.2350 Y-11.5723
G01 X-51.1034 Y-11.7497
G01 X-51.0444 Y-11.8430
G01 X-50.9403 Y-12.0377
G01 X-50.8558 Y-12.2417
G01 X-50.7917 Y-12.4530
G01 X-50.7675 Y-12.5608
G01 X-50.7351 Y-12.7792
G01 X-50.7242 Y-12.9997
G01 X-51.6242 Y-12.9997
G01 X-51.6307 Y-13.1320
G01 X-51.6502 Y-13.2631
G01 X-51.6824 Y-13.3916
G01 X-51.7270 Y-13.5163
G01 X-51.8163 Y-13.6938
G01 X-51.8899 Y-13.8039
G01 X-51.9740 Y-13.9063
G01 X-52.0676 Y-14.0000
G01 X-52.1700 Y-14.0841
G01 X-52.3379 Y-14.1903
G01 X-52.4576 Y-14.2470
G01 X-52.5824 Y-14.2916
G01 X-52.7762 Y-14.3351
G01 X-52.9080 Y-14.3481
G01 X-53.0405 Y-14.3481
G01 X-53.1723 Y-14.3351
G01 X-53.3661 Y-14.2916
G01 X-53.5514 Y-14.2201
G01 X-53.6683 Y-14.1577
G01 X-53.7784 Y-14.0841
G01 X-53.8808 Y-14.0000
G01 X-53.9745 Y-13.9063
G01 X-54.0586 Y-13.8039
G01 X-54.1322 Y-13.6938
G01 X-54.2215 Y-13.5163
G01 X-54.2661 Y-13.3916
G01 X-54.2983 Y-13.2631
G01 X-54.3177 Y-13.1320
G01 X-54.3242 Y-12.9997
G01 X-54.3177 Y-12.8674
G01 X-54.2983 Y-12.7363
G01 X-54.2661 Y-12.6078
G01 X-54.2215 Y-12.4831
G01 X-54.1648 Y-12.3633
G01 X-54.0967 Y-12.2497
G01 X-54.0178 Y-12.1433
G01 X-53.9288 Y-12.0451
G01 X-53.8307 Y-11.9562
G01 X-53.7243 Y-11.8772
G01 X-53.6106 Y-11.8091
G01 X-53.4909 Y-11.7525
G01 X-53.3661 Y-11.7079
G01 X-53.2376 Y-11.6757
G01 X-53.1066 Y-11.6562
G01 X-52.9742 Y-11.6497
G01 X-52.7762 Y-11.6643
G01 X-52.6462 Y-11.6902
G01 X-52.5194 Y-11.7286
G01 X-52.3379 Y-11.8091
G01 X-52.1700 Y-11.9154
G01 X-52.0196 Y-12.0451
G01 X-51.8899 Y-12.1955
G01 X-51.7836 Y-12.3633
G01 X-51.7032 Y-12.5449
G01 X-51.6647 Y-12.6717
G01 X-51.6389 Y-12.8016
G01 X-51.6242 Y-12.9997
G01 X-52.5242 Y-12.9997
G01 X-52.5291 Y-13.0657
G01 X-52.5505 Y-13.1513
G01 X-52.6128 Y-13.2678
G01 X-52.6560 Y-13.3179
G01 X-52.7242 Y-13.3739
G01 X-52.8020 Y-13.4155
G01 X-52.8649 Y-13.4362
G01 X-52.9522 Y-13.4492
G01 X-53.0620 Y-13.4411
G01 X-53.1666 Y-13.4065
G01 X-53.2597 Y-13.3476
G01 X-53.3357 Y-13.2678
G01 X-53.3810 Y-13.1921
G01 X-53.4156 Y-13.0875
G01 X-53.4242 Y-12.9997
G01 X-53.4156 Y-12.9119
G01 X-53.3900 Y-12.8275
G01 X-53.3484 Y-12.7497
G01 X-53.2924 Y-12.6815
G01 X-53.2242 Y-12.6256
G01 X-53.1464 Y-12.5840
G01 X-53.0620 Y-12.5584
G01 X-52.9742 Y-12.5497
G01 X-52.8864 Y-12.5584
G01 X-52.8020 Y-12.5840
G01 X-52.7242 Y-12.6256
G01 X-52.6560 Y-12.6815
G01 X-52.6001 Y-12.7497
G01 X-52.5585 Y-12.8275
G01 X-52.5329 Y-12.9119
G01 X-52.5242 Y-12.9997
G00 Z2.0000
M05
G00 Z2.0000
G00 Z15.00
G00 X0.0 Y0.0


