(G-code generated by FlatCAM Evo vUnstable - Version Date: 2022/4/31)

(Name: maynuo_banana_adapter-Edge_Cuts_cutout_cnc)
(Type: G-code from Geometry)
(Units: MM)

(Created on Wednesday, 26 April 2023 at 19:48)

(This preprocessor is the default preprocessor.)
(It is made to work with MACH3 compatible motion controllers.)

(TOOL DIAMETER: 1.0 mm)
(Feedrate_XY: 120.0 mm/min)
(Feedrate_Z: 60.0 mm/min)
(Feedrate rapids 1500.0 mm/min)

(Z_Cut: -2.5 mm)
(DepthPerCut: 0.5 mm <=>5 passes)
(Z_Move: 2.0 mm)
(Z Start: None mm)
(Z End: 15.0 mm)
(X,Y End: 0.0000, 0.0000 mm)
(Steps per circle: 16)
(Preprocessor Geometry: default)

(X range:  -75.5367 ...   -0.4133  mm)
(Y range:  -38.8250 ...   -0.3750  mm)

(Spindle Speed: 13000.0 RPM)
G21
G90
G94

G01 F120.00
G00 Z2.0000

M03 S13000.0
G4 P1.0
G01 F120.00
G00 X-1.1659 Y-27.7781
G01 F60.00
G01 Z-0.5000
G01 F120.00
G01 X-0.4422 Y-30.0728
G01 X-0.4192 Y-30.1753
G01 X-0.4137 Y-30.2831
G01 X-0.4991 Y-32.6575
G01 X-0.5123 Y-32.7646
G01 X-0.5426 Y-32.8652
G01 X-1.4173 Y-35.0743
G01 X-1.4655 Y-35.1708
G01 X-1.5277 Y-35.2554
G01 X-3.0910 Y-37.0447
G01 X-3.1666 Y-37.1177
G01 X-3.2557 Y-37.1785
G01 X-5.3275 Y-38.3417
G01 X-5.4257 Y-38.3862
G01 X-5.5274 Y-38.4127
G01 X-7.9298 Y-38.8234
G01 X-68.0286 Y-38.8227
G01 X-70.4226 Y-38.4127
G01 X-70.5269 Y-38.3853
G01 X-70.6225 Y-38.3417
G01 X-72.6943 Y-37.1785
G01 X-72.7834 Y-37.1177
G01 X-72.8590 Y-37.0447
G01 X-74.4223 Y-35.2554
G01 X-74.4859 Y-35.1684
G01 X-74.5327 Y-35.0743
G01 X-75.4074 Y-32.8652
G01 X-75.4377 Y-32.7646
G01 X-75.4501 Y-32.6745
G01 X-75.5363 Y-30.2831
G01 X-75.5308 Y-30.1753
G01 X-75.5078 Y-30.0728
G01 X-74.7727 Y-27.7490
G01 X-64.1984 Y-7.2184
G01 X-64.1535 Y-7.1443
G01 X-61.4725 Y-3.6762
G01 X-61.3949 Y-3.5928
G01 X-61.3035 Y-3.5249
G01 X-57.5842 Y-1.2570
G01 X-57.4819 Y-1.2068
G01 X-57.3722 Y-1.1760
G01 X-53.0277 Y-0.3772
G01 X-22.9603 Y-0.3752
G01 X-22.8616 Y-0.3854
G01 X-18.5778 Y-1.1760
G01 X-18.4939 Y-1.1977
G01 X-18.3915 Y-1.2422
G01 X-14.6465 Y-3.5249
G01 X-14.5551 Y-3.5928
G01 X-14.4775 Y-3.6762
G01 X-11.7824 Y-7.1653
G01 X-1.1659 Y-27.7781
G00 X-1.1659 Y-27.7781
G01 F60.00
G01 Z-1.0000
G01 F120.00
G01 X-11.7824 Y-7.1653
G01 X-14.4775 Y-3.6762
G01 X-14.5551 Y-3.5928
G01 X-14.6465 Y-3.5249
G01 X-18.3915 Y-1.2422
G01 X-18.4939 Y-1.1977
G01 X-18.5778 Y-1.1760
G01 X-22.8616 Y-0.3854
G01 X-22.9603 Y-0.3752
G01 X-53.0277 Y-0.3772
G01 X-57.3722 Y-1.1760
G01 X-57.4819 Y-1.2068
G01 X-57.5842 Y-1.2570
G01 X-61.3035 Y-3.5249
G01 X-61.3949 Y-3.5928
G01 X-61.4725 Y-3.6762
G01 X-64.1535 Y-7.1443
G01 X-64.1984 Y-7.2184
G01 X-74.7727 Y-27.7490
G01 X-75.5078 Y-30.0728
G01 X-75.5308 Y-30.1753
G01 X-75.5363 Y-30.2831
G01 X-75.4501 Y-32.6745
G01 X-75.4377 Y-32.7646
G01 X-75.4074 Y-32.8652
G01 X-74.5327 Y-35.0743
G01 X-74.4859 Y-35.1684
G01 X-74.4223 Y-35.2554
G01 X-72.8590 Y-37.0447
G01 X-72.7834 Y-37.1177
G01 X-72.6943 Y-37.1785
G01 X-70.6225 Y-38.3417
G01 X-70.5269 Y-38.3853
G01 X-70.4226 Y-38.4127
G01 X-68.0286 Y-38.8227
G01 X-7.9298 Y-38.8234
G01 X-5.5274 Y-38.4127
G01 X-5.4257 Y-38.3862
G01 X-5.3275 Y-38.3417
G01 X-3.2557 Y-37.1785
G01 X-3.1666 Y-37.1177
G01 X-3.0910 Y-37.0447
G01 X-1.5277 Y-35.2554
G01 X-1.4655 Y-35.1708
G01 X-1.4173 Y-35.0743
G01 X-0.5426 Y-32.8652
G01 X-0.5123 Y-32.7646
G01 X-0.4991 Y-32.6575
G01 X-0.4137 Y-30.2831
G01 X-0.4192 Y-30.1753
G01 X-0.4422 Y-30.0728
G01 X-1.1659 Y-27.7781
G00 X-1.1659 Y-27.7781
G01 F60.00
G01 Z-1.5000
G01 F120.00
G01 X-0.4422 Y-30.0728
G01 X-0.4192 Y-30.1753
G01 X-0.4137 Y-30.2831
G01 X-0.4991 Y-32.6575
G01 X-0.5123 Y-32.7646
G01 X-0.5426 Y-32.8652
G01 X-1.4173 Y-35.0743
G01 X-1.4655 Y-35.1708
G01 X-1.5277 Y-35.2554
G01 X-3.0910 Y-37.0447
G01 X-3.1666 Y-37.1177
G01 X-3.2557 Y-37.1785
G01 X-5.3275 Y-38.3417
G01 X-5.4257 Y-38.3862
G01 X-5.5274 Y-38.4127
G01 X-7.9298 Y-38.8234
G01 X-68.0286 Y-38.8227
G01 X-70.4226 Y-38.4127
G01 X-70.5269 Y-38.3853
G01 X-70.6225 Y-38.3417
G01 X-72.6943 Y-37.1785
G01 X-72.7834 Y-37.1177
G01 X-72.8590 Y-37.0447
G01 X-74.4223 Y-35.2554
G01 X-74.4859 Y-35.1684
G01 X-74.5327 Y-35.0743
G01 X-75.4074 Y-32.8652
G01 X-75.4377 Y-32.7646
G01 X-75.4501 Y-32.6745
G01 X-75.5363 Y-30.2831
G01 X-75.5308 Y-30.1753
G01 X-75.5078 Y-30.0728
G01 X-74.7727 Y-27.7490
G01 X-64.1984 Y-7.2184
G01 X-64.1535 Y-7.1443
G01 X-61.4725 Y-3.6762
G01 X-61.3949 Y-3.5928
G01 X-61.3035 Y-3.5249
G01 X-57.5842 Y-1.2570
G01 X-57.4819 Y-1.2068
G01 X-57.3722 Y-1.1760
G01 X-53.0277 Y-0.3772
G01 X-22.9603 Y-0.3752
G01 X-22.8616 Y-0.3854
G01 X-18.5778 Y-1.1760
G01 X-18.4939 Y-1.1977
G01 X-18.3915 Y-1.2422
G01 X-14.6465 Y-3.5249
G01 X-14.5551 Y-3.5928
G01 X-14.4775 Y-3.6762
G01 X-11.7824 Y-7.1653
G01 X-1.1659 Y-27.7781
G00 X-1.1659 Y-27.7781
G01 F60.00
G01 Z-2.0000
G01 F120.00
G01 X-11.7824 Y-7.1653
G01 X-14.4775 Y-3.6762
G01 X-14.5551 Y-3.5928
G01 X-14.6465 Y-3.5249
G01 X-18.3915 Y-1.2422
G01 X-18.4939 Y-1.1977
G01 X-18.5778 Y-1.1760
G01 X-22.8616 Y-0.3854
G01 X-22.9603 Y-0.3752
G01 X-53.0277 Y-0.3772
G01 X-57.3722 Y-1.1760
G01 X-57.4819 Y-1.2068
G01 X-57.5842 Y-1.2570
G01 X-61.3035 Y-3.5249
G01 X-61.3949 Y-3.5928
G01 X-61.4725 Y-3.6762
G01 X-64.1535 Y-7.1443
G01 X-64.1984 Y-7.2184
G01 X-74.7727 Y-27.7490
G01 X-75.5078 Y-30.0728
G01 X-75.5308 Y-30.1753
G01 X-75.5363 Y-30.2831
G01 X-75.4501 Y-32.6745
G01 X-75.4377 Y-32.7646
G01 X-75.4074 Y-32.8652
G01 X-74.5327 Y-35.0743
G01 X-74.4859 Y-35.1684
G01 X-74.4223 Y-35.2554
G01 X-72.8590 Y-37.0447
G01 X-72.7834 Y-37.1177
G01 X-72.6943 Y-37.1785
G01 X-70.6225 Y-38.3417
G01 X-70.5269 Y-38.3853
G01 X-70.4226 Y-38.4127
G01 X-68.0286 Y-38.8227
G01 X-7.9298 Y-38.8234
G01 X-5.5274 Y-38.4127
G01 X-5.4257 Y-38.3862
G01 X-5.3275 Y-38.3417
G01 X-3.2557 Y-37.1785
G01 X-3.1666 Y-37.1177
G01 X-3.0910 Y-37.0447
G01 X-1.5277 Y-35.2554
G01 X-1.4655 Y-35.1708
G01 X-1.4173 Y-35.0743
G01 X-0.5426 Y-32.8652
G01 X-0.5123 Y-32.7646
G01 X-0.4991 Y-32.6575
G01 X-0.4137 Y-30.2831
G01 X-0.4192 Y-30.1753
G01 X-0.4422 Y-30.0728
G01 X-1.1659 Y-27.7781
G00 X-1.1659 Y-27.7781
G01 F60.00
G01 Z-2.5000
G01 F120.00
G01 X-0.4422 Y-30.0728
G01 X-0.4192 Y-30.1753
G01 X-0.4137 Y-30.2831
G01 X-0.4991 Y-32.6575
G01 X-0.5123 Y-32.7646
G01 X-0.5426 Y-32.8652
G01 X-1.4173 Y-35.0743
G01 X-1.4655 Y-35.1708
G01 X-1.5277 Y-35.2554
G01 X-3.0910 Y-37.0447
G01 X-3.1666 Y-37.1177
G01 X-3.2557 Y-37.1785
G01 X-5.3275 Y-38.3417
G01 X-5.4257 Y-38.3862
G01 X-5.5274 Y-38.4127
G01 X-7.9298 Y-38.8234
G01 X-68.0286 Y-38.8227
G01 X-70.4226 Y-38.4127
G01 X-70.5269 Y-38.3853
G01 X-70.6225 Y-38.3417
G01 X-72.6943 Y-37.1785
G01 X-72.7834 Y-37.1177
G01 X-72.8590 Y-37.0447
G01 X-74.4223 Y-35.2554
G01 X-74.4859 Y-35.1684
G01 X-74.5327 Y-35.0743
G01 X-75.4074 Y-32.8652
G01 X-75.4377 Y-32.7646
G01 X-75.4501 Y-32.6745
G01 X-75.5363 Y-30.2831
G01 X-75.5308 Y-30.1753
G01 X-75.5078 Y-30.0728
G01 X-74.7727 Y-27.7490
G01 X-64.1984 Y-7.2184
G01 X-64.1535 Y-7.1443
G01 X-61.4725 Y-3.6762
G01 X-61.3949 Y-3.5928
G01 X-61.3035 Y-3.5249
G01 X-57.5842 Y-1.2570
G01 X-57.4819 Y-1.2068
G01 X-57.3722 Y-1.1760
G01 X-53.0277 Y-0.3772
G01 X-22.9603 Y-0.3752
G01 X-22.8616 Y-0.3854
G01 X-18.5778 Y-1.1760
G01 X-18.4939 Y-1.1977
G01 X-18.3915 Y-1.2422
G01 X-14.6465 Y-3.5249
G01 X-14.5551 Y-3.5928
G01 X-14.4775 Y-3.6762
G01 X-11.7824 Y-7.1653
G01 X-1.1659 Y-27.7781
G00 Z2.0000
M05
G00 Z2.0000
G00 Z15.00
G00 X0.0 Y0.0


